(1001)
(T3 D=3.175 CR=0. - ZMIN=-6. - FRESA CON PUNTA PLANA)
G90 G94 G91.1 G40 G49 G17
G21
(WHEN USING FUSION FOR PERSONAL USE, THE FEEDRATE OF RAPID)
(MOVES IS REDUCED TO MATCH THE FEEDRATE OF CUTTING MOVES,)
(WHICH CAN INCREASE MACHINING TIME. UNRESTRICTED RAPID MOVES)
(ARE AVAILABLE WITH A FUSION SUBSCRIPTION.)
G28 G91 Z0.
G90

(TALADRO1)
T3 M6
S5000 M3
G17 G90 G94
G54
G0 X121.663 Y37.557
G43 Z8. H3
G1 Z2. F300.
Z0.317
G18 G2 X121.98 Z0. I0.318 K0.
G1 X122.139
G17 G3 X122.457 Y37.875 I0. J0.318
X120.632 Z-0.087 I-0.912 J0.
X122.457 Z-0.175 I0.912 J0.
X120.632 Z-0.262 I-0.912 J0.
X122.457 Z-0.349 I0.912 J0.
X120.632 Z-0.437 I-0.912 J0.
X122.457 Z-0.524 I0.912 J0.
X120.632 Z-0.611 I-0.912 J0.
X122.457 Z-0.698 I0.912 J0.
X120.632 Z-0.786 I-0.912 J0.
X122.457 Z-0.873 I0.912 J0.
X120.632 Z-0.96 I-0.912 J0.
X122.457 Z-1.048 I0.912 J0.
X120.632 Z-1.135 I-0.912 J0.
X122.457 Z-1.222 I0.912 J0.
X120.632 Z-1.31 I-0.912 J0.
X122.457 Z-1.397 I0.912 J0.
X120.632 Z-1.484 I-0.912 J0.
X122.457 Z-1.571 I0.912 J0.
X120.632 Z-1.659 I-0.912 J0.
X122.457 Z-1.746 I0.912 J0.
X120.632 Z-1.833 I-0.912 J0.
X122.457 Z-1.921 I0.912 J0.
X120.632 Z-2.008 I-0.912 J0.
X122.457 Z-2.095 I0.912 J0.
X120.632 Z-2.183 I-0.912 J0.
X122.457 Z-2.27 I0.913 J0.
X120.632 Z-2.357 I-0.913 J0.
X122.457 Z-2.444 I0.913 J0.
X120.632 Z-2.532 I-0.913 J0.
X122.457 Z-2.619 I0.913 J0.
X120.632 Z-2.706 I-0.913 J0.
X122.457 Z-2.794 I0.913 J0.
X120.632 Z-2.881 I-0.913 J0.
X122.457 Z-2.968 I0.913 J0.
X120.632 Z-3.056 I-0.913 J0.
X122.457 Z-3.143 I0.913 J0.
X120.632 Z-3.23 I-0.913 J0.
X122.457 Z-3.317 I0.913 J0.
X120.632 Z-3.405 I-0.913 J0.
X122.457 Z-3.492 I0.913 J0.
X120.632 Z-3.579 I-0.913 J0.
X122.457 Z-3.667 I0.913 J0.
X120.632 Z-3.754 I-0.913 J0.
X122.457 Z-3.841 I0.913 J0.
X120.632 Z-3.929 I-0.913 J0.
X122.457 Z-4.016 I0.913 J0.
X120.632 Z-4.103 I-0.913 J0.
X122.457 Z-4.19 I0.913 J0.
X120.632 Z-4.278 I-0.913 J0.
X122.457 Z-4.365 I0.913 J0.
X120.632 Z-4.452 I-0.913 J0.
X122.457 Z-4.54 I0.913 J0.
X120.632 Z-4.627 I-0.913 J0.
X122.457 Z-4.714 I0.913 J0.
X120.632 Z-4.802 I-0.913 J0.
X122.457 Z-4.889 I0.913 J0.
X120.632 Z-4.976 I-0.913 J0.
X122.457 Z-5.064 I0.913 J0.
X120.632 Z-5.151 I-0.913 J0.
X122.457 Z-5.238 I0.913 J0.
X120.632 Z-5.325 I-0.913 J0.
X122.457 Z-5.413 I0.913 J0.
X120.632 Z-5.5 I-0.913 J0.
X122.457 Z-5.587 I0.913 J0.
X120.632 Z-5.675 I-0.913 J0.
X122.457 Z-5.762 I0.913 J0.
X120.632 Z-5.849 I-0.913 J0.
X122.457 Z-5.937 I0.913 J0.
X120.947 Y38.565 Z-6. I-0.913 J0.
X122.141 Y37.185 I0.597 J-0.69
X120.947 Y38.565 I-0.597 J0.69
X120.915 Y38.117 I0.208 J-0.24
G1 X121.019 Y37.997
X121.065 Y37.944 Z-5.992
X121.109 Y37.893 Z-5.969
X121.148 Y37.848 Z-5.931
X121.181 Y37.809 Z-5.88
X121.206 Y37.781 Z-5.82
X121.221 Y37.763 Z-5.753
X121.226 Y37.757 Z-5.682
Z3.
X99.244 Y15.138
Z2.
Z0.317
G18 G2 X99.561 Z0. I0.317 K0.
G1 X99.72
G17 G3 X100.037 Y15.456 I0. J0.318
X98.213 Z-0.087 I-0.912 J0.
X100.037 Z-0.175 I0.912 J0.
X98.213 Z-0.262 I-0.912 J0.
X100.037 Z-0.349 I0.912 J0.
X98.213 Z-0.437 I-0.912 J0.
X100.037 Z-0.524 I0.912 J0.
X98.213 Z-0.611 I-0.912 J0.
X100.037 Z-0.698 I0.912 J0.
X98.213 Z-0.786 I-0.912 J0.
X100.037 Z-0.873 I0.912 J0.
X98.213 Z-0.96 I-0.912 J0.
X100.037 Z-1.048 I0.912 J0.
X98.213 Z-1.135 I-0.912 J0.
X100.037 Z-1.222 I0.912 J0.
X98.213 Z-1.31 I-0.912 J0.
X100.037 Z-1.397 I0.912 J0.
X98.213 Z-1.484 I-0.912 J0.
X100.037 Z-1.571 I0.912 J0.
X98.213 Z-1.659 I-0.912 J0.
X100.037 Z-1.746 I0.912 J0.
X98.213 Z-1.833 I-0.912 J0.
X100.037 Z-1.921 I0.912 J0.
X98.213 Z-2.008 I-0.912 J0.
X100.037 Z-2.095 I0.912 J0.
X98.213 Z-2.183 I-0.912 J0.
X100.037 Z-2.27 I0.912 J0.
X98.213 Z-2.357 I-0.912 J0.
X100.037 Z-2.444 I0.912 J0.
X98.213 Z-2.532 I-0.912 J0.
X100.037 Z-2.619 I0.912 J0.
X98.213 Z-2.706 I-0.912 J0.
X100.037 Z-2.794 I0.912 J0.
X98.213 Z-2.881 I-0.912 J0.
X100.037 Z-2.968 I0.912 J0.
X98.213 Z-3.056 I-0.912 J0.
X100.037 Z-3.143 I0.912 J0.
X98.213 Z-3.23 I-0.912 J0.
X100.037 Z-3.317 I0.912 J0.
X98.213 Z-3.405 I-0.912 J0.
X100.037 Z-3.492 I0.912 J0.
X98.213 Z-3.579 I-0.912 J0.
X100.037 Z-3.667 I0.912 J0.
X98.213 Z-3.754 I-0.912 J0.
X100.037 Z-3.841 I0.912 J0.
X98.213 Z-3.929 I-0.912 J0.
X100.037 Z-4.016 I0.912 J0.
X98.213 Z-4.103 I-0.912 J0.
X100.037 Z-4.19 I0.912 J0.
X98.213 Z-4.278 I-0.912 J0.
X100.037 Z-4.365 I0.912 J0.
X98.213 Z-4.452 I-0.912 J0.
X100.037 Z-4.54 I0.912 J0.
X98.213 Z-4.627 I-0.912 J0.
X100.037 Z-4.714 I0.912 J0.
X98.213 Z-4.802 I-0.912 J0.
X100.037 Z-4.889 I0.912 J0.
X98.213 Z-4.976 I-0.912 J0.
X100.037 Z-5.064 I0.912 J0.
X98.213 Z-5.151 I-0.912 J0.
X100.037 Z-5.238 I0.912 J0.
X98.213 Z-5.325 I-0.912 J0.
X100.037 Z-5.413 I0.912 J0.
X98.213 Z-5.5 I-0.912 J0.
X100.037 Z-5.587 I0.912 J0.
X98.213 Z-5.675 I-0.912 J0.
X100.037 Z-5.762 I0.912 J0.
X98.213 Z-5.849 I-0.912 J0.
X100.037 Z-5.937 I0.912 J0.
X98.528 Y16.146 Z-6. I-0.912 J0.
X99.722 Y14.766 I0.597 J-0.69
X98.528 Y16.146 I-0.597 J0.69
X98.496 Y15.698 I0.208 J-0.24
G1 X98.599 Y15.578
X98.646 Y15.525 Z-5.992
X98.69 Y15.474 Z-5.969
X98.729 Y15.428 Z-5.931
X98.762 Y15.39 Z-5.88
X98.787 Y15.362 Z-5.82
X98.802 Y15.344 Z-5.753
X98.807 Y15.338 Z-5.682
Z3.
X68.619 Y6.932
Z2.
Z0.317
G18 G2 X68.936 Z0. I0.317 K0.
G1 X69.095
G17 G3 X69.412 Y7.25 I0. J0.318
X67.588 Z-0.087 I-0.912 J0.
X69.412 Z-0.175 I0.912 J0.
X67.588 Z-0.262 I-0.912 J0.
X69.412 Z-0.349 I0.912 J0.
X67.588 Z-0.437 I-0.912 J0.
X69.412 Z-0.524 I0.912 J0.
X67.588 Z-0.611 I-0.912 J0.
X69.412 Z-0.698 I0.912 J0.
X67.588 Z-0.786 I-0.912 J0.
X69.412 Z-0.873 I0.912 J0.
X67.588 Z-0.96 I-0.912 J0.
X69.412 Z-1.048 I0.912 J0.
X67.588 Z-1.135 I-0.912 J0.
X69.412 Z-1.222 I0.912 J0.
X67.588 Z-1.31 I-0.912 J0.
X69.412 Z-1.397 I0.912 J0.
X67.588 Z-1.484 I-0.912 J0.
X69.412 Z-1.571 I0.912 J0.
X67.588 Z-1.659 I-0.912 J0.
X69.412 Z-1.746 I0.912 J0.
X67.588 Z-1.833 I-0.912 J0.
X69.412 Z-1.921 I0.912 J0.
X67.588 Z-2.008 I-0.912 J0.
X69.412 Z-2.095 I0.912 J0.
X67.588 Z-2.183 I-0.912 J0.
X69.412 Z-2.27 I0.912 J0.
X67.588 Z-2.357 I-0.912 J0.
X69.412 Z-2.444 I0.912 J0.
X67.588 Z-2.532 I-0.912 J0.
X69.412 Z-2.619 I0.912 J0.
X67.588 Z-2.706 I-0.912 J0.
X69.412 Z-2.794 I0.912 J0.
X67.588 Z-2.881 I-0.912 J0.
X69.412 Z-2.968 I0.912 J0.
X67.588 Z-3.056 I-0.912 J0.
X69.412 Z-3.143 I0.912 J0.
X67.588 Z-3.23 I-0.912 J0.
X69.412 Z-3.317 I0.912 J0.
X67.588 Z-3.405 I-0.912 J0.
X69.412 Z-3.492 I0.912 J0.
X67.588 Z-3.579 I-0.912 J0.
X69.412 Z-3.667 I0.912 J0.
X67.588 Z-3.754 I-0.912 J0.
X69.412 Z-3.841 I0.912 J0.
X67.588 Z-3.929 I-0.912 J0.
X69.412 Z-4.016 I0.912 J0.
X67.588 Z-4.103 I-0.912 J0.
X69.412 Z-4.19 I0.912 J0.
X67.588 Z-4.278 I-0.912 J0.
X69.412 Z-4.365 I0.912 J0.
X67.588 Z-4.452 I-0.912 J0.
X69.412 Z-4.54 I0.912 J0.
X67.588 Z-4.627 I-0.912 J0.
X69.412 Z-4.714 I0.912 J0.
X67.588 Z-4.802 I-0.912 J0.
X69.412 Z-4.889 I0.912 J0.
X67.588 Z-4.976 I-0.912 J0.
X69.412 Z-5.064 I0.912 J0.
X67.588 Z-5.151 I-0.912 J0.
X69.412 Z-5.238 I0.912 J0.
X67.588 Z-5.325 I-0.912 J0.
X69.412 Z-5.413 I0.912 J0.
X67.588 Z-5.5 I-0.912 J0.
X69.412 Z-5.587 I0.912 J0.
X67.588 Z-5.675 I-0.912 J0.
X69.412 Z-5.762 I0.912 J0.
X67.588 Z-5.849 I-0.912 J0.
X69.412 Z-5.937 I0.912 J0.
X67.903 Y7.94 Z-6. I-0.912 J0.
X69.097 Y6.56 I0.597 J-0.69
X67.903 Y7.94 I-0.597 J0.69
X67.871 Y7.492 I0.208 J-0.24
G1 X67.974 Y7.372
X68.021 Y7.319 Z-5.992
X68.065 Y7.268 Z-5.969
X68.104 Y7.223 Z-5.931
X68.137 Y7.184 Z-5.88
X68.162 Y7.156 Z-5.82
X68.177 Y7.138 Z-5.753
X68.182 Y7.132 Z-5.682
Z3.
X37.994 Y15.138
Z2.
Z0.317
G18 G2 X38.311 Z0. I0.317 K0.
G1 X38.47
G17 G3 X38.787 Y15.456 I0. J0.318
X36.963 Z-0.087 I-0.912 J0.
X38.787 Z-0.175 I0.912 J0.
X36.963 Z-0.262 I-0.912 J0.
X38.787 Z-0.349 I0.912 J0.
X36.963 Z-0.437 I-0.912 J0.
X38.787 Z-0.524 I0.912 J0.
X36.963 Z-0.611 I-0.912 J0.
X38.787 Z-0.698 I0.912 J0.
X36.963 Z-0.786 I-0.912 J0.
X38.787 Z-0.873 I0.912 J0.
X36.963 Z-0.96 I-0.912 J0.
X38.787 Z-1.048 I0.912 J0.
X36.963 Z-1.135 I-0.912 J0.
X38.787 Z-1.222 I0.912 J0.
X36.963 Z-1.31 I-0.912 J0.
X38.787 Z-1.397 I0.912 J0.
X36.963 Z-1.484 I-0.912 J0.
X38.787 Z-1.571 I0.912 J0.
X36.963 Z-1.659 I-0.912 J0.
X38.787 Z-1.746 I0.912 J0.
X36.963 Z-1.833 I-0.912 J0.
X38.787 Z-1.921 I0.912 J0.
X36.963 Z-2.008 I-0.912 J0.
X38.787 Z-2.095 I0.912 J0.
X36.963 Z-2.183 I-0.912 J0.
X38.787 Z-2.27 I0.912 J0.
X36.963 Z-2.357 I-0.912 J0.
X38.787 Z-2.444 I0.912 J0.
X36.963 Z-2.532 I-0.912 J0.
X38.787 Z-2.619 I0.912 J0.
X36.963 Z-2.706 I-0.912 J0.
X38.787 Z-2.794 I0.912 J0.
X36.963 Z-2.881 I-0.912 J0.
X38.787 Z-2.968 I0.912 J0.
X36.963 Z-3.056 I-0.912 J0.
X38.787 Z-3.143 I0.912 J0.
X36.963 Z-3.23 I-0.912 J0.
X38.787 Z-3.317 I0.912 J0.
X36.963 Z-3.405 I-0.912 J0.
X38.787 Z-3.492 I0.912 J0.
X36.963 Z-3.579 I-0.912 J0.
X38.787 Z-3.667 I0.912 J0.
X36.963 Z-3.754 I-0.912 J0.
X38.787 Z-3.841 I0.912 J0.
X36.963 Z-3.929 I-0.912 J0.
X38.787 Z-4.016 I0.912 J0.
X36.963 Z-4.103 I-0.912 J0.
X38.787 Z-4.19 I0.912 J0.
X36.963 Z-4.278 I-0.912 J0.
X38.787 Z-4.365 I0.912 J0.
X36.963 Z-4.452 I-0.912 J0.
X38.787 Z-4.54 I0.912 J0.
X36.963 Z-4.627 I-0.912 J0.
X38.787 Z-4.714 I0.912 J0.
X36.963 Z-4.802 I-0.912 J0.
X38.787 Z-4.889 I0.912 J0.
X36.963 Z-4.976 I-0.912 J0.
X38.787 Z-5.064 I0.912 J0.
X36.963 Z-5.151 I-0.912 J0.
X38.787 Z-5.238 I0.912 J0.
X36.963 Z-5.325 I-0.912 J0.
X38.787 Z-5.413 I0.912 J0.
X36.963 Z-5.5 I-0.912 J0.
X38.787 Z-5.587 I0.912 J0.
X36.963 Z-5.675 I-0.912 J0.
X38.787 Z-5.762 I0.912 J0.
X36.963 Z-5.849 I-0.912 J0.
X38.787 Z-5.937 I0.912 J0.
X37.278 Y16.146 Z-6. I-0.912 J0.
X38.472 Y14.766 I0.597 J-0.69
X37.278 Y16.146 I-0.597 J0.69
X37.246 Y15.698 I0.208 J-0.24
G1 X37.349 Y15.578
X37.396 Y15.525 Z-5.992
X37.44 Y15.474 Z-5.969
X37.479 Y15.428 Z-5.931
X37.512 Y15.39 Z-5.88
X37.537 Y15.362 Z-5.82
X37.552 Y15.344 Z-5.753
X37.557 Y15.338 Z-5.682
Z3.
X15.575 Y37.557
Z2.
Z0.317
G18 G2 X15.892 Z0. I0.318 K0.
G1 X16.051
G17 G3 X16.368 Y37.875 I0. J0.318
X14.543 Z-0.087 I-0.913 J0.
X16.368 Z-0.175 I0.913 J0.
X14.543 Z-0.262 I-0.913 J0.
X16.368 Z-0.349 I0.913 J0.
X14.543 Z-0.437 I-0.913 J0.
X16.368 Z-0.524 I0.913 J0.
X14.543 Z-0.611 I-0.913 J0.
X16.368 Z-0.698 I0.913 J0.
X14.543 Z-0.786 I-0.913 J0.
X16.368 Z-0.873 I0.913 J0.
X14.543 Z-0.96 I-0.913 J0.
X16.368 Z-1.048 I0.913 J0.
X14.543 Z-1.135 I-0.913 J0.
X16.368 Z-1.222 I0.913 J0.
X14.543 Z-1.31 I-0.913 J0.
X16.368 Z-1.397 I0.913 J0.
X14.543 Z-1.484 I-0.913 J0.
X16.368 Z-1.571 I0.913 J0.
X14.543 Z-1.659 I-0.913 J0.
X16.368 Z-1.746 I0.913 J0.
X14.543 Z-1.833 I-0.912 J0.
X16.368 Z-1.921 I0.912 J0.
X14.543 Z-2.008 I-0.912 J0.
X16.368 Z-2.095 I0.912 J0.
X14.543 Z-2.183 I-0.912 J0.
X16.368 Z-2.27 I0.912 J0.
X14.543 Z-2.357 I-0.912 J0.
X16.368 Z-2.444 I0.912 J0.
X14.543 Z-2.532 I-0.912 J0.
X16.368 Z-2.619 I0.912 J0.
X14.543 Z-2.706 I-0.912 J0.
X16.368 Z-2.794 I0.912 J0.
X14.543 Z-2.881 I-0.912 J0.
X16.368 Z-2.968 I0.912 J0.
X14.543 Z-3.056 I-0.912 J0.
X16.368 Z-3.143 I0.912 J0.
X14.543 Z-3.23 I-0.912 J0.
X16.368 Z-3.317 I0.912 J0.
X14.543 Z-3.405 I-0.912 J0.
X16.368 Z-3.492 I0.912 J0.
X14.543 Z-3.579 I-0.912 J0.
X16.368 Z-3.667 I0.912 J0.
X14.543 Z-3.754 I-0.912 J0.
X16.368 Z-3.841 I0.912 J0.
X14.543 Z-3.929 I-0.912 J0.
X16.368 Z-4.016 I0.912 J0.
X14.543 Z-4.103 I-0.912 J0.
X16.368 Z-4.19 I0.912 J0.
X14.543 Z-4.278 I-0.912 J0.
X16.368 Z-4.365 I0.912 J0.
X14.543 Z-4.452 I-0.912 J0.
X16.368 Z-4.54 I0.912 J0.
X14.543 Z-4.627 I-0.912 J0.
X16.368 Z-4.714 I0.912 J0.
X14.543 Z-4.802 I-0.912 J0.
X16.368 Z-4.889 I0.912 J0.
X14.543 Z-4.976 I-0.912 J0.
X16.368 Z-5.064 I0.912 J0.
X14.543 Z-5.151 I-0.912 J0.
X16.368 Z-5.238 I0.912 J0.
X14.543 Z-5.325 I-0.912 J0.
X16.368 Z-5.413 I0.912 J0.
X14.543 Z-5.5 I-0.912 J0.
X16.368 Z-5.587 I0.912 J0.
X14.543 Z-5.675 I-0.912 J0.
X16.368 Z-5.762 I0.912 J0.
X14.543 Z-5.849 I-0.912 J0.
X16.368 Z-5.937 I0.912 J0.
X14.859 Y38.565 Z-6. I-0.912 J0.
X16.053 Y37.185 I0.597 J-0.69
X14.859 Y38.565 I-0.597 J0.69
X14.827 Y38.117 I0.208 J-0.24
G1 X14.93 Y37.997
X14.977 Y37.944 Z-5.992
X15.021 Y37.893 Z-5.969
X15.06 Y37.848 Z-5.931
X15.093 Y37.809 Z-5.88
X15.118 Y37.781 Z-5.82
X15.133 Y37.763 Z-5.753
X15.138 Y37.757 Z-5.682
Z3.
X7.369 Y68.183
Z2.
Z0.317
G18 G2 X7.686 Z0. I0.318 K0.
G1 X7.845
G17 G3 X8.163 Y68.5 I0. J0.317
X6.337 Z-0.087 I-0.913 J0.
X8.163 Z-0.175 I0.913 J0.
X6.337 Z-0.262 I-0.913 J0.
X8.163 Z-0.349 I0.913 J0.
X6.337 Z-0.437 I-0.913 J0.
X8.163 Z-0.524 I0.913 J0.
X6.337 Z-0.611 I-0.913 J0.
X8.163 Z-0.698 I0.913 J0.
X6.337 Z-0.786 I-0.913 J0.
X8.163 Z-0.873 I0.913 J0.
X6.337 Z-0.96 I-0.913 J0.
X8.163 Z-1.048 I0.913 J0.
X6.337 Z-1.135 I-0.913 J0.
X8.163 Z-1.222 I0.913 J0.
X6.337 Z-1.31 I-0.913 J0.
X8.162 Z-1.397 I0.913 J0.
X6.338 Z-1.484 I-0.912 J0.
X8.162 Z-1.571 I0.912 J0.
X6.338 Z-1.659 I-0.912 J0.
X8.162 Z-1.746 I0.912 J0.
X6.338 Z-1.833 I-0.912 J0.
X8.162 Z-1.921 I0.912 J0.
X6.338 Z-2.008 I-0.912 J0.
X8.162 Z-2.095 I0.912 J0.
X6.338 Z-2.183 I-0.912 J0.
X8.162 Z-2.27 I0.912 J0.
X6.338 Z-2.357 I-0.912 J0.
X8.162 Z-2.444 I0.912 J0.
X6.338 Z-2.532 I-0.912 J0.
X8.162 Z-2.619 I0.912 J0.
X6.338 Z-2.706 I-0.912 J0.
X8.162 Z-2.794 I0.912 J0.
X6.338 Z-2.881 I-0.912 J0.
X8.162 Z-2.968 I0.912 J0.
X6.338 Z-3.056 I-0.912 J0.
X8.162 Z-3.143 I0.912 J0.
X6.338 Z-3.23 I-0.912 J0.
X8.162 Z-3.317 I0.912 J0.
X6.338 Z-3.405 I-0.912 J0.
X8.162 Z-3.492 I0.912 J0.
X6.338 Z-3.579 I-0.912 J0.
X8.162 Z-3.667 I0.912 J0.
X6.338 Z-3.754 I-0.912 J0.
X8.162 Z-3.841 I0.912 J0.
X6.338 Z-3.929 I-0.912 J0.
X8.162 Z-4.016 I0.912 J0.
X6.338 Z-4.103 I-0.912 J0.
X8.162 Z-4.19 I0.912 J0.
X6.338 Z-4.278 I-0.912 J0.
X8.162 Z-4.365 I0.912 J0.
X6.338 Z-4.452 I-0.912 J0.
X8.162 Z-4.54 I0.912 J0.
X6.338 Z-4.627 I-0.912 J0.
X8.162 Z-4.714 I0.912 J0.
X6.338 Z-4.802 I-0.912 J0.
X8.162 Z-4.889 I0.912 J0.
X6.338 Z-4.976 I-0.912 J0.
X8.162 Z-5.064 I0.912 J0.
X6.338 Z-5.151 I-0.912 J0.
X8.162 Z-5.238 I0.912 J0.
X6.338 Z-5.325 I-0.912 J0.
X8.162 Z-5.413 I0.912 J0.
X6.338 Z-5.5 I-0.912 J0.
X8.162 Z-5.587 I0.912 J0.
X6.338 Z-5.675 I-0.912 J0.
X8.162 Z-5.762 I0.912 J0.
X6.338 Z-5.849 I-0.912 J0.
X8.162 Z-5.937 I0.912 J0.
X6.653 Y69.19 Z-6. I-0.912 J0.
X7.847 Y67.81 I0.597 J-0.69
X6.653 Y69.19 I-0.597 J0.69
X6.621 Y68.742 I0.208 J-0.24
G1 X6.724 Y68.622
X6.771 Y68.569 Z-5.992
X6.815 Y68.518 Z-5.969
X6.854 Y68.472 Z-5.931
X6.887 Y68.434 Z-5.88
X6.912 Y68.406 Z-5.82
X6.927 Y68.388 Z-5.753
X6.932 Y68.382 Z-5.682
Z3.
X15.575 Y98.808
Z2.
Z0.317
G18 G2 X15.892 Z0. I0.318 K0.
G1 X16.051
G17 G3 X16.368 Y99.125 I0. J0.317
X14.543 Z-0.087 I-0.913 J0.
X16.368 Z-0.175 I0.913 J0.
X14.543 Z-0.262 I-0.913 J0.
X16.368 Z-0.349 I0.913 J0.
X14.543 Z-0.437 I-0.913 J0.
X16.368 Z-0.524 I0.913 J0.
X14.543 Z-0.611 I-0.913 J0.
X16.368 Z-0.698 I0.913 J0.
X14.543 Z-0.786 I-0.913 J0.
X16.368 Z-0.873 I0.913 J0.
X14.543 Z-0.96 I-0.913 J0.
X16.368 Z-1.048 I0.913 J0.
X14.543 Z-1.135 I-0.913 J0.
X16.368 Z-1.222 I0.913 J0.
X14.543 Z-1.31 I-0.913 J0.
X16.368 Z-1.397 I0.913 J0.
X14.543 Z-1.484 I-0.913 J0.
X16.368 Z-1.571 I0.913 J0.
X14.543 Z-1.659 I-0.913 J0.
X16.368 Z-1.746 I0.913 J0.
X14.543 Z-1.833 I-0.912 J0.
X16.368 Z-1.921 I0.912 J0.
X14.543 Z-2.008 I-0.912 J0.
X16.368 Z-2.095 I0.912 J0.
X14.543 Z-2.183 I-0.912 J0.
X16.368 Z-2.27 I0.912 J0.
X14.543 Z-2.357 I-0.912 J0.
X16.368 Z-2.444 I0.912 J0.
X14.543 Z-2.532 I-0.912 J0.
X16.368 Z-2.619 I0.912 J0.
X14.543 Z-2.706 I-0.912 J0.
X16.368 Z-2.794 I0.912 J0.
X14.543 Z-2.881 I-0.912 J0.
X16.368 Z-2.968 I0.912 J0.
X14.543 Z-3.056 I-0.912 J0.
X16.368 Z-3.143 I0.912 J0.
X14.543 Z-3.23 I-0.912 J0.
X16.368 Z-3.317 I0.912 J0.
X14.543 Z-3.405 I-0.912 J0.
X16.368 Z-3.492 I0.912 J0.
X14.543 Z-3.579 I-0.912 J0.
X16.368 Z-3.667 I0.912 J0.
X14.543 Z-3.754 I-0.912 J0.
X16.368 Z-3.841 I0.912 J0.
X14.543 Z-3.929 I-0.912 J0.
X16.368 Z-4.016 I0.912 J0.
X14.543 Z-4.103 I-0.912 J0.
X16.368 Z-4.19 I0.912 J0.
X14.543 Z-4.278 I-0.912 J0.
X16.368 Z-4.365 I0.912 J0.
X14.543 Z-4.452 I-0.912 J0.
X16.368 Z-4.54 I0.912 J0.
X14.543 Z-4.627 I-0.912 J0.
X16.368 Z-4.714 I0.912 J0.
X14.543 Z-4.802 I-0.912 J0.
X16.368 Z-4.889 I0.912 J0.
X14.543 Z-4.976 I-0.912 J0.
X16.368 Z-5.064 I0.912 J0.
X14.543 Z-5.151 I-0.912 J0.
X16.368 Z-5.238 I0.912 J0.
X14.543 Z-5.325 I-0.912 J0.
X16.368 Z-5.413 I0.912 J0.
X14.543 Z-5.5 I-0.912 J0.
X16.368 Z-5.587 I0.912 J0.
X14.543 Z-5.675 I-0.912 J0.
X16.368 Z-5.762 I0.912 J0.
X14.543 Z-5.849 I-0.912 J0.
X16.368 Z-5.937 I0.912 J0.
X14.859 Y99.815 Z-6. I-0.912 J0.
X16.053 Y98.435 I0.597 J-0.69
X14.859 Y99.815 I-0.597 J0.69
X14.827 Y99.367 I0.208 J-0.24
G1 X14.93 Y99.247
X14.977 Y99.194 Z-5.992
X15.021 Y99.143 Z-5.969
X15.06 Y99.097 Z-5.931
X15.093 Y99.059 Z-5.88
X15.118 Y99.031 Z-5.82
X15.133 Y99.013 Z-5.753
X15.138 Y99.007 Z-5.682
Z3.
X37.994 Y121.227
Z2.
Z0.317
G18 G2 X38.311 Z0. I0.317 K0.
G1 X38.47
G17 G3 X38.787 Y121.544 I0. J0.318
X36.963 Z-0.087 I-0.912 J0.
X38.787 Z-0.175 I0.912 J0.
X36.963 Z-0.262 I-0.912 J0.
X38.787 Z-0.349 I0.912 J0.
X36.963 Z-0.437 I-0.912 J0.
X38.787 Z-0.524 I0.912 J0.
X36.963 Z-0.611 I-0.912 J0.
X38.787 Z-0.698 I0.912 J0.
X36.963 Z-0.786 I-0.912 J0.
X38.787 Z-0.873 I0.912 J0.
X36.963 Z-0.96 I-0.912 J0.
X38.787 Z-1.048 I0.912 J0.
X36.963 Z-1.135 I-0.912 J0.
X38.787 Z-1.222 I0.912 J0.
X36.963 Z-1.31 I-0.912 J0.
X38.787 Z-1.397 I0.912 J0.
X36.963 Z-1.484 I-0.912 J0.
X38.787 Z-1.571 I0.912 J0.
X36.963 Z-1.659 I-0.912 J0.
X38.787 Z-1.746 I0.912 J0.
X36.963 Z-1.833 I-0.912 J0.
X38.787 Z-1.921 I0.912 J0.
X36.963 Z-2.008 I-0.912 J0.
X38.787 Z-2.095 I0.912 J0.
X36.963 Z-2.183 I-0.912 J0.
X38.787 Z-2.27 I0.912 J0.
X36.963 Z-2.357 I-0.912 J0.
X38.787 Z-2.444 I0.912 J0.
X36.963 Z-2.532 I-0.912 J0.
X38.787 Z-2.619 I0.912 J0.
X36.963 Z-2.706 I-0.912 J0.
X38.787 Z-2.794 I0.912 J0.
X36.963 Z-2.881 I-0.912 J0.
X38.787 Z-2.968 I0.912 J0.
X36.963 Z-3.056 I-0.912 J0.
X38.787 Z-3.143 I0.912 J0.
X36.963 Z-3.23 I-0.912 J0.
X38.787 Z-3.317 I0.912 J0.
X36.963 Z-3.405 I-0.912 J0.
X38.787 Z-3.492 I0.912 J0.
X36.963 Z-3.579 I-0.912 J0.
X38.787 Z-3.667 I0.912 J0.
X36.963 Z-3.754 I-0.912 J0.
X38.787 Z-3.841 I0.912 J0.
X36.963 Z-3.929 I-0.912 J0.
X38.787 Z-4.016 I0.912 J0.
X36.963 Z-4.103 I-0.912 J0.
X38.787 Z-4.19 I0.912 J0.
X36.963 Z-4.278 I-0.912 J0.
X38.787 Z-4.365 I0.912 J0.
X36.963 Z-4.452 I-0.912 J0.
X38.787 Z-4.54 I0.912 J0.
X36.963 Z-4.627 I-0.912 J0.
X38.787 Z-4.714 I0.912 J0.
X36.963 Z-4.802 I-0.912 J0.
X38.787 Z-4.889 I0.912 J0.
X36.963 Z-4.976 I-0.912 J0.
X38.787 Z-5.064 I0.912 J0.
X36.963 Z-5.151 I-0.912 J0.
X38.787 Z-5.238 I0.912 J0.
X36.963 Z-5.325 I-0.912 J0.
X38.787 Z-5.413 I0.912 J0.
X36.963 Z-5.5 I-0.912 J0.
X38.787 Z-5.587 I0.912 J0.
X36.963 Z-5.675 I-0.912 J0.
X38.787 Z-5.762 I0.912 J0.
X36.963 Z-5.849 I-0.912 J0.
X38.787 Z-5.937 I0.912 J0.
X37.278 Y122.234 Z-6. I-0.912 J0.
X38.472 Y120.854 I0.597 J-0.69
X37.278 Y122.234 I-0.597 J0.69
X37.246 Y121.786 I0.208 J-0.24
G1 X37.349 Y121.666
X37.396 Y121.613 Z-5.992
X37.44 Y121.562 Z-5.969
X37.479 Y121.517 Z-5.931
X37.512 Y121.479 Z-5.88
X37.537 Y121.45 Z-5.82
X37.552 Y121.432 Z-5.753
X37.557 Y121.426 Z-5.682
Z3.
X68.619 Y129.432
Z2.
Z0.317
G18 G2 X68.936 Z0. I0.317 K0.
G1 X69.095
G17 G3 X69.412 Y129.75 I0. J0.318
X67.588 Z-0.087 I-0.912 J0.
X69.412 Z-0.175 I0.912 J0.
X67.588 Z-0.262 I-0.912 J0.
X69.412 Z-0.349 I0.912 J0.
X67.588 Z-0.437 I-0.912 J0.
X69.412 Z-0.524 I0.912 J0.
X67.588 Z-0.611 I-0.912 J0.
X69.412 Z-0.698 I0.912 J0.
X67.588 Z-0.786 I-0.912 J0.
X69.412 Z-0.873 I0.912 J0.
X67.588 Z-0.96 I-0.912 J0.
X69.412 Z-1.048 I0.912 J0.
X67.588 Z-1.135 I-0.912 J0.
X69.412 Z-1.222 I0.912 J0.
X67.588 Z-1.31 I-0.912 J0.
X69.412 Z-1.397 I0.912 J0.
X67.588 Z-1.484 I-0.912 J0.
X69.412 Z-1.571 I0.912 J0.
X67.588 Z-1.659 I-0.912 J0.
X69.412 Z-1.746 I0.912 J0.
X67.587 Z-1.833 I-0.912 J0.
X69.413 Z-1.921 I0.913 J0.
X67.587 Z-2.008 I-0.913 J0.
X69.413 Z-2.095 I0.913 J0.
X67.587 Z-2.183 I-0.913 J0.
X69.413 Z-2.27 I0.913 J0.
X67.587 Z-2.357 I-0.913 J0.
X69.413 Z-2.444 I0.913 J0.
X67.587 Z-2.532 I-0.913 J0.
X69.413 Z-2.619 I0.913 J0.
X67.587 Z-2.706 I-0.913 J0.
X69.413 Z-2.794 I0.913 J0.
X67.587 Z-2.881 I-0.913 J0.
X69.413 Z-2.968 I0.913 J0.
X67.587 Z-3.056 I-0.913 J0.
X69.413 Z-3.143 I0.913 J0.
X67.587 Z-3.23 I-0.913 J0.
X69.413 Z-3.317 I0.913 J0.
X67.587 Z-3.405 I-0.913 J0.
X69.413 Z-3.492 I0.913 J0.
X67.587 Z-3.579 I-0.913 J0.
X69.413 Z-3.667 I0.913 J0.
X67.587 Z-3.754 I-0.913 J0.
X69.413 Z-3.841 I0.913 J0.
X67.587 Z-3.929 I-0.913 J0.
X69.413 Z-4.016 I0.913 J0.
X67.587 Z-4.103 I-0.913 J0.
X69.413 Z-4.19 I0.913 J0.
X67.587 Z-4.278 I-0.913 J0.
X69.413 Z-4.365 I0.913 J0.
X67.587 Z-4.452 I-0.913 J0.
X69.413 Z-4.54 I0.913 J0.
X67.587 Z-4.627 I-0.913 J0.
X69.413 Z-4.714 I0.913 J0.
X67.587 Z-4.802 I-0.913 J0.
X69.413 Z-4.889 I0.913 J0.
X67.587 Z-4.976 I-0.913 J0.
X69.413 Z-5.064 I0.913 J0.
X67.587 Z-5.151 I-0.913 J0.
X69.413 Z-5.238 I0.913 J0.
X67.587 Z-5.325 I-0.913 J0.
X69.413 Z-5.413 I0.913 J0.
X67.587 Z-5.5 I-0.913 J0.
X69.413 Z-5.587 I0.913 J0.
X67.587 Z-5.675 I-0.913 J0.
X69.413 Z-5.762 I0.913 J0.
X67.587 Z-5.849 I-0.913 J0.
X69.413 Z-5.937 I0.913 J0.
X67.903 Y130.44 Z-6. I-0.913 J0.
X69.097 Y129.06 I0.597 J-0.69
X67.903 Y130.44 I-0.597 J0.69
X67.871 Y129.992 I0.208 J-0.24
G1 X67.974 Y129.872
X68.021 Y129.819 Z-5.992
X68.065 Y129.768 Z-5.969
X68.104 Y129.722 Z-5.931
X68.137 Y129.684 Z-5.88
X68.162 Y129.656 Z-5.82
X68.177 Y129.638 Z-5.753
X68.182 Y129.632 Z-5.682
Z3.
X99.244 Y121.227
Z2.
Z0.317
G18 G2 X99.561 Z0. I0.317 K0.
G1 X99.72
G17 G3 X100.037 Y121.544 I0. J0.318
X98.213 Z-0.087 I-0.912 J0.
X100.037 Z-0.175 I0.912 J0.
X98.213 Z-0.262 I-0.912 J0.
X100.037 Z-0.349 I0.912 J0.
X98.213 Z-0.437 I-0.912 J0.
X100.037 Z-0.524 I0.912 J0.
X98.213 Z-0.611 I-0.912 J0.
X100.037 Z-0.698 I0.912 J0.
X98.213 Z-0.786 I-0.912 J0.
X100.037 Z-0.873 I0.912 J0.
X98.213 Z-0.96 I-0.912 J0.
X100.037 Z-1.048 I0.912 J0.
X98.213 Z-1.135 I-0.912 J0.
X100.037 Z-1.222 I0.912 J0.
X98.213 Z-1.31 I-0.912 J0.
X100.037 Z-1.397 I0.912 J0.
X98.213 Z-1.484 I-0.912 J0.
X100.037 Z-1.571 I0.912 J0.
X98.213 Z-1.659 I-0.912 J0.
X100.037 Z-1.746 I0.912 J0.
X98.213 Z-1.833 I-0.912 J0.
X100.037 Z-1.921 I0.912 J0.
X98.213 Z-2.008 I-0.912 J0.
X100.037 Z-2.095 I0.912 J0.
X98.213 Z-2.183 I-0.912 J0.
X100.037 Z-2.27 I0.912 J0.
X98.213 Z-2.357 I-0.912 J0.
X100.037 Z-2.444 I0.912 J0.
X98.213 Z-2.532 I-0.912 J0.
X100.037 Z-2.619 I0.912 J0.
X98.213 Z-2.706 I-0.912 J0.
X100.037 Z-2.794 I0.912 J0.
X98.213 Z-2.881 I-0.912 J0.
X100.037 Z-2.968 I0.912 J0.
X98.213 Z-3.056 I-0.912 J0.
X100.037 Z-3.143 I0.912 J0.
X98.213 Z-3.23 I-0.912 J0.
X100.037 Z-3.317 I0.912 J0.
X98.213 Z-3.405 I-0.912 J0.
X100.037 Z-3.492 I0.912 J0.
X98.213 Z-3.579 I-0.912 J0.
X100.037 Z-3.667 I0.912 J0.
X98.213 Z-3.754 I-0.912 J0.
X100.037 Z-3.841 I0.912 J0.
X98.213 Z-3.929 I-0.912 J0.
X100.037 Z-4.016 I0.912 J0.
X98.213 Z-4.103 I-0.912 J0.
X100.037 Z-4.19 I0.912 J0.
X98.213 Z-4.278 I-0.912 J0.
X100.037 Z-4.365 I0.912 J0.
X98.213 Z-4.452 I-0.912 J0.
X100.037 Z-4.54 I0.912 J0.
X98.213 Z-4.627 I-0.912 J0.
X100.037 Z-4.714 I0.912 J0.
X98.213 Z-4.802 I-0.912 J0.
X100.037 Z-4.889 I0.912 J0.
X98.213 Z-4.976 I-0.912 J0.
X100.037 Z-5.064 I0.912 J0.
X98.213 Z-5.151 I-0.912 J0.
X100.037 Z-5.238 I0.912 J0.
X98.213 Z-5.325 I-0.912 J0.
X100.037 Z-5.413 I0.912 J0.
X98.213 Z-5.5 I-0.912 J0.
X100.037 Z-5.587 I0.912 J0.
X98.213 Z-5.675 I-0.912 J0.
X100.037 Z-5.762 I0.912 J0.
X98.213 Z-5.849 I-0.912 J0.
X100.037 Z-5.937 I0.912 J0.
X98.528 Y122.234 Z-6. I-0.912 J0.
X99.722 Y120.854 I0.597 J-0.69
X98.528 Y122.234 I-0.597 J0.69
X98.496 Y121.786 I0.208 J-0.24
G1 X98.599 Y121.666
X98.646 Y121.613 Z-5.992
X98.69 Y121.562 Z-5.969
X98.729 Y121.517 Z-5.931
X98.762 Y121.479 Z-5.88
X98.787 Y121.45 Z-5.82
X98.802 Y121.432 Z-5.753
X98.807 Y121.426 Z-5.682
Z3.
X121.663 Y98.808
Z2.
Z0.317
G18 G2 X121.98 Z0. I0.318 K0.
G1 X122.139
G17 G3 X122.457 Y99.125 I0. J0.317
X120.632 Z-0.087 I-0.912 J0.
X122.457 Z-0.175 I0.912 J0.
X120.632 Z-0.262 I-0.912 J0.
X122.457 Z-0.349 I0.912 J0.
X120.632 Z-0.437 I-0.912 J0.
X122.457 Z-0.524 I0.912 J0.
X120.632 Z-0.611 I-0.912 J0.
X122.457 Z-0.698 I0.912 J0.
X120.632 Z-0.786 I-0.912 J0.
X122.457 Z-0.873 I0.912 J0.
X120.632 Z-0.96 I-0.912 J0.
X122.457 Z-1.048 I0.912 J0.
X120.632 Z-1.135 I-0.912 J0.
X122.457 Z-1.222 I0.912 J0.
X120.632 Z-1.31 I-0.912 J0.
X122.457 Z-1.397 I0.912 J0.
X120.632 Z-1.484 I-0.912 J0.
X122.457 Z-1.571 I0.912 J0.
X120.632 Z-1.659 I-0.912 J0.
X122.457 Z-1.746 I0.912 J0.
X120.632 Z-1.833 I-0.912 J0.
X122.457 Z-1.921 I0.912 J0.
X120.632 Z-2.008 I-0.912 J0.
X122.457 Z-2.095 I0.912 J0.
X120.632 Z-2.183 I-0.912 J0.
X122.457 Z-2.27 I0.913 J0.
X120.632 Z-2.357 I-0.913 J0.
X122.457 Z-2.444 I0.913 J0.
X120.632 Z-2.532 I-0.913 J0.
X122.457 Z-2.619 I0.913 J0.
X120.632 Z-2.706 I-0.913 J0.
X122.457 Z-2.794 I0.913 J0.
X120.632 Z-2.881 I-0.913 J0.
X122.457 Z-2.968 I0.913 J0.
X120.632 Z-3.056 I-0.913 J0.
X122.457 Z-3.143 I0.913 J0.
X120.632 Z-3.23 I-0.913 J0.
X122.457 Z-3.317 I0.913 J0.
X120.632 Z-3.405 I-0.913 J0.
X122.457 Z-3.492 I0.913 J0.
X120.632 Z-3.579 I-0.913 J0.
X122.457 Z-3.667 I0.913 J0.
X120.632 Z-3.754 I-0.913 J0.
X122.457 Z-3.841 I0.913 J0.
X120.632 Z-3.929 I-0.913 J0.
X122.457 Z-4.016 I0.913 J0.
X120.632 Z-4.103 I-0.913 J0.
X122.457 Z-4.19 I0.913 J0.
X120.632 Z-4.278 I-0.913 J0.
X122.457 Z-4.365 I0.913 J0.
X120.632 Z-4.452 I-0.913 J0.
X122.457 Z-4.54 I0.913 J0.
X120.632 Z-4.627 I-0.913 J0.
X122.457 Z-4.714 I0.913 J0.
X120.632 Z-4.802 I-0.913 J0.
X122.457 Z-4.889 I0.913 J0.
X120.632 Z-4.976 I-0.913 J0.
X122.457 Z-5.064 I0.913 J0.
X120.632 Z-5.151 I-0.913 J0.
X122.457 Z-5.238 I0.913 J0.
X120.632 Z-5.325 I-0.913 J0.
X122.457 Z-5.413 I0.913 J0.
X120.632 Z-5.5 I-0.913 J0.
X122.457 Z-5.587 I0.913 J0.
X120.632 Z-5.675 I-0.913 J0.
X122.457 Z-5.762 I0.913 J0.
X120.632 Z-5.849 I-0.913 J0.
X122.457 Z-5.937 I0.913 J0.
X120.947 Y99.815 Z-6. I-0.913 J0.
X122.141 Y98.435 I0.597 J-0.69
X120.947 Y99.815 I-0.597 J0.69
X120.915 Y99.367 I0.208 J-0.24
G1 X121.019 Y99.247
X121.065 Y99.194 Z-5.992
X121.109 Y99.143 Z-5.969
X121.148 Y99.097 Z-5.931
X121.181 Y99.059 Z-5.88
X121.206 Y99.031 Z-5.82
X121.221 Y99.013 Z-5.753
X121.226 Y99.007 Z-5.682
Z3.
X129.869 Y68.183
Z2.
Z0.317
G18 G2 X130.186 Z0. I0.318 K0.
G1 X130.345
G17 G3 X130.663 Y68.5 I0. J0.317
X128.837 Z-0.087 I-0.913 J0.
X130.663 Z-0.175 I0.913 J0.
X128.837 Z-0.262 I-0.913 J0.
X130.663 Z-0.349 I0.913 J0.
X128.837 Z-0.437 I-0.913 J0.
X130.663 Z-0.524 I0.913 J0.
X128.837 Z-0.611 I-0.913 J0.
X130.663 Z-0.698 I0.913 J0.
X128.837 Z-0.786 I-0.913 J0.
X130.663 Z-0.873 I0.913 J0.
X128.837 Z-0.96 I-0.913 J0.
X130.663 Z-1.048 I0.913 J0.
X128.837 Z-1.135 I-0.913 J0.
X130.663 Z-1.222 I0.913 J0.
X128.837 Z-1.31 I-0.913 J0.
X130.663 Z-1.397 I0.913 J0.
X128.837 Z-1.484 I-0.913 J0.
X130.663 Z-1.571 I0.913 J0.
X128.837 Z-1.659 I-0.913 J0.
X130.663 Z-1.746 I0.913 J0.
X128.837 Z-1.833 I-0.913 J0.
X130.663 Z-1.921 I0.913 J0.
X128.837 Z-2.008 I-0.913 J0.
X130.663 Z-2.095 I0.913 J0.
X128.837 Z-2.183 I-0.913 J0.
X130.663 Z-2.27 I0.913 J0.
X128.837 Z-2.357 I-0.913 J0.
X130.663 Z-2.444 I0.913 J0.
X128.837 Z-2.532 I-0.913 J0.
X130.663 Z-2.619 I0.913 J0.
X128.837 Z-2.706 I-0.913 J0.
X130.663 Z-2.794 I0.913 J0.
X128.837 Z-2.881 I-0.913 J0.
X130.663 Z-2.968 I0.913 J0.
X128.837 Z-3.056 I-0.913 J0.
X130.663 Z-3.143 I0.913 J0.
X128.837 Z-3.23 I-0.913 J0.
X130.663 Z-3.317 I0.913 J0.
X128.837 Z-3.405 I-0.913 J0.
X130.663 Z-3.492 I0.913 J0.
X128.837 Z-3.579 I-0.913 J0.
X130.663 Z-3.667 I0.913 J0.
X128.837 Z-3.754 I-0.913 J0.
X130.663 Z-3.841 I0.913 J0.
X128.837 Z-3.929 I-0.913 J0.
X130.663 Z-4.016 I0.913 J0.
X128.837 Z-4.103 I-0.913 J0.
X130.663 Z-4.19 I0.913 J0.
X128.837 Z-4.278 I-0.913 J0.
X130.663 Z-4.365 I0.913 J0.
X128.838 Z-4.452 I-0.913 J0.
X130.662 Z-4.54 I0.912 J0.
X128.838 Z-4.627 I-0.912 J0.
X130.662 Z-4.714 I0.912 J0.
X128.838 Z-4.802 I-0.912 J0.
X130.662 Z-4.889 I0.912 J0.
X128.838 Z-4.976 I-0.912 J0.
X130.662 Z-5.064 I0.912 J0.
X128.838 Z-5.151 I-0.912 J0.
X130.662 Z-5.238 I0.912 J0.
X128.838 Z-5.325 I-0.912 J0.
X130.662 Z-5.413 I0.912 J0.
X128.838 Z-5.5 I-0.912 J0.
X130.662 Z-5.587 I0.912 J0.
X128.838 Z-5.675 I-0.912 J0.
X130.662 Z-5.762 I0.912 J0.
X128.838 Z-5.849 I-0.912 J0.
X130.662 Z-5.937 I0.912 J0.
X129.153 Y69.19 Z-6. I-0.912 J0.
X130.347 Y67.81 I0.597 J-0.69
X129.153 Y69.19 I-0.597 J0.69
X129.121 Y68.742 I0.208 J-0.24
G1 X129.224 Y68.622
X129.271 Y68.569 Z-5.992
X129.315 Y68.518 Z-5.969
X129.354 Y68.472 Z-5.931
X129.387 Y68.434 Z-5.88
X129.412 Y68.406 Z-5.82
X129.427 Y68.388 Z-5.753
X129.432 Y68.382 Z-5.682
Z8.
(WHEN USING FUSION FOR PERSONAL USE, THE FEEDRATE OF RAPID)
(MOVES IS REDUCED TO MATCH THE FEEDRATE OF CUTTING MOVES,)
(WHICH CAN INCREASE MACHINING TIME. UNRESTRICTED RAPID MOVES)
(ARE AVAILABLE WITH A FUSION SUBSCRIPTION.)

(CIRCULAR1)
G0 X138.381 Y68.817
G1 Z8. F300.
Z-1.
Z-2.682
G18 G3 X138.064 Z-3. I-0.318 K0.
G1 X137.905
G17 G3 X137.587 Y68.5 I0. J-0.317
G2 X-0.587 I-69.087 J0.
X137.587 I69.087 J0.
G3 X137.905 Y68.183 I0.318 J0.
G1 X138.064
G18 G2 X138.381 Z-2.682 I0. K0.318
G1 Z3.
Y68.817
Z-2.5
Z-4.182
G3 X138.064 Z-4.5 I-0.318 K0.
G1 X137.905
G17 G3 X137.587 Y68.5 I0. J-0.317
G2 X-0.587 I-69.087 J0.
X137.587 I69.087 J0.
G3 X137.905 Y68.183 I0.318 J0.
G1 X138.064
G18 G2 X138.381 Z-4.182 I0. K0.318
G1 Z3.
Y68.817
Z-4.
Z-5.682
G3 X138.064 Z-6. I-0.318 K0.
G1 X137.905
G17 G3 X137.587 Y68.5 I0. J-0.317
G2 X-0.587 I-69.087 J0.
X137.587 I69.087 J0.
G3 X137.905 Y68.183 I0.318 J0.
G1 X138.064
G18 G2 X138.381 Z-5.682 I0. K0.318
G1 Z8.
G17

M5
G28 G91 Z0.
G90
G28 G91 X0. Y0.
G90
M30
