(1001)
(T3 D=3.175 CR=0. - ZMIN=-6. - FRESA CON PUNTA PLANA)
G90 G94 G91.1 G40 G49 G17
G21
(WHEN USING FUSION FOR PERSONAL USE, THE FEEDRATE OF RAPID)
(MOVES IS REDUCED TO MATCH THE FEEDRATE OF CUTTING MOVES,)
(WHICH CAN INCREASE MACHINING TIME. UNRESTRICTED RAPID MOVES)
(ARE AVAILABLE WITH A FUSION SUBSCRIPTION.)
G28 G91 Z0.
G90

(CIRCULAR1)
T3 M6
S5000 M3
G17 G90 G94
G54
G0 X138.381 Y68.817
G43 Z8. H3
G1 Z-1. F300.
Z-2.682
G18 G3 X138.064 Z-3. I-0.318 K0.
G1 X137.905
G17 G3 X137.587 Y68.5 I0. J-0.317
G2 X-0.587 I-69.087 J0.
X137.587 I69.087 J0.
G3 X137.905 Y68.183 I0.318 J0.
G1 X138.064
G18 G2 X138.381 Z-2.682 I0. K0.318
G1 Z3.
Y68.817
Z-2.5
Z-4.182
G3 X138.064 Z-4.5 I-0.318 K0.
G1 X137.905
G17 G3 X137.587 Y68.5 I0. J-0.317
G2 X-0.587 I-69.087 J0.
X137.587 I69.087 J0.
G3 X137.905 Y68.183 I0.318 J0.
G1 X138.064
G18 G2 X138.381 Z-4.182 I0. K0.318
G1 Z3.
Y68.817
Z-4.
Z-5.682
G3 X138.064 Z-6. I-0.318 K0.
G1 X137.905
G17 G3 X137.587 Y68.5 I0. J-0.317
G2 X-0.587 I-69.087 J0.
X137.587 I69.087 J0.
G3 X137.905 Y68.183 I0.318 J0.
G1 X138.064
G18 G2 X138.381 Z-5.682 I0. K0.318
G1 Z8.
G17

M5
G28 G91 Z0.
G90
G28 G91 X0. Y0.
G90
M30
