(1001)
(T3 D=3.175 CR=0. - ZMIN=-4.5 - FRESA CON PUNTA PLANA)
G90 G94 G91.1 G40 G49 G17
G21
(WHEN USING FUSION FOR PERSONAL USE, THE FEEDRATE OF RAPID)
(MOVES IS REDUCED TO MATCH THE FEEDRATE OF CUTTING MOVES,)
(WHICH CAN INCREASE MACHINING TIME. UNRESTRICTED RAPID MOVES)
(ARE AVAILABLE WITH A FUSION SUBSCRIPTION.)
G28 G91 Z0.
G90

(2D CAJERAS2)
T3 M6
S10000 M3
G17 G90 G94
G54
G0 X13.93 Y-10.977
G43 Z8. H3
G1 Z3. F150.
Z0.635 F50.
Z-0.449 F150.
X13.926 Y-10.984 Z-0.52
X13.914 Y-11.005 Z-0.587
X13.895 Y-11.037 Z-0.647
X13.87 Y-11.081 Z-0.697
X13.84 Y-11.133 Z-0.735
X13.807 Y-11.191 Z-0.759
X13.771 Y-11.252 Z-0.767
X13.755 Y-11.28
X12.984 Y-12.616
G3 X13.738 Y-13.11 I0.391 J-0.226
G1 X14.063 Y-12.67
G3 X14.151 Y-12.399 I-0.363 J0.268
G1 X14.146 Y-11.506
X14.153 Y-11.426
X14.821 Y-7.574
G3 X13.986 Y-7.271 I-0.445 J0.077
G1 X10.751 Y-12.874
G2 X9.92 Y-13.98 I-4.977 J2.874
G1 X9.9 Y-14.006
X9.885 Y-14.036
X9.386 Y-15.435
X9.367 Y-15.471
X9.339 Y-15.502
X9.305 Y-15.524
X9.266 Y-15.537
X9.224 Y-15.54
X-12.688 Y-13.903
X-12.731 Y-13.894
X-12.77 Y-13.873
X-12.801 Y-13.843
X-12.823 Y-13.805
X-12.834 Y-13.763
X-12.961 Y-12.682
X-12.968 Y-12.65
X-12.981 Y-12.621
X-13.761 Y-11.27
G3 X-14.565 Y-11.677 I-0.391 J-0.226
G1 X-14.341 Y-12.187
G3 X-14.153 Y-12.397 I0.413 J0.182
G1 X-13.372 Y-12.846
X-10.483 Y-14.677
G3 X-9.917 Y-13.984 I0.242 J0.381
G2 X-10.751 Y-12.874 I4.143 J3.984
G1 X-13.983 Y-7.276
X-14. Y-7.255
X-14.024 Y-7.242
X-14.05 Y-7.238
X-14.101 Y-7.239
X-14.13 Y-7.233
X-14.156 Y-7.217
X-14.173 Y-7.191
X-14.178 Y-7.161
X-13.947 Y11.171
X-13.941 Y11.198
X-13.926 Y11.221
X-13.903 Y11.237
X-13.875 Y11.243
X-13.817 Y11.244
X-13.793 Y11.248
X-13.771 Y11.261
X-13.755 Y11.28
X-12.984 Y12.616
G3 X-13.738 Y13.11 I-0.391 J0.226
G1 X-14.063 Y12.67
G3 X-14.151 Y12.399 I0.363 J-0.268
G1 X-14.146 Y11.506
X-14.153 Y11.426
X-14.821 Y7.574
G3 X-13.986 Y7.271 I0.445 J-0.077
G1 X-10.751 Y12.874
G2 X-9.92 Y13.98 I4.977 J-2.874
G1 X-9.9 Y14.006
X-9.885 Y14.036
X-9.386 Y15.435
X-9.367 Y15.471
X-9.339 Y15.502
X-9.305 Y15.524
X-9.266 Y15.537
X-9.224 Y15.54
X12.688 Y13.903
X12.731 Y13.894
X12.77 Y13.873
X12.801 Y13.843
X12.823 Y13.805
X12.834 Y13.763
X12.961 Y12.682
X12.968 Y12.65
X12.981 Y12.621
X13.761 Y11.27
G3 X14.565 Y11.677 I0.391 J0.226
G1 X14.341 Y12.187
G3 X14.153 Y12.397 I-0.413 J-0.182
G1 X13.372 Y12.846
X10.483 Y14.677
G3 X9.917 Y13.984 I-0.242 J-0.381
G2 X10.751 Y12.874 I-4.143 J-3.984
G1 X13.983 Y7.276
X14.003 Y7.228
X14.01 Y7.176
X14.009 Y-3.567
X14.002 Y-3.619
X13.982 Y-3.667
X9.188 Y-11.971
G2 X5.773 Y-13.943 I-3.414 J1.971
G1 X-5.773
G2 X-9.188 Y-11.971 I0. J3.943
G1 X-13.979 Y-3.672
X-13.999 Y-3.624
X-14.006 Y-3.572
X-14.009 Y3.567
X-14.002 Y3.619
X-13.982 Y3.667
X-9.188 Y11.971
G2 X-5.773 Y13.943 I3.414 J-1.971
G1 X5.773
G2 X9.188 Y11.971 I0. J-3.943
G1 X13.979 Y3.672
G2 X13.965 Y1.955 I-1.466 J-0.846
G3 X13.616 Y0.274 I2.234 J-1.34
G2 X13.355 Y-1.044 I-2.069 J-0.274
G1 X7.581 Y-11.044
G2 X5.773 Y-12.087 I-1.808 J1.044
G1 X-5.773
G2 X-7.581 Y-11.044 I0. J2.087
G1 X-13.355 Y-1.044
G2 Y1.044 I1.808 J1.044
G1 X-7.581 Y11.044
G2 X-5.773 Y12.087 I1.808 J-1.044
G1 X5.773
G2 X7.581 Y11.044 I0. J-2.087
G1 X13.355 Y1.044
G2 X13.616 Y0.274 I-1.808 J-1.044
G1 X13.624 Y0.249
X13.639 Y0.227
X13.661 Y0.212
X13.82 Y0.133
X13.843 Y0.116
X13.859 Y0.092
X13.865 Y0.064
X14.264 Y-10.601
X14.259 Y-10.63
X14.242 Y-10.655
X14.217 Y-10.671
X14.187 Y-10.675
X14.153 Y-10.673
X14.126 Y-10.676
X14.103 Y-10.688
X14.085 Y-10.709
X14.05 Y-10.77 Z-0.775
X14.016 Y-10.828 Z-0.798
X13.986 Y-10.88 Z-0.836
X13.961 Y-10.923 Z-0.886
X13.942 Y-10.956 Z-0.946
X13.931 Y-10.977 Z-1.014
X13.927 Y-10.983 Z-1.084
Z-1.216
X13.923 Y-10.99 Z-1.286
X13.911 Y-11.011 Z-1.354
X13.892 Y-11.043 Z-1.414
X13.867 Y-11.087 Z-1.464
X13.837 Y-11.139 Z-1.502
X13.803 Y-11.197 Z-1.525
X13.768 Y-11.258 Z-1.533
X13.755 Y-11.28
X12.984 Y-12.616
G3 X13.738 Y-13.11 I0.391 J-0.226
G1 X14.063 Y-12.67
G3 X14.151 Y-12.399 I-0.363 J0.268
G1 X14.146 Y-11.506
X14.153 Y-11.426
X14.821 Y-7.574
G3 X13.986 Y-7.271 I-0.445 J0.077
G1 X10.751 Y-12.874
G2 X9.92 Y-13.98 I-4.977 J2.874
G1 X9.9 Y-14.006
X9.885 Y-14.036
X9.386 Y-15.435
X9.367 Y-15.471
X9.339 Y-15.502
X9.305 Y-15.524
X9.266 Y-15.537
X9.224 Y-15.54
X-12.688 Y-13.903
X-12.731 Y-13.894
X-12.77 Y-13.873
X-12.801 Y-13.843
X-12.823 Y-13.805
X-12.834 Y-13.763
X-12.961 Y-12.682
X-12.968 Y-12.65
X-12.981 Y-12.621
X-13.761 Y-11.27
G3 X-14.565 Y-11.677 I-0.391 J-0.226
G1 X-14.341 Y-12.187
G3 X-14.153 Y-12.397 I0.413 J0.182
G1 X-13.372 Y-12.846
X-10.483 Y-14.677
G3 X-9.917 Y-13.984 I0.242 J0.381
G2 X-10.751 Y-12.874 I4.143 J3.984
G1 X-13.983 Y-7.276
X-14. Y-7.255
X-14.024 Y-7.242
X-14.05 Y-7.238
X-14.101 Y-7.239
X-14.13 Y-7.233
X-14.156 Y-7.217
X-14.173 Y-7.191
X-14.178 Y-7.161
X-13.947 Y11.171
X-13.941 Y11.198
X-13.926 Y11.221
X-13.903 Y11.237
X-13.875 Y11.243
X-13.817 Y11.244
X-13.793 Y11.248
X-13.771 Y11.261
X-13.755 Y11.28
X-12.984 Y12.616
G3 X-13.738 Y13.11 I-0.391 J0.226
G1 X-14.063 Y12.67
G3 X-14.151 Y12.399 I0.363 J-0.268
G1 X-14.146 Y11.506
X-14.153 Y11.426
X-14.821 Y7.574
G3 X-13.986 Y7.271 I0.445 J-0.077
G1 X-10.751 Y12.874
G2 X-9.92 Y13.98 I4.977 J-2.874
G1 X-9.9 Y14.006
X-9.885 Y14.036
X-9.386 Y15.435
X-9.367 Y15.471
X-9.339 Y15.502
X-9.305 Y15.524
X-9.266 Y15.537
X-9.224 Y15.54
X12.688 Y13.903
X12.731 Y13.894
X12.77 Y13.873
X12.801 Y13.843
X12.823 Y13.805
X12.834 Y13.763
X12.961 Y12.682
X12.968 Y12.65
X12.981 Y12.621
X13.761 Y11.27
G3 X14.565 Y11.677 I0.391 J0.226
G1 X14.341 Y12.187
G3 X14.153 Y12.397 I-0.413 J-0.182
G1 X13.372 Y12.846
X10.483 Y14.677
G3 X9.917 Y13.984 I-0.242 J-0.381
G2 X10.751 Y12.874 I-4.143 J-3.984
G1 X13.983 Y7.276
X14.003 Y7.228
X14.01 Y7.176
X14.009 Y-3.567
X14.002 Y-3.619
X13.982 Y-3.667
X9.188 Y-11.971
G2 X5.773 Y-13.943 I-3.414 J1.971
G1 X-5.773
G2 X-9.188 Y-11.971 I0. J3.943
G1 X-13.979 Y-3.672
X-13.999 Y-3.624
X-14.006 Y-3.572
X-14.009 Y3.567
X-14.002 Y3.619
X-13.982 Y3.667
X-9.188 Y11.971
G2 X-5.773 Y13.943 I3.414 J-1.971
G1 X5.773
G2 X9.188 Y11.971 I0. J-3.943
G1 X13.979 Y3.672
G2 X13.965 Y1.955 I-1.466 J-0.846
G3 X13.616 Y0.274 I2.234 J-1.34
G2 X13.355 Y-1.044 I-2.069 J-0.274
G1 X7.581 Y-11.044
G2 X5.773 Y-12.087 I-1.808 J1.044
G1 X-5.773
G2 X-7.581 Y-11.044 I0. J2.087
G1 X-13.355 Y-1.044
G2 Y1.044 I1.808 J1.044
G1 X-7.581 Y11.044
G2 X-5.773 Y12.087 I1.808 J-1.044
G1 X5.773
G2 X7.581 Y11.044 I0. J-2.087
G1 X13.355 Y1.044
G2 X13.616 Y0.274 I-1.808 J-1.044
G1 X13.624 Y0.249
X13.639 Y0.227
X13.661 Y0.212
X13.82 Y0.133
X13.843 Y0.116
X13.859 Y0.092
X13.865 Y0.064
X14.264 Y-10.601
X14.259 Y-10.63
X14.242 Y-10.655
X14.217 Y-10.671
X14.187 Y-10.675
X14.153 Y-10.673
X14.126 Y-10.676
X14.103 Y-10.688
X14.085 Y-10.709
X14.05 Y-10.77 Z-1.541
X14.016 Y-10.828 Z-1.565
X13.986 Y-10.88 Z-1.603
X13.961 Y-10.923 Z-1.653
X13.942 Y-10.956 Z-1.713
X13.931 Y-10.977 Z-1.78
X13.927 Y-10.983 Z-1.851
Z-1.982
X13.923 Y-10.99 Z-2.053
X13.911 Y-11.011 Z-2.12
X13.892 Y-11.043 Z-2.18
X13.867 Y-11.087 Z-2.231
X13.837 Y-11.139 Z-2.269
X13.803 Y-11.197 Z-2.292
X13.768 Y-11.258 Z-2.3
X13.755 Y-11.28
X12.984 Y-12.616
G3 X13.738 Y-13.11 I0.391 J-0.226
G1 X14.063 Y-12.67
G3 X14.151 Y-12.399 I-0.363 J0.268
G1 X14.146 Y-11.506
X14.153 Y-11.426
X14.821 Y-7.574
G3 X13.986 Y-7.271 I-0.445 J0.077
G1 X10.751 Y-12.874
G2 X9.92 Y-13.98 I-4.977 J2.874
G1 X9.9 Y-14.006
X9.885 Y-14.036
X9.386 Y-15.435
X9.367 Y-15.471
X9.339 Y-15.502
X9.305 Y-15.524
X9.266 Y-15.537
X9.224 Y-15.54
X-12.688 Y-13.903
X-12.731 Y-13.894
X-12.77 Y-13.873
X-12.801 Y-13.843
X-12.823 Y-13.805
X-12.834 Y-13.763
X-12.961 Y-12.682
X-12.968 Y-12.65
X-12.981 Y-12.621
X-13.761 Y-11.27
G3 X-14.565 Y-11.677 I-0.391 J-0.226
G1 X-14.341 Y-12.187
G3 X-14.153 Y-12.397 I0.413 J0.182
G1 X-13.372 Y-12.846
X-10.483 Y-14.677
G3 X-9.917 Y-13.984 I0.242 J0.381
G2 X-10.751 Y-12.874 I4.143 J3.984
G1 X-13.983 Y-7.276
X-14. Y-7.255
X-14.024 Y-7.242
X-14.05 Y-7.238
X-14.101 Y-7.239
X-14.13 Y-7.233
X-14.156 Y-7.217
X-14.173 Y-7.191
X-14.178 Y-7.161
X-13.947 Y11.171
X-13.941 Y11.198
X-13.926 Y11.221
X-13.903 Y11.237
X-13.875 Y11.243
X-13.817 Y11.244
X-13.793 Y11.248
X-13.771 Y11.261
X-13.755 Y11.28
X-12.984 Y12.616
G3 X-13.738 Y13.11 I-0.391 J0.226
G1 X-14.063 Y12.67
G3 X-14.151 Y12.399 I0.363 J-0.268
G1 X-14.146 Y11.506
X-14.153 Y11.426
X-14.821 Y7.574
G3 X-13.986 Y7.271 I0.445 J-0.077
G1 X-10.751 Y12.874
G2 X-9.92 Y13.98 I4.977 J-2.874
G1 X-9.9 Y14.006
X-9.885 Y14.036
X-9.386 Y15.435
X-9.367 Y15.471
X-9.339 Y15.502
X-9.305 Y15.524
X-9.266 Y15.537
X-9.224 Y15.54
X12.688 Y13.903
X12.731 Y13.894
X12.77 Y13.873
X12.801 Y13.843
X12.823 Y13.805
X12.834 Y13.763
X12.961 Y12.682
X12.968 Y12.65
X12.981 Y12.621
X13.761 Y11.27
G3 X14.565 Y11.677 I0.391 J0.226
G1 X14.341 Y12.187
G3 X14.153 Y12.397 I-0.413 J-0.182
G1 X13.372 Y12.846
X10.483 Y14.677
G3 X9.917 Y13.984 I-0.242 J-0.381
G2 X10.751 Y12.874 I-4.143 J-3.984
G1 X13.983 Y7.276
X14.003 Y7.228
X14.01 Y7.176
X14.009 Y-3.567
X14.002 Y-3.619
X13.982 Y-3.667
X9.188 Y-11.971
G2 X5.773 Y-13.943 I-3.414 J1.971
G1 X-5.773
G2 X-9.188 Y-11.971 I0. J3.943
G1 X-13.979 Y-3.672
X-13.999 Y-3.624
X-14.006 Y-3.572
X-14.009 Y3.567
X-14.002 Y3.619
X-13.982 Y3.667
X-9.188 Y11.971
G2 X-5.773 Y13.943 I3.414 J-1.971
G1 X5.773
G2 X9.188 Y11.971 I0. J-3.943
G1 X13.979 Y3.672
G2 X13.965 Y1.955 I-1.466 J-0.846
G3 X13.616 Y0.274 I2.234 J-1.34
G2 X13.355 Y-1.044 I-2.069 J-0.274
G1 X7.581 Y-11.044
G2 X5.773 Y-12.087 I-1.808 J1.044
G1 X-5.773
G2 X-7.581 Y-11.044 I0. J2.087
G1 X-13.355 Y-1.044
G2 Y1.044 I1.808 J1.044
G1 X-7.581 Y11.044
G2 X-5.773 Y12.087 I1.808 J-1.044
G1 X5.773
G2 X7.581 Y11.044 I0. J-2.087
G1 X13.355 Y1.044
G2 X13.616 Y0.274 I-1.808 J-1.044
G1 X13.624 Y0.249
X13.639 Y0.227
X13.66 Y0.212
X13.819 Y0.134
X13.842 Y0.116
X13.857 Y0.092
X13.863 Y0.064
X14.18 Y-10.75
X14.175 Y-10.779
X14.158 Y-10.803
X14.133 Y-10.819
X14.104 Y-10.824
X14.065 Y-10.822
X14.039 Y-10.825
X14.016 Y-10.838
X13.999 Y-10.858
X13.967 Y-10.914 Z-2.307
X13.936 Y-10.967 Z-2.326
X13.908 Y-11.016 Z-2.358
X13.883 Y-11.058 Z-2.4
X13.859 Y-11.1 Z-2.442
X13.831 Y-11.149 Z-2.474
X13.8 Y-11.203 Z-2.493
X13.768 Y-11.258 Z-2.5
X13.755 Y-11.28
X12.984 Y-12.616
G3 X13.738 Y-13.11 I0.391 J-0.226
G1 X14.063 Y-12.67
G3 X14.151 Y-12.399 I-0.363 J0.268
G1 X14.146 Y-11.506
X14.153 Y-11.426
X14.821 Y-7.574
G3 X13.986 Y-7.271 I-0.445 J0.077
G1 X10.751 Y-12.874
G2 X9.92 Y-13.98 I-4.977 J2.874
G1 X9.9 Y-14.006
X9.885 Y-14.036
X9.386 Y-15.435
X9.367 Y-15.471
X9.339 Y-15.502
X9.305 Y-15.524
X9.266 Y-15.537
X9.224 Y-15.54
X-12.688 Y-13.903
X-12.731 Y-13.894
X-12.77 Y-13.873
X-12.801 Y-13.843
X-12.823 Y-13.805
X-12.834 Y-13.763
X-12.961 Y-12.682
X-12.968 Y-12.65
X-12.981 Y-12.621
X-13.761 Y-11.27
G3 X-14.565 Y-11.677 I-0.391 J-0.226
G1 X-14.341 Y-12.187
G3 X-14.153 Y-12.397 I0.413 J0.182
G1 X-13.372 Y-12.846
X-10.483 Y-14.677
G3 X-9.917 Y-13.984 I0.242 J0.381
G2 X-10.751 Y-12.874 I4.143 J3.984
G1 X-13.983 Y-7.276
X-14. Y-7.255
X-14.024 Y-7.242
X-14.05 Y-7.238
X-14.101 Y-7.239
X-14.13 Y-7.233
X-14.156 Y-7.217
X-14.173 Y-7.191
X-14.178 Y-7.161
X-13.947 Y11.171
X-13.941 Y11.198
X-13.926 Y11.221
X-13.903 Y11.237
X-13.875 Y11.243
X-13.817 Y11.244
X-13.793 Y11.248
X-13.771 Y11.261
X-13.755 Y11.28
X-12.984 Y12.616
G3 X-13.738 Y13.11 I-0.391 J0.226
G1 X-14.063 Y12.67
G3 X-14.151 Y12.399 I0.363 J-0.268
G1 X-14.146 Y11.506
X-14.153 Y11.426
X-14.821 Y7.574
G3 X-13.986 Y7.271 I0.445 J-0.077
G1 X-10.751 Y12.874
G2 X-9.92 Y13.98 I4.977 J-2.874
G1 X-9.9 Y14.006
X-9.885 Y14.036
X-9.386 Y15.435
X-9.367 Y15.471
X-9.339 Y15.502
X-9.305 Y15.524
X-9.266 Y15.537
X-9.224 Y15.54
X12.688 Y13.903
X12.731 Y13.894
X12.77 Y13.873
X12.801 Y13.843
X12.823 Y13.805
X12.834 Y13.763
X12.961 Y12.682
X12.968 Y12.65
X12.981 Y12.621
X13.761 Y11.27
G3 X14.565 Y11.677 I0.391 J0.226
G1 X14.341 Y12.187
G3 X14.153 Y12.397 I-0.413 J-0.182
G1 X13.372 Y12.846
X10.483 Y14.677
G3 X9.917 Y13.984 I-0.242 J-0.381
G2 X10.751 Y12.874 I-4.143 J-3.984
G1 X13.983 Y7.276
X14.003 Y7.228
X14.01 Y7.176
X14.009 Y-3.567
X14.002 Y-3.619
X13.982 Y-3.667
X9.188 Y-11.971
G2 X5.773 Y-13.943 I-3.414 J1.971
G1 X-5.773
G2 X-9.188 Y-11.971 I0. J3.943
G1 X-13.979 Y-3.672
X-13.999 Y-3.624
X-14.006 Y-3.572
X-14.009 Y3.567
X-14.002 Y3.619
X-13.982 Y3.667
X-9.188 Y11.971
G2 X-5.773 Y13.943 I3.414 J-1.971
G1 X5.773
G2 X9.188 Y11.971 I0. J-3.943
G1 X13.979 Y3.672
G2 X13.965 Y1.955 I-1.466 J-0.846
G3 X13.616 Y0.274 I2.234 J-1.34
G2 X13.355 Y-1.044 I-2.069 J-0.274
G1 X7.581 Y-11.044
G2 X5.773 Y-12.087 I-1.808 J1.044
G1 X-5.773
G2 X-7.581 Y-11.044 I0. J2.087
G1 X-13.355 Y-1.044
G2 Y1.044 I1.808 J1.044
G1 X-7.581 Y11.044
G2 X-5.773 Y12.087 I1.808 J-1.044
G1 X5.773
G2 X7.581 Y11.044 I0. J-2.087
G1 X13.355 Y1.044
G2 X13.616 Y0.274 I-1.808 J-1.044
G1 X13.627 Y0.225
X13.987 Y-0.988
X14.007 Y-1.055 Z-2.492
X14.026 Y-1.12 Z-2.469
X14.043 Y-1.177 Z-2.431
X14.058 Y-1.226 Z-2.38
X14.068 Y-1.262 Z-2.32
X14.075 Y-1.284 Z-2.253
X14.077 Y-1.292 Z-2.182
Z8.
X1.94 Y-1.389
Z3.
Z2.817 F50.
X1.961 Y-1.38 Z2.698 F333.
X2.021 Y-1.352 Z2.597
X2.109 Y-1.305 Z2.527
X2.208 Y-1.242 Z2.5
G3 X0.498 Y1.242 Z2.335 I-0.855 J1.242
X2.208 Y-1.242 Z2.169 I0.855 J-1.242
X0.498 Y1.242 Z2.004 I-0.855 J1.242
X2.208 Y-1.242 Z1.838 I0.855 J-1.242
X0.498 Y1.242 Z1.673 I-0.855 J1.242
X2.208 Y-1.242 Z1.507 I0.855 J-1.242
X0.498 Y1.242 Z1.342 I-0.855 J1.242
X2.208 Y-1.242 Z1.176 I0.855 J-1.242
X0.498 Y1.242 Z1.011 I-0.855 J1.242
X2.208 Y-1.242 Z0.845 I0.855 J-1.242
X0.498 Y1.242 Z0.68 I-0.855 J1.242
X2.208 Y-1.242 Z0.515 I0.855 J-1.242
X0.498 Y1.242 Z0.349 I-0.855 J1.242
X2.208 Y-1.242 Z0.184 I0.855 J-1.242
X0.498 Y1.242 Z0.018 I-0.855 J1.242
X2.208 Y-1.242 Z-0.147 I0.855 J-1.242
X0.498 Y1.242 Z-0.313 I-0.855 J1.242
X2.208 Y-1.242 Z-0.478 I0.855 J-1.242
X0.498 Y1.242 Z-0.644 I-0.855 J1.242
X2.208 Y-1.242 Z-0.809 I0.855 J-1.242
X2.861 Y0. Z-0.86 I-0.855 J1.242
X0.897 I-0.982 J0.
G1 X0.905 Y-0.028 F150.
X0.925 Y-0.048
X0.952 Y-0.055
X0.98 Y-0.048
X1. Y-0.028
X1.008 Y0.
G3 X-1.008 I-1.008 J0.
X2.912 I1.96 J0.
X-2.912 I-2.912 J0.
X2.912 I2.912 J0.
G1 X2.905 Y0.048
X2.884 Y0.091
X2.85 Y0.126
X2.808 Y0.149
X2.761 Y0.159
X1.45 Y0.221
X0.341 Y0.92
X0.298 Y0.939
X0.25 Y0.945
X0.203 Y0.935
X0.161 Y0.913
X0.127 Y0.878
G3 X2.579 Y-0.878 Z-1.025 I1.226 J-0.878 F333.
X0.127 Y0.878 Z-1.191 I-1.226 J0.878
X2.579 Y-0.878 Z-1.356 I1.226 J-0.878
X0.127 Y0.878 Z-1.522 I-1.226 J0.878
X2.579 Y-0.878 Z-1.687 I1.226 J-0.878
X2.861 Y0. Z-1.72 I-1.226 J0.878
X0.897 I-0.982 J0.
G1 X0.905 Y-0.028 F150.
X0.925 Y-0.048
X0.952 Y-0.055
X0.98 Y-0.048
X1. Y-0.028
X1.008 Y0.
G3 X-1.008 I-1.008 J0.
X2.912 I1.96 J0.
X-2.912 I-2.912 J0.
X2.912 I2.912 J0.
G1 X2.905 Y0.048
X2.884 Y0.091
X2.85 Y0.126
X2.808 Y0.149
X2.761 Y0.159
X1.45 Y0.221
X0.341 Y0.92
X0.298 Y0.939
X0.25 Y0.945
X0.203 Y0.935
X0.161 Y0.913
X0.127 Y0.878
G3 X2.579 Y-0.878 Z-1.885 I1.226 J-0.878 F333.
X0.127 Y0.878 Z-2.051 I-1.226 J0.878
X2.579 Y-0.878 Z-2.216 I1.226 J-0.878
X0.127 Y0.878 Z-2.382 I-1.226 J0.878
X2.579 Y-0.878 Z-2.547 I1.226 J-0.878
X2.861 Y0. Z-2.58 I-1.226 J0.878
X0.897 I-0.982 J0.
G1 X0.905 Y-0.028 F150.
X0.925 Y-0.048
X0.952 Y-0.055
X0.98 Y-0.048
X1. Y-0.028
X1.008 Y0.
G3 X-1.008 I-1.008 J0.
X2.912 I1.96 J0.
X-2.912 I-2.912 J0.
X2.912 I2.912 J0.
G1 X2.905 Y0.048
X2.884 Y0.091
X2.85 Y0.126
X2.808 Y0.149
X2.761 Y0.159
X1.45 Y0.221
X0.341 Y0.92
X0.298 Y0.939
X0.25 Y0.945
X0.203 Y0.935
X0.161 Y0.913
X0.127 Y0.878
G3 X2.579 Y-0.878 Z-2.745 I1.226 J-0.878 F333.
X0.127 Y0.878 Z-2.911 I-1.226 J0.878
X2.579 Y-0.878 Z-3.076 I1.226 J-0.878
X0.127 Y0.878 Z-3.242 I-1.226 J0.878
X2.579 Y-0.878 Z-3.407 I1.226 J-0.878
X2.861 Y0. Z-3.44 I-1.226 J0.878
X0.897 I-0.982 J0.
G1 X0.905 Y-0.028 F150.
X0.925 Y-0.048
X0.952 Y-0.055
X0.98 Y-0.048
X1. Y-0.028
X1.008 Y0.
G3 X-1.008 I-1.008 J0.
X2.912 I1.96 J0.
X-2.912 I-2.912 J0.
X2.912 I2.912 J0.
G1 X2.905 Y0.048
X2.884 Y0.091
X2.85 Y0.126
X2.808 Y0.149
X2.761 Y0.159
X1.45 Y0.221
X0.341 Y0.92
X0.298 Y0.939
X0.25 Y0.945
X0.203 Y0.935
X0.161 Y0.913
X0.127 Y0.878
G3 X2.579 Y-0.878 Z-3.605 I1.226 J-0.878 F333.
X0.127 Y0.878 Z-3.771 I-1.226 J0.878
X2.579 Y-0.878 Z-3.936 I1.226 J-0.878
X0.127 Y0.878 Z-4.102 I-1.226 J0.878
X2.579 Y-0.878 Z-4.267 I1.226 J-0.878
X2.861 Y0. Z-4.3 I-1.226 J0.878
X0.897 I-0.982 J0.
G1 X0.905 Y-0.028 F150.
X0.925 Y-0.048
X0.952 Y-0.055
X0.98 Y-0.048
X1. Y-0.028
X1.008 Y0.
G3 X-1.008 I-1.008 J0.
X2.912 I1.96 J0.
X-2.912 I-2.912 J0.
X2.912 I2.912 J0.
G1 X2.905 Y0.047
X2.884 Y0.091
X2.851 Y0.125
X2.809 Y0.149
X2.762 Y0.159
X1.458 Y0.232
X0.372 Y0.955
X0.329 Y0.975
X0.282 Y0.982
X0.235 Y0.974
X0.192 Y0.953
X0.158 Y0.92
G3 X2.548 Y-0.92 Z-4.465 I1.195 J-0.92 F333.
X2.861 Y0. Z-4.5 I-1.195 J0.92
X0.897 I-0.982 J0.
G1 X0.905 Y-0.028 F150.
X0.925 Y-0.048
X0.952 Y-0.055
X0.98 Y-0.048
X1. Y-0.028
X1.008 Y0.
G3 X-1.008 I-1.008 J0.
X2.912 I1.96 J0.
X-2.912 I-2.912 J0.
X2.912 I2.912 J0.
G1 X2.907 Y0.06 Z-4.488
X2.89 Y0.119 Z-4.476
X2.867 Y0.165 Z-4.441
X2.836 Y0.206 Z-4.407
X2.786 Y0.253 Z-4.304
X2.767 Y0.267 Z-4.183
Z8.

M5
G28 G91 Z0.
G90
G28 G91 X0. Y0.
G90
M30
