(1001)
(T3 D=3.175 CR=0. - ZMIN=-6.4 - FRESA CON PUNTA PLANA)
G90 G94 G91.1 G40 G49 G17
G21
(WHEN USING FUSION FOR PERSONAL USE, THE FEEDRATE OF RAPID)
(MOVES IS REDUCED TO MATCH THE FEEDRATE OF CUTTING MOVES,)
(WHICH CAN INCREASE MACHINING TIME. UNRESTRICTED RAPID MOVES)
(ARE AVAILABLE WITH A FUSION SUBSCRIPTION.)
G28 G91 Z0.
G90

(2D CONTORNEADO2)
T3 M6
S10000 M3
G17 G90 G94
G54
G0 X-15.04 Y-0.317
G43 Z8. H3
G1 Z3. F150.
Z0.635 F50.
Z-0.683
G18 G2 X-14.722 Z-1. I0.318 K0. F150.
G1 X-14.405
G17 G3 X-14.087 Y0. I0. J0.317
G1 Y10.
G2 X-10. Y14.087 I4.087 J0.
G1 X10.
G2 X14.087 Y10. I0. J-4.087
G1 Y-10.
G2 X10. Y-14.087 I-4.087 J0.
G1 X-10.
G2 X-14.087 Y-10. I0. J4.087
G1 Y0.
G3 X-14.405 Y0.317 I-0.318 J0.
G1 X-14.722
G18 G3 X-15.04 Z-0.683 I0. K0.317
G1 Z3.
Y-0.317
Z-0.365 F50.
Z-1.683
G2 X-14.722 Z-2. I0.318 K0. F150.
G1 X-14.405
G17 G3 X-14.087 Y0. I0. J0.317
G1 Y10.
G2 X-10. Y14.087 I4.087 J0.
G1 X10.
G2 X14.087 Y10. I0. J-4.087
G1 Y-10.
G2 X10. Y-14.087 I-4.087 J0.
G1 X-10.
G2 X-14.087 Y-10. I0. J4.087
G1 Y0.
G3 X-14.405 Y0.317 I-0.318 J0.
G1 X-14.722
G18 G3 X-15.04 Z-1.683 I0. K0.317
G1 Z3.
Y-0.317
Z-1.365 F50.
Z-2.683
G2 X-14.722 Z-3. I0.318 K0. F150.
G1 X-14.405
G17 G3 X-14.087 Y0. I0. J0.317
G1 Y10.
G2 X-10. Y14.087 I4.087 J0.
G1 X10.
G2 X14.087 Y10. I0. J-4.087
G1 Y-10.
G2 X10. Y-14.087 I-4.087 J0.
G1 X-10.
G2 X-14.087 Y-10. I0. J4.087
G1 Y0.
G3 X-14.405 Y0.317 I-0.318 J0.
G1 X-14.722
G18 G3 X-15.04 Z-2.683 I0. K0.318
G1 Z3.
Y-0.317
Z-2.365 F50.
Z-3.683
G2 X-14.722 Z-4. I0.318 K0. F150.
G1 X-14.405
G17 G3 X-14.087 Y0. I0. J0.317
G1 Y10.
G2 X-10. Y14.087 I4.087 J0.
G1 X10.
G2 X14.087 Y10. I0. J-4.087
G1 Y-10.
G2 X10. Y-14.087 I-4.087 J0.
G1 X-10.
G2 X-14.087 Y-10. I0. J4.087
G1 Y0.
G3 X-14.405 Y0.317 I-0.318 J0.
G1 X-14.722
G18 G3 X-15.04 Z-3.683 I0. K0.318
G1 Z3.
Y-0.317
Z-3.365 F50.
Z-4.683
G2 X-14.722 Z-5. I0.318 K0. F150.
G1 X-14.405
G17 G3 X-14.087 Y0. I0. J0.317
G1 Y10.
G2 X-10. Y14.087 I4.087 J0.
G1 X10.
G2 X14.087 Y10. I0. J-4.087
G1 Y-10.
G2 X10. Y-14.087 I-4.087 J0.
G1 X-10.
G2 X-14.087 Y-10. I0. J4.087
G1 Y0.
G3 X-14.405 Y0.317 I-0.318 J0.
G1 X-14.722
G18 G3 X-15.04 Z-4.683 I0. K0.318
G1 Z3.
Y-0.317
Z-4.365 F50.
Z-5.683
G2 X-14.722 Z-6. I0.318 K0. F150.
G1 X-14.405
G17 G3 X-14.087 Y0. I0. J0.317
G1 Y10.
G2 X-10. Y14.087 I4.087 J0.
G1 X10.
G2 X14.087 Y10. I0. J-4.087
G1 Y-10.
G2 X10. Y-14.087 I-4.087 J0.
G1 X-10.
G2 X-14.087 Y-10. I0. J4.087
G1 Y0.
G3 X-14.405 Y0.317 I-0.318 J0.
G1 X-14.722
G18 G3 X-15.04 Z-5.683 I0. K0.318
G1 Z3.
Y-0.317
Z-5.365 F50.
Z-6.083
G2 X-14.722 Z-6.4 I0.318 K0. F150.
G1 X-14.405
G17 G3 X-14.087 Y0. I0. J0.317
G1 Y10.
G2 X-10. Y14.087 I4.087 J0.
G1 X10.
G2 X14.087 Y10. I0. J-4.087
G1 Y-10.
G2 X10. Y-14.087 I-4.087 J0.
G1 X-10.
G2 X-14.087 Y-10. I0. J4.087
G1 Y0.
G3 X-14.405 Y0.317 I-0.318 J0.
G1 X-14.722
G18 G3 X-15.04 Z-6.083 I0. K0.318
G1 Z8.
G17

M5
G28 G91 Z0.
G90
G28 G91 X0. Y0.
G90
M30
