(1001)
(T3 D=3.175 CR=0. - ZMIN=-6. - FRESA CON PUNTA PLANA1)
G90 G94 G91.1 G40 G49 G17
G21
(WHEN USING FUSION FOR PERSONAL USE, THE FEEDRATE OF RAPID)
(MOVES IS REDUCED TO MATCH THE FEEDRATE OF CUTTING MOVES,)
(WHICH CAN INCREASE MACHINING TIME. UNRESTRICTED RAPID MOVES)
(ARE AVAILABLE WITH A FUSION SUBSCRIPTION.)
G28 G91 Z0.
G90

(CORTE 1FILOS3MMDIAM)
T3 M6
S10000 M3
G17 G90 G94
G54
G0 X-27.317 Y27.54
G43 Z8. H3
G1 Z3. F150.
Z0.635 F50.
Z-5.683
G19 G2 Y27.222 Z-6. J-0.318 K0. F150.
G1 Y26.905
G17 G3 X-27. Y26.587 I0.317 J0.
G1 X25.
G2 X26.587 Y25. I0. J-1.587
G1 Y-25.
G2 X25. Y-26.587 I-1.587 J0.
G1 X-25.
X-27.
G3 X-27.317 Y-26.905 I0. J-0.318
G1 Y-27.222
G19 G2 Y-27.54 Z-5.683 J0. K0.318
G1 Z8.
G17

M5
G28 G91 Z0.
G90
G28 G91 X0. Y0.
G90
M30
