(1001)
(T5 D=3. CR=0. - ZMIN=-6. - FRESA CON PUNTA PLANA1F)
G90 G94 G91.1 G40 G49 G17
G21
(WHEN USING FUSION FOR PERSONAL USE, THE FEEDRATE OF RAPID)
(MOVES IS REDUCED TO MATCH THE FEEDRATE OF CUTTING MOVES,)
(WHICH CAN INCREASE MACHINING TIME. UNRESTRICTED RAPID MOVES)
(ARE AVAILABLE WITH A FUSION SUBSCRIPTION.)
G28 G91 Z0.
G90

(CORTE 3FILOS3MM4DIAM)
T5 M6
S10000 M3
G17 G90 G94
G54
G0 X-27.4 Y-0.3
G43 Z8. H5
G1 Z3. F160.
Z0.6 F53.
Z-5.7
G18 G2 X-27.1 Z-6. I0.3 K0. F160.
G1 X-26.8
G17 G3 X-26.5 Y0. I0. J0.3
G1 Y25.
G2 X-25. Y26.5 I1.5 J0.
G1 X25.
G2 X26.5 Y25. I0. J-1.5
G1 Y-25.
G2 X25. Y-26.5 I-1.5 J0.
G1 X-25.
G2 X-26.5 Y-25. I0. J1.5
G1 Y0.
G3 X-26.8 Y0.3 I-0.3 J0.
G1 X-27.1
G18 G3 X-27.4 Z-5.7 I0. K0.3
G1 Z8.
G17

M5
G28 G91 Z0.
G90
G28 G91 X0. Y0.
G90
M30
