(1001)
(T3 D=3.175 CR=0. - ZMIN=-1. - FRESA CON PUNTA PLANA)
G90 G94 G91.1 G40 G49 G17
G21
(WHEN USING FUSION FOR PERSONAL USE, THE FEEDRATE OF RAPID)
(MOVES IS REDUCED TO MATCH THE FEEDRATE OF CUTTING MOVES,)
(WHICH CAN INCREASE MACHINING TIME. UNRESTRICTED RAPID MOVES)
(ARE AVAILABLE WITH A FUSION SUBSCRIPTION.)
G28 G91 Z0.
G90

(PLANO_30X65)
T3 M6
S5000 M3
G17 G90 G94
G54
M8
G0 X68.064 Y-30.42
G43 Z8. H3
G1 Z3. F300.
Z-0.683 F100.
G18 G3 X67.746 Z-1. I-0.318 K0. F300.
G1 X67.598
X-0.598
G17 G2 Y-28.275 I0. J1.073
G1 X67.598
G3 Y-26.129 I0. J1.073
G1 X-0.598
G2 Y-23.984 I0. J1.073
G1 X67.598
G3 Y-21.839 I0. J1.073
G1 X-0.598
G2 Y-19.693 I0. J1.073
G1 X67.598
G3 Y-17.548 I0. J1.073
G1 X-0.598
G2 Y-15.402 I0. J1.073
G1 X67.598
G3 Y-13.257 I0. J1.073
G1 X-0.598
G2 Y-11.112 I0. J1.073
G1 X67.598
G3 Y-8.966 I0. J1.073
G1 X-0.598
G2 Y-6.821 I0. J1.073
G1 X67.598
G3 Y-4.676 I0. J1.073
G1 X-0.598
G2 Y-2.53 I0. J1.073
G1 X67.598
G18 G2 X67.915 Z-0.683 I0. K0.317
G1 Z8.
G17

M9
M5
G28 G91 Z0.
G90
G28 G91 X0. Y0.
G90
M30
