(1001)
(T3 D=3.175 CR=0. - ZMIN=-6.4 - FRESA CON PUNTA PLANA)
G90 G94 G91.1 G40 G49 G17
G21
(WHEN USING FUSION FOR PERSONAL USE, THE FEEDRATE OF RAPID)
(MOVES IS REDUCED TO MATCH THE FEEDRATE OF CUTTING MOVES,)
(WHICH CAN INCREASE MACHINING TIME. UNRESTRICTED RAPID MOVES)
(ARE AVAILABLE WITH A FUSION SUBSCRIPTION.)
G28 G91 Z0.
G90

(2D CAJERAS2)
T3 M6
S10000 M3
G17 G90 G94
G54
G0 X13.93 Y-10.977
G43 Z8. H3
G1 Z3. F150.
Z0.635 F50.
Z-2.182 F150.
X13.926 Y-10.984 Z-2.253
X13.914 Y-11.005 Z-2.32
X13.895 Y-11.037 Z-2.38
X13.87 Y-11.081 Z-2.431
X13.84 Y-11.133 Z-2.469
X13.807 Y-11.191 Z-2.492
X13.771 Y-11.252 Z-2.5
X13.755 Y-11.28
X12.984 Y-12.616
G3 X13.738 Y-13.11 I0.391 J-0.226
G1 X14.063 Y-12.67
G3 X14.151 Y-12.399 I-0.363 J0.268
G1 X14.146 Y-11.506
X14.153 Y-11.426
X14.821 Y-7.574
G3 X13.986 Y-7.271 I-0.445 J0.077
G1 X10.751 Y-12.874
G2 X9.92 Y-13.98 I-4.977 J2.874
G1 X9.9 Y-14.006
X9.885 Y-14.036
X9.386 Y-15.435
X9.367 Y-15.471
X9.339 Y-15.502
X9.305 Y-15.524
X9.266 Y-15.537
X9.224 Y-15.54
X-12.688 Y-13.903
X-12.731 Y-13.894
X-12.77 Y-13.873
X-12.801 Y-13.843
X-12.823 Y-13.805
X-12.834 Y-13.763
X-12.961 Y-12.682
X-12.968 Y-12.65
X-12.981 Y-12.621
X-13.761 Y-11.27
G3 X-14.565 Y-11.677 I-0.391 J-0.226
G1 X-14.341 Y-12.187
G3 X-14.153 Y-12.397 I0.413 J0.182
G1 X-13.372 Y-12.846
X-10.483 Y-14.677
G3 X-9.917 Y-13.984 I0.242 J0.381
G2 X-10.751 Y-12.874 I4.143 J3.984
G1 X-13.983 Y-7.276
X-14. Y-7.255
X-14.024 Y-7.242
X-14.05 Y-7.238
X-14.101 Y-7.239
X-14.13 Y-7.233
X-14.156 Y-7.217
X-14.173 Y-7.191
X-14.178 Y-7.161
X-13.947 Y11.171
X-13.941 Y11.198
X-13.926 Y11.221
X-13.903 Y11.237
X-13.875 Y11.243
X-13.817 Y11.244
X-13.793 Y11.248
X-13.771 Y11.261
X-13.755 Y11.28
X-12.984 Y12.616
G3 X-13.738 Y13.11 I-0.391 J0.226
G1 X-14.063 Y12.67
G3 X-14.151 Y12.399 I0.363 J-0.268
G1 X-14.146 Y11.506
X-14.153 Y11.426
X-14.821 Y7.574
G3 X-13.986 Y7.271 I0.445 J-0.077
G1 X-10.751 Y12.874
G2 X-9.92 Y13.98 I4.977 J-2.874
G1 X-9.9 Y14.006
X-9.885 Y14.036
X-9.386 Y15.435
X-9.367 Y15.471
X-9.339 Y15.502
X-9.305 Y15.524
X-9.266 Y15.537
X-9.224 Y15.54
X12.688 Y13.903
X12.731 Y13.894
X12.77 Y13.873
X12.801 Y13.843
X12.823 Y13.805
X12.834 Y13.763
X12.961 Y12.682
X12.968 Y12.65
X12.981 Y12.621
X13.761 Y11.27
G3 X14.565 Y11.677 I0.391 J0.226
G1 X14.341 Y12.187
G3 X14.153 Y12.397 I-0.413 J-0.182
G1 X13.372 Y12.846
X10.483 Y14.677
G3 X9.917 Y13.984 I-0.242 J-0.381
G2 X10.751 Y12.874 I-4.143 J-3.984
G1 X13.983 Y7.276
X14.003 Y7.228
X14.01 Y7.176
X14.009 Y-3.567
X14.002 Y-3.619
X13.982 Y-3.667
X9.188 Y-11.971
G2 X5.773 Y-13.943 I-3.414 J1.971
G1 X-5.773
G2 X-9.188 Y-11.971 I0. J3.943
G1 X-13.979 Y-3.672
X-13.999 Y-3.624
X-14.006 Y-3.572
X-14.009 Y3.567
X-14.002 Y3.619
X-13.982 Y3.667
X-9.188 Y11.971
G2 X-5.773 Y13.943 I3.414 J-1.971
G1 X5.773
G2 X9.188 Y11.971 I0. J-3.943
G1 X13.979 Y3.672
G2 X13.965 Y1.955 I-1.466 J-0.846
G3 X13.616 Y0.274 I2.234 J-1.34
G2 X13.355 Y-1.044 I-2.069 J-0.274
G1 X7.581 Y-11.044
G2 X5.773 Y-12.087 I-1.808 J1.044
G1 X-5.773
G2 X-7.581 Y-11.044 I0. J2.087
G1 X-13.355 Y-1.044
G2 Y1.044 I1.808 J1.044
G1 X-7.581 Y11.044
G2 X-5.773 Y12.087 I1.808 J-1.044
G1 X5.773
G2 X7.581 Y11.044 I0. J-2.087
G1 X13.355 Y1.044
G2 X13.616 Y0.274 I-1.808 J-1.044
G1 X13.627 Y0.225
X13.987 Y-0.988
X14.007 Y-1.055 Z-2.492
X14.026 Y-1.12 Z-2.469
X14.043 Y-1.177 Z-2.431
X14.058 Y-1.226 Z-2.38
X14.068 Y-1.262 Z-2.32
X14.075 Y-1.284 Z-2.253
X14.077 Y-1.292 Z-2.182
Z8.
X1.939 Y-1.39
Z3.
Z2.817 F50.
X1.96 Y-1.381 Z2.698 F333.
X2.02 Y-1.353 Z2.597
X2.107 Y-1.306 Z2.527
X2.207 Y-1.243 Z2.5
G3 X0.499 Y1.243 Z2.335 I-0.854 J1.243
X2.207 Y-1.243 Z2.169 I0.854 J-1.243
X0.499 Y1.243 Z2.004 I-0.854 J1.243
X2.207 Y-1.243 Z1.838 I0.854 J-1.243
X0.499 Y1.243 Z1.673 I-0.854 J1.243
X2.207 Y-1.243 Z1.507 I0.854 J-1.243
X0.499 Y1.243 Z1.342 I-0.854 J1.243
X2.207 Y-1.243 Z1.176 I0.854 J-1.243
X0.499 Y1.243 Z1.011 I-0.854 J1.243
X2.207 Y-1.243 Z0.845 I0.854 J-1.243
X0.499 Y1.243 Z0.68 I-0.854 J1.243
X2.207 Y-1.243 Z0.515 I0.854 J-1.243
X0.499 Y1.243 Z0.349 I-0.854 J1.243
X2.207 Y-1.243 Z0.184 I0.854 J-1.243
X0.499 Y1.243 Z0.018 I-0.854 J1.243
X2.207 Y-1.243 Z-0.147 I0.854 J-1.243
X0.499 Y1.243 Z-0.313 I-0.854 J1.243
X2.207 Y-1.243 Z-0.478 I0.854 J-1.243
X0.499 Y1.243 Z-0.644 I-0.854 J1.243
X2.207 Y-1.243 Z-0.809 I0.854 J-1.243
X0.499 Y1.243 Z-0.974 I-0.854 J1.243
X2.207 Y-1.243 Z-1.14 I0.854 J-1.243
X0.499 Y1.243 Z-1.305 I-0.854 J1.243
X2.207 Y-1.243 Z-1.471 I0.854 J-1.243
X0.499 Y1.243 Z-1.636 I-0.854 J1.243
X2.207 Y-1.243 Z-1.802 I0.854 J-1.243
X0.499 Y1.243 Z-1.967 I-0.854 J1.243
X2.207 Y-1.243 Z-2.133 I0.854 J-1.243
X0.499 Y1.243 Z-2.298 I-0.854 J1.243
X2.207 Y-1.243 Z-2.464 I0.854 J-1.243
X0.499 Y1.243 Z-2.629 I-0.854 J1.243
X2.207 Y-1.243 Z-2.794 I0.854 J-1.243
X0.499 Y1.243 Z-2.96 I-0.854 J1.243
X2.207 Y-1.243 Z-3.125 I0.854 J-1.243
X0.499 Y1.243 Z-3.291 I-0.854 J1.243
X2.207 Y-1.243 Z-3.456 I0.854 J-1.243
X0.499 Y1.243 Z-3.622 I-0.854 J1.243
X2.207 Y-1.243 Z-3.787 I0.854 J-1.243
X0.499 Y1.243 Z-3.953 I-0.854 J1.243
X2.207 Y-1.243 Z-4.118 I0.854 J-1.243
X0.499 Y1.243 Z-4.284 I-0.854 J1.243
X2.207 Y-1.243 Z-4.449 I0.854 J-1.243
X2.861 Y0. Z-4.5 I-0.854 J1.243
X0.897 I-0.982 J0.
G1 X0.905 Y-0.028 F150.
X0.925 Y-0.048
X0.952 Y-0.055
X0.98 Y-0.048
X1. Y-0.028
X1.008 Y0.
G3 X-1.008 I-1.008 J0.
X2.912 I1.96 J0.
X-2.912 I-2.912 J0.
X2.912 I2.912 J0.
G1 X2.907 Y0.06 Z-4.488
X2.89 Y0.119 Z-4.476
X2.867 Y0.165 Z-4.441
X2.836 Y0.206 Z-4.407
X2.786 Y0.253 Z-4.304
X2.767 Y0.267 Z-4.183
Z8.
(WHEN USING FUSION FOR PERSONAL USE, THE FEEDRATE OF RAPID)
(MOVES IS REDUCED TO MATCH THE FEEDRATE OF CUTTING MOVES,)
(WHICH CAN INCREASE MACHINING TIME. UNRESTRICTED RAPID MOVES)
(ARE AVAILABLE WITH A FUSION SUBSCRIPTION.)

(2D CONTORNEADO2)
G0 X-15.04 Y-0.317
G1 Z8. F150.
Z3.
Z0.635 F50.
Z-6.083
G18 G2 X-14.722 Z-6.4 I0.318 K0. F150.
G1 X-14.405
G17 G3 X-14.087 Y0. I0. J0.317
G1 Y10.
G2 X-10. Y14.087 I4.087 J0.
G1 X10.
G2 X14.087 Y10. I0. J-4.087
G1 Y-10.
G2 X10. Y-14.087 I-4.087 J0.
G1 X-10.
G2 X-14.087 Y-10. I0. J4.087
G1 Y0.
G3 X-14.405 Y0.317 I-0.318 J0.
G1 X-14.722
G18 G3 X-15.04 Z-6.083 I0. K0.318
G1 Z8.
G17

M5
G28 G91 Z0.
G90
G28 G91 X0. Y0.
G90
M30
