(1001)
(3FILOS_3MMDH_4MMDV)
(T5 D=3. CR=0. - ZMIN=-2.5 - FRESA CON PUNTA PLANA)
G90 G94 G91.1 G40 G49 G17
G21
(WHEN USING FUSION FOR PERSONAL USE, THE FEEDRATE OF RAPID)
(MOVES IS REDUCED TO MATCH THE FEEDRATE OF CUTTING MOVES,)
(WHICH CAN INCREASE MACHINING TIME. UNRESTRICTED RAPID MOVES)
(ARE AVAILABLE WITH A FUSION SUBSCRIPTION.)
G28 G91 Z0.
G90

(PRUEBA_3FILOS3MM)
T5 M6
S5000 M3
G17 G90 G94
G54
G0 X13.944 Y12.239
G43 Z8. H5
G1 Z3.06 F500.
Z2.55
S8000
G3 X15.016 Y14.54 Z2.445 I-0.208 J1.497 F167.
X12.481 Y14.574 Z2.34 I-1.278 J-0.803
X13.488 Y12.251 Z2.234 I1.255 J-0.836
X15.192 Y14.12 Z2.129 I0.247 J1.485
X12.792 Y14.906 Z2.024 I-1.454 J-0.383
X13.058 Y12.398 Z1.919 I0.945 J-1.168
X15.234 Y13.668 Z1.814 I0.677 J1.339
X13.186 Y15.13 Z1.708 I-1.497 J0.068
X12.693 Y12.665 Z1.603 I0.551 J-1.392
X15.14 Y13.226 Z1.498 I1.042 J1.072
X13.627 Y15.225 Z1.393 I-1.403 J0.51
X12.426 Y13.028 Z1.288 I0.11 J-1.487
X14.919 Y12.833 Z1.182 I1.31 J0.709
X14.075 Y15.185 Z1.077 I-1.182 J0.903
X12.279 Y13.453 Z0.972 I-0.338 J-1.447
X14.592 Y12.526 Z0.867 I1.456 J0.285
X14.489 Y15.013 Z0.761 I-0.856 J1.21
X12.266 Y13.9 Z0.656 I-0.752 J-1.275
X14.19 Y12.331 Z0.551 I1.469 J-0.162
X14.831 Y14.726 Z0.446 I-0.454 J1.405
X12.387 Y14.329 Z0.341 I-1.094 J-0.989
X13.75 Y12.265 Z0.235 I1.349 J-0.591
X15.072 Y14.352 Z0.13 I-0.014 J1.471
X12.629 Y14.702 Z0.025 I-1.334 J-0.615
X13.311 Y12.334 Z-0.08 I1.107 J-0.963
X15.189 Y13.925 Z-0.185 I0.424 J1.403
X12.971 Y14.983 Z-0.291 I-1.452 J-0.188
X12.915 Y12.529 Z-0.396 I0.766 J-1.245
X15.173 Y13.483 Z-0.501 I0.821 J1.208
X13.379 Y15.15 Z-0.606 I-1.436 J0.253
X12.596 Y12.833 Z-0.711 I0.358 J-1.412
X15.027 Y13.068 Z-0.817 I1.139 J0.904
X13.817 Y15.187 Z-0.922 I-1.29 J0.668
X12.383 Y13.217 Z-1.027 I-0.08 J-1.449
X14.765 Y12.718 Z-1.132 I1.352 J0.521
X14.244 Y15.091 Z-1.237 I-1.028 J1.018
X12.295 Y13.645 Z-1.343 I-0.507 J-1.354
X14.411 Y12.462 Z-1.448 I1.44 J0.093
X14.622 Y14.874 Z-1.553 I-0.675 J1.274
X12.339 Y14.078 Z-1.658 I-0.884 J-1.136
X13.998 Y12.324 Z-1.764 I1.397 J-0.34
X14.916 Y14.554 Z-1.869 I-0.262 J1.412
X12.509 Y14.477 Z-1.974 I-1.179 J-0.817
X13.565 Y12.316 Z-2.079 I1.227 J-0.739
X15.101 Y14.163 Z-2.184 I0.17 J1.42
X12.789 Y14.806 Z-2.29 I-1.364 J-0.427
X13.151 Y12.437 Z-2.395 I0.947 J-1.067
X15.161 Y13.736 Z-2.5 I0.584 J1.3
X12.31 I-1.425 J0.
X15.161 I1.425 J0.
S5000
G1 X15.195 Y14.458 F500.
X15.212 Y14.546
X15.22 Y14.696
X15.2 Y14.845
X15.158 Y14.989
X15.096 Y15.125
X15.018 Y15.253
X14.925 Y15.371
X14.821 Y15.479
X14.707 Y15.576
X14.583 Y15.662
X14.453 Y15.736
X14.316 Y15.798
X14.175 Y15.849
X14.03 Y15.888
X13.879 Y15.915
X13.723 Y15.931
X13.563 Y15.935
X13.401 Y15.925
X13.238 Y15.902
X13.076 Y15.866
X12.915 Y15.816
X12.757 Y15.753
X12.603 Y15.676
X12.455 Y15.587
X12.313 Y15.485
X12.179 Y15.372
X12.054 Y15.248
X11.939 Y15.113
X11.834 Y14.969
X11.741 Y14.817
X11.661 Y14.657
X11.593 Y14.49
X11.539 Y14.318
X11.498 Y14.142
X11.472 Y13.963
X11.46 Y13.783
X11.463 Y13.601
X11.48 Y13.42
X11.512 Y13.241
X11.558 Y13.065
X11.618 Y12.893
X11.692 Y12.726
X11.779 Y12.566
X11.879 Y12.413
X11.991 Y12.268
X12.114 Y12.133
X12.247 Y12.008
X12.39 Y11.895
X12.542 Y11.793
X12.702 Y11.703
X12.868 Y11.627
X13.04 Y11.564
X13.217 Y11.515
X13.396 Y11.48
X13.578 Y11.46
X13.761 Y11.455
X13.944 Y11.464
X14.126 Y11.488
X14.305 Y11.527
X14.481 Y11.58
X14.651 Y11.646
X14.816 Y11.727
X14.974 Y11.82
X15.124 Y11.925
X15.264 Y12.043
X15.395 Y12.171
X15.516 Y12.309
X15.625 Y12.456
X15.726 Y12.62
X15.837 Y12.835
X15.97 Y13.154
X16.079 Y13.492
X16.144 Y13.761
X16.181 Y13.999
X16.197 Y14.219
X16.195 Y14.433
X16.177 Y14.641
X16.144 Y14.838
X16.096 Y15.027
X16.033 Y15.212
X15.955 Y15.393
X15.862 Y15.568
X15.754 Y15.735
X15.634 Y15.894
X15.499 Y16.044
X15.352 Y16.184
X15.192 Y16.314
X15.019 Y16.432
X14.835 Y16.537
X14.64 Y16.629
X14.435 Y16.706
X14.222 Y16.767
X14.001 Y16.811
X13.775 Y16.838
X13.544 Y16.846
X13.311 Y16.836
X13.078 Y16.807
X12.845 Y16.759
X12.615 Y16.692
X12.389 Y16.606
X12.169 Y16.501
X11.957 Y16.378
X11.755 Y16.238
X11.563 Y16.081
X11.383 Y15.909
X11.218 Y15.721
X11.067 Y15.52
X10.932 Y15.307
X10.814 Y15.083
X10.714 Y14.849
X10.634 Y14.607
X10.572 Y14.359
X10.531 Y14.107
X10.51 Y13.851
Y13.594
X10.53 Y13.338
X10.571 Y13.083
X10.632 Y12.833
X10.714 Y12.588
X10.814 Y12.35
X10.934 Y12.12
X11.072 Y11.901
X11.227 Y11.694
X11.398 Y11.499
X11.584 Y11.319
X11.785 Y11.154
X11.998 Y11.006
X12.222 Y10.875
X12.456 Y10.763
X12.698 Y10.67
X12.948 Y10.596
X13.202 Y10.543
X13.46 Y10.51
X13.719 Y10.499
X13.979 Y10.508
X14.237 Y10.537
X14.492 Y10.588
X14.742 Y10.659
X14.986 Y10.749
X15.222 Y10.859
X15.448 Y10.988
X15.663 Y11.134
X15.867 Y11.298
X16.065 Y11.486
X16.268 Y11.711
X16.462 Y11.965
X16.641 Y12.243
X16.8 Y12.541
X16.933 Y12.846
X17.039 Y13.153
X17.117 Y13.459
X17.169 Y13.762
X17.196 Y14.061
X17.199 Y14.356
X17.178 Y14.647
X17.135 Y14.932
X17.069 Y15.211
X16.982 Y15.482
X16.873 Y15.745
X16.744 Y15.997
X16.595 Y16.239
X16.427 Y16.468
X16.24 Y16.684
X16.035 Y16.885
X15.813 Y17.071
X15.575 Y17.24
X15.322 Y17.39
X15.056 Y17.52
X14.777 Y17.63
X14.488 Y17.718
X14.191 Y17.782
X13.886 Y17.823
X13.577 Y17.84
X13.266 Y17.832
X12.953 Y17.798
X12.643 Y17.739
X12.336 Y17.655
X12.035 Y17.546
X11.742 Y17.412
X11.459 Y17.255
X11.189 Y17.074
X10.932 Y16.871
X10.692 Y16.647
X10.469 Y16.404
X10.266 Y16.142
X10.084 Y15.864
X9.924 Y15.571
X9.788 Y15.266
X9.676 Y14.95
X9.59 Y14.625
X9.53 Y14.293
X9.497 Y13.958
X9.491 Y13.62
X9.512 Y13.282
X9.561 Y12.946
X9.636 Y12.616
X9.737 Y12.291
X9.865 Y11.976
X10.017 Y11.672
X10.193 Y11.381
X10.393 Y11.105
X10.614 Y10.845
X10.855 Y10.604
X11.115 Y10.383
X11.391 Y10.184
X11.684 Y10.007
X11.989 Y9.854
X12.306 Y9.727
X12.632 Y9.625
X12.965 Y9.549
X13.303 Y9.501
X13.644 Y9.479
X13.986 Y9.486
X14.326 Y9.519
X14.663 Y9.58
X14.993 Y9.668
X15.315 Y9.782
X15.628 Y9.922
X15.931 Y10.087
X16.228 Y10.282
X16.517 Y10.507
X16.796 Y10.762
X17.06 Y11.047
X17.305 Y11.357
X17.526 Y11.688
X17.72 Y12.037
X17.885 Y12.398
X18.019 Y12.769
X18.122 Y13.146
X18.194 Y13.526
X18.235 Y13.907
X18.245 Y14.287
X18.224 Y14.664
X18.174 Y15.036
X18.094 Y15.4
X17.986 Y15.756
X17.85 Y16.1
X17.687 Y16.433
X17.498 Y16.751
X17.283 Y17.054
X17.045 Y17.339
X16.783 Y17.605
X16.499 Y17.85
X16.196 Y18.072
X15.873 Y18.271
X15.534 Y18.444
X15.179 Y18.591
X14.812 Y18.709
X14.434 Y18.798
X14.048 Y18.856
X13.656 Y18.884
X13.261 Y18.88
X12.866 Y18.844
X12.472 Y18.776
X12.083 Y18.676
X11.701 Y18.545
X11.329 Y18.382
X10.97 Y18.19
X10.626 Y17.968
X10.3 Y17.719
X9.993 Y17.443
X9.709 Y17.142
X9.449 Y16.818
X9.215 Y16.474
X9.009 Y16.11
X8.832 Y15.731
X8.686 Y15.338
X8.572 Y14.933
X8.49 Y14.52
X8.442 Y14.1
X8.427 Y13.678
X8.447 Y13.255
X8.5 Y12.835
X8.588 Y12.42
X8.708 Y12.012
X8.861 Y11.616
X9.045 Y11.232
X9.259 Y10.865
X9.503 Y10.515
X9.774 Y10.186
X10.07 Y9.88
X10.39 Y9.599
X10.732 Y9.344
X11.094 Y9.117
X11.472 Y8.92
X11.866 Y8.753
X12.271 Y8.619
X12.686 Y8.518
X13.108 Y8.45
X13.534 Y8.417
X13.961 Y8.418
X14.387 Y8.453
X14.809 Y8.522
X15.224 Y8.625
X15.632 Y8.762
X16.032 Y8.932
X16.421 Y9.137
X16.797 Y9.375
X17.16 Y9.648
X17.507 Y9.955
X17.832 Y10.294
X18.133 Y10.661
X18.404 Y11.054
X18.644 Y11.469
X18.85 Y11.901
X19.019 Y12.346
X19.152 Y12.802
X19.248 Y13.265
X19.305 Y13.731
X19.325 Y14.198
X19.307 Y14.663
X19.253 Y15.122
X19.162 Y15.574
X19.035 Y16.016
X18.874 Y16.445
X18.679 Y16.86
X18.451 Y17.258
X18.192 Y17.636
X17.903 Y17.993
X17.585 Y18.327
X17.241 Y18.635
X16.871 Y18.915
X16.479 Y19.166
X16.066 Y19.386
X15.634 Y19.572
X15.187 Y19.724
X14.727 Y19.84
X14.257 Y19.92
X13.779 Y19.961
X13.298 Y19.964
X12.815 Y19.928
X12.335 Y19.854
X11.86 Y19.74
X11.394 Y19.588
X10.94 Y19.399
X10.501 Y19.173
X10.08 Y18.911
X9.68 Y18.615
X9.304 Y18.287
X8.954 Y17.929
X8.633 Y17.543
X8.343 Y17.132
X8.087 Y16.697
X7.866 Y16.242
X7.682 Y15.77
X7.536 Y15.284
X7.43 Y14.787
X7.363 Y14.282
X7.337 Y13.773
X7.352 Y13.263
X7.409 Y12.755
X7.505 Y12.253
X7.642 Y11.759
X7.818 Y11.278
X8.033 Y10.813
X8.284 Y10.365
X8.571 Y9.939
X8.891 Y9.537
X9.242 Y9.163
X9.622 Y8.817
X10.029 Y8.503
X10.46 Y8.222
X10.913 Y7.977
X11.383 Y7.769
X11.869 Y7.599
X12.367 Y7.469
X12.874 Y7.379
X13.387 Y7.33
X13.902 Y7.323
X14.416 Y7.357
X14.927 Y7.432
X15.431 Y7.548
X15.928 Y7.706
X16.414 Y7.904
X16.887 Y8.143
X17.346 Y8.422
X17.786 Y8.742
X18.203 Y9.099
X18.594 Y9.493
X18.955 Y9.92
X19.281 Y10.377
X19.571 Y10.859
X19.822 Y11.363
X20.03 Y11.886
X20.196 Y12.422
X20.318 Y12.968
X20.395 Y13.521
X20.428 Y14.075
X20.416 Y14.629
X20.36 Y15.178
X20.26 Y15.72
X20.118 Y16.25
X19.933 Y16.767
X19.708 Y17.267
X19.444 Y17.747
X19.141 Y18.204
X18.803 Y18.637
X18.43 Y19.041
X18.025 Y19.415
X17.59 Y19.757
X17.128 Y20.063
X16.64 Y20.333
X16.407 Y20.438
X16.315 Y20.472
X16.218 Y20.493
X16.119 Y20.5
X11.809
X11.472 Y20.483
X11.185 Y20.445
X10.88 Y20.38
X10.542 Y20.279
X10.164 Y20.132
X9.786 Y19.949
X9.392 Y19.716
X8.985 Y19.431
X8.581 Y19.095
X8.191 Y18.714
X7.822 Y18.292
X7.483 Y17.833
X7.178 Y17.342
X6.91 Y16.824
X6.683 Y16.281
X6.499 Y15.719
X6.361 Y15.141
X6.269 Y14.553
X6.224 Y13.957
X6.228 Y13.359
X6.279 Y12.761
X6.368 Y12.233
X6.434 Y12.039
X6.556 Y11.874
X6.724 Y11.757
X6.888 Y11.659
X7.052 Y11.534
X7.117 Y11.481
X7.216 Y11.378
X7.272 Y11.317
X7.38 Y11.185
X7.403 Y11.153
X7.512 Y10.989
X8.933 Y8.528
X9.122 Y8.235
X9.273 Y8.039
X9.47 Y7.82
X9.701 Y7.602
X9.984 Y7.375
X10.33 Y7.141
X10.704 Y6.929
X11.132 Y6.73
X11.613 Y6.552
X12.134 Y6.406
X12.684 Y6.298
X13.255 Y6.233
X13.838 Y6.214
X14.429 Y6.242
X15.021 Y6.318
X15.611 Y6.442
X16.194 Y6.615
X16.766 Y6.836
X17.324 Y7.105
X17.864 Y7.421
X18.381 Y7.782
X18.872 Y8.187
X19.332 Y8.634
X19.758 Y9.119
X20.145 Y9.639
X20.393 Y10.036
X20.452 Y10.152
X20.488 Y10.277
X20.5 Y10.407
Y17.057
X20.492 Y17.225
X20.462 Y17.447
X20.409 Y17.696
X20.328 Y17.968
X20.208 Y18.275
X20.044 Y18.613
X19.84 Y18.959
X19.572 Y19.341
X19.244 Y19.737
X18.872 Y20.118
X18.632 Y20.327
X18.494 Y20.421
X18.337 Y20.48
X18.171 Y20.5
G3 X17.882 Y20.19 Z-2.3 I0.01 J-0.3
G1 X17.889 Y20.137
X17.905 Y20.085
X17.93 Y20.038
X17.99 Y19.943
X19.948 Y16.905
G3 X20.19 Y16.768 I0.252 J0.162
X20.5 Y17.057 Z-2.5 I0.01 J0.3
G1 Y18.861
X20.493 Y19.011
X20.463 Y19.192
X20.416 Y19.38
X20.345 Y19.595
X20.241 Y19.837
X20.109 Y20.089
X20.055 Y20.174
X19.944 Y20.31
X19.801 Y20.413
X19.638 Y20.478
X19.464 Y20.5
G3 X19.174 Y20.19 Z-2.3 I0.01 J-0.3
G1 X19.179 Y20.144
X19.192 Y20.099
X19.211 Y20.056
X19.275 Y19.939
X19.937 Y18.728
G3 X20.19 Y18.572 I0.263 J0.144
X20.5 Y18.861 Z-2.5 I0.01 J0.3
G1 Y20.099
Y20.173
X20.498 Y20.214
X20.491 Y20.255
X20.478 Y20.296 F400.
X20.457 Y20.337 F500.
X20.432 Y20.373
X20.397 Y20.41
X20.367 Y20.437
X20.337 Y20.457
X20.296 Y20.478
X20.255 Y20.491 F400.
X20.214 Y20.498 F500.
X20.173 Y20.5
X16.119
G3 X15.872 Y20.355 Z-2.373 I0.01 J-0.3
G1 X15.783 Y20.207 Z-2.3
X15.642 Y19.972
X9.165 Y9.197
X9.024 Y8.963
X8.94 Y8.824 Z-2.369
G3 X8.933 Y8.528 Z-2.5 I0.257 J-0.155
G1 X9.974 Y6.724
X10.056 Y6.598
X10.172 Y6.456
X10.319 Y6.303
X10.489 Y6.153
X10.715 Y5.983
X10.959 Y5.828
X11.28 Y5.66
X11.63 Y5.511
X12.048 Y5.371
X12.538 Y5.25
X13.071 Y5.163
X13.628 Y5.117
X14.236 Y5.116
X14.875 Y5.167
X15.529 Y5.272
X16.189 Y5.433
X16.845 Y5.65
X17.49 Y5.923
X18.118 Y6.251
X18.725 Y6.632
X19.303 Y7.064
X19.845 Y7.541
X20.303 Y8.013
X20.41 Y8.157
X20.477 Y8.323
X20.5 Y8.5
Y10.407
G3 X20.19 Y10.697 Z-2.3 I-0.3 J-0.01
G1 X20.144 Y10.692
X20.1 Y10.68
X19.929 Y10.619
X10.355 Y7.224
X10.139 Y7.148
X10.098 Y7.13
G3 X9.974 Y6.724 Z-2.5 I0.141 J-0.265
G1 X10.7 Y5.468
X10.781 Y5.342
X10.875 Y5.219
X10.981 Y5.102
X11.121 Y4.97
X11.291 Y4.834
X11.489 Y4.7
X11.741 Y4.558
X12.018 Y4.43
X12.363 Y4.302
X12.755 Y4.192
X13.201 Y4.106
X13.733 Y4.045
X14.324 Y4.026
X14.929 Y4.056
X15.595 Y4.142
X16.298 Y4.291
X16.99 Y4.497
X17.664 Y4.755
X18.317 Y5.063
X18.946 Y5.417
X19.549 Y5.815
X20.122 Y6.254
X20.266 Y6.384
X20.393 Y6.533
X20.473 Y6.712
X20.5 Y6.906
Y8.5
G3 X20.19 Y8.79 Z-2.3 I-0.3 J-0.01
G1 X20.15 Y8.785
X20.111 Y8.776
X19.926 Y8.719
X11.083 Y5.96
X10.875 Y5.895
X10.823 Y5.873
G3 X10.7 Y5.468 Z-2.5 I0.141 J-0.265
G1 X11.394 Y4.264
X11.476 Y4.138
X11.569 Y4.021
X11.675 Y3.909
X11.807 Y3.79
X11.971 Y3.664
X12.156 Y3.544
X12.398 Y3.414
X12.655 Y3.302
X12.994 Y3.184
X13.35 Y3.092
X13.793 Y3.015
X14.302 Y2.969
X14.843 Y2.962
X15.48 Y3.006
X16.177 Y3.111
X16.88 Y3.275
X17.568 Y3.492
X18.24 Y3.757
X18.892 Y4.067
X19.521 Y4.421
X19.824 Y4.618
X20.199 Y4.878
X20.36 Y5.034
X20.464 Y5.232
X20.5 Y5.454
Y6.906
G3 X20.19 Y7.195 Z-2.3 I-0.3 J-0.01
G1 X20.153 Y7.191
X20.116 Y7.183
X19.925 Y7.128
X11.779 Y4.752
X11.575 Y4.693
X11.518 Y4.67
G3 X11.394 Y4.264 Z-2.5 I0.141 J-0.265
G1 X12.057 Y3.116
X12.139 Y2.99
X12.235 Y2.875
X12.341 Y2.769
X12.478 Y2.651
X12.638 Y2.535
X12.829 Y2.419
X13.064 Y2.3
X13.326 Y2.194
X13.648 Y2.092
X14.01 Y2.009
X14.44 Y1.946
X14.963 Y1.912
X15.5 Y1.92
X16.143 Y1.981
X16.854 Y2.108
X17.553 Y2.29
X18.237 Y2.521
X18.904 Y2.797
X19.552 Y3.115
X20.071 Y3.415
X20.198 Y3.503
X20.36 Y3.658
X20.464 Y3.857
X20.5 Y4.079
Y5.454
G3 X20.19 Y5.743 Z-2.3 I-0.3 J-0.01
G1 X20.155 Y5.74
X20.12 Y5.732
X19.925 Y5.678
X12.442 Y3.602
X12.242 Y3.546
X12.181 Y3.522
G3 X12.057 Y3.116 Z-2.5 I0.141 J-0.265
G1 X12.679 Y2.039
X12.76 Y1.913
X12.857 Y1.798
X12.962 Y1.692
X13.092 Y1.582
X13.252 Y1.466
X13.431 Y1.358
X13.664 Y1.241
X13.911 Y1.141
X14.231 Y1.041
X14.566 Y0.965
X14.997 Y0.903
X15.466 Y0.873
X16.018 Y0.883
X16.661 Y0.946
X17.371 Y1.074
X18.069 Y1.259
X18.753 Y1.491
X19.42 Y1.766
X19.902 Y2.004
X20.159 Y2.157
X20.3 Y2.268
X20.409 Y2.412
X20.477 Y2.579
X20.5 Y2.758
Y4.079
G3 X20.19 Y4.368 Z-2.3 I-0.3 J-0.01
G1 X20.125 Y4.358
X19.924 Y4.306
X13.065 Y2.522
X12.868 Y2.471
X12.835 Y2.46
X12.803 Y2.445
G3 X12.679 Y2.039 Z-2.5 I0.141 J-0.265
G1 X13.121 Y1.274
X13.189 Y1.148
X13.236 Y1.058
X13.311 Y0.928
X13.4 Y0.808
X13.501 Y0.696
X13.613 Y0.593
X13.758 Y0.478
X13.918 Y0.372
X14.119 Y0.26
X14.346 Y0.157
X14.622 Y0.057
X14.936 Y-0.028
X15.318 Y-0.1
X15.739 Y-0.144
X16.272 Y-0.157
X16.831 Y-0.126
X17.485 Y-0.037
X18.19 Y0.118
X18.882 Y0.325
X19.558 Y0.578
X19.953 Y0.762
X20.145 Y0.871
X20.292 Y0.982
X20.405 Y1.128
X20.476 Y1.298
X20.5 Y1.48
Y2.758
G3 X20.19 Y3.047 Z-2.3 I-0.3 J-0.01
G1 X20.132 Y3.039
X19.922 Y2.991
X13.643 Y1.526
X13.439 Y1.478
X13.379 Y1.457
G3 X13.236 Y1.058 Z-2.5 I0.128 J-0.271
G1 X13.358 Y0.82
X13.433 Y0.656
X13.484 Y0.492
X13.509 Y0.361
X13.545 Y0.216
X13.604 Y0.077
X13.679 Y-0.052
X13.768 Y-0.173
X13.868 Y-0.285
X13.987 Y-0.398
X14.134 Y-0.516
X14.3 Y-0.63
X14.506 Y-0.748
X14.734 Y-0.855
X15.023 Y-0.963
X15.335 Y-1.052
X15.714 Y-1.128
X16.151 Y-1.18
X16.636 Y-1.198
X17.226 Y-1.172
X17.891 Y-1.089
X18.598 Y-0.943
X18.945 Y-0.843
X19.541 Y-0.647
X19.906 Y-0.493
X20.144 Y-0.37
X20.171 Y-0.353
X20.308 Y-0.241
X20.412 Y-0.098
X20.478 Y0.066
X20.5 Y0.241
Y1.48
G3 X20.19 Y1.769 Z-2.3 I-0.3 J-0.01
G1 X20.151 Y1.765
X19.92 Y1.727
X14.028 Y0.749
X13.758 Y0.705
X13.757 Y0.704 Z-2.301
G3 X13.509 Y0.361 Z-2.5 I0.049 J-0.296
G1 X13.516 Y0.328
X13.537 Y0.164
X13.546 Y0.
X13.537 Y-0.164
X13.533 Y-0.191
X13.522 Y-0.341
X13.54 Y-0.49
X13.581 Y-0.634
X13.639 Y-0.773
X13.711 Y-0.904
X13.795 Y-1.028
X13.895 Y-1.153
X14.019 Y-1.284
X14.162 Y-1.413
X14.34 Y-1.549
X14.538 Y-1.677
X14.786 Y-1.81
X15.051 Y-1.926
X15.38 Y-2.039
X15.741 Y-2.132
X16.166 Y-2.205
X16.683 Y-2.252
X17.213 Y-2.257
X17.844 Y-2.213
X18.529 Y-2.109
X19.159 Y-1.961
X19.633 Y-1.809
X19.944 Y-1.681
X20.167 Y-1.566
X20.305 Y-1.455
X20.411 Y-1.312
X20.477 Y-1.147
X20.5 Y-0.97
Y0.241
G3 X20.19 Y0.53 Z-2.3 I-0.3 J-0.01
G1 X20.178
X19.917 Y0.51
X14.15 Y0.085
X13.877 Y0.065
X13.807 Y0.06 Z-2.33
G3 X13.533 Y-0.191 Z-2.5 I0.022 J-0.299
G1 X13.516 Y-0.328
X13.484 Y-0.492
X13.433 Y-0.656
X13.42 Y-0.683
X13.365 Y-0.823
X13.343 Y-0.971
X13.345 Y-1.121
X13.368 Y-1.269
X13.407 Y-1.414
X13.461 Y-1.554
X13.528 Y-1.689
X13.612 Y-1.829
X13.716 Y-1.975
X13.84 Y-2.122
X13.995 Y-2.279
X14.168 Y-2.428
X14.385 Y-2.586
X14.623 Y-2.732
X14.907 Y-2.876
X15.247 Y-3.015
X15.611 Y-3.131
X16.045 Y-3.231
X16.554 Y-3.307
X17.078 Y-3.342
X17.695 Y-3.334
X18.353 Y-3.273
X18.978 Y-3.163
X19.486 Y-3.031
X19.806 Y-2.92
X20.053 Y-2.811
X20.133 Y-2.768
X20.284 Y-2.657
X20.401 Y-2.511
X20.475 Y-2.338
X20.5 Y-2.152
Y-0.97
G3 X20.208 Y-0.681 Z-2.308 I-0.3 J-0.01
G1 X20.19 Z-2.3
X19.916 Y-0.674
X14.101 Y-0.527
X13.827 Y-0.52
X13.696 Y-0.517 Z-2.356
G3 X13.42 Y-0.683 Z-2.5 I-0.008 J-0.3
G1 X13.358 Y-0.82
X13.189 Y-1.148
X13.151 Y-1.217
X13.087 Y-1.353
X13.043 Y-1.496
X13.022 Y-1.645
X13.021 Y-1.795
X13.038 Y-1.944
X13.069 Y-2.091
X13.113 Y-2.234
X13.175 Y-2.389
X13.251 Y-2.543
X13.352 Y-2.71
X13.474 Y-2.88
X13.62 Y-3.053
X13.803 Y-3.237
X14.006 Y-3.411
X14.252 Y-3.589
X14.543 Y-3.766
X14.857 Y-3.925
X15.241 Y-4.081
X15.682 Y-4.221
X16.143 Y-4.326
X16.681 Y-4.405
X17.294 Y-4.445
X17.945 Y-4.435
X18.581 Y-4.374
X19.14 Y-4.275
X19.551 Y-4.167
X19.859 Y-4.059
X20.075 Y-3.964
X20.134 Y-3.932
X20.285 Y-3.821
X20.402 Y-3.674
X20.475 Y-3.502
X20.5 Y-3.316
Y-2.152
G3 X20.235 Y-1.865 Z-2.319 I-0.3 J-0.01
G1 X20.19 Y-1.859 Z-2.3
X19.918 Y-1.828
X13.84 Y-1.118
X13.568 Y-1.086
X13.445 Y-1.072 Z-2.353
G3 X13.151 Y-1.217 Z-2.5 I-0.035 J-0.298
G1 X13.121 Y-1.274
X12.771 Y-1.88
X12.702 Y-2.014
X12.657 Y-2.157
X12.631 Y-2.305
X12.624 Y-2.454
X12.632 Y-2.604
X12.654 Y-2.753
X12.69 Y-2.908
X12.743 Y-3.073
X12.813 Y-3.243
X12.909 Y-3.431
X13.022 Y-3.615
X13.168 Y-3.815
X13.344 Y-4.018
X13.545 Y-4.216
X13.795 Y-4.425
X14.08 Y-4.628
X14.404 Y-4.821
X14.785 Y-5.008
X15.228 Y-5.183
X15.695 Y-5.326
X16.235 Y-5.444
X16.848 Y-5.528
X17.504 Y-5.564
X18.161 Y-5.547
X18.766 Y-5.483
X19.281 Y-5.386
X19.628 Y-5.291
X19.911 Y-5.189
X20.117 Y-5.096
X20.14 Y-5.083
X20.289 Y-4.972
X20.403 Y-4.826
X20.475 Y-4.655
X20.5 Y-4.471
Y-3.316
G3 X20.253 Y-3.032 Z-2.327 I-0.3 J-0.01
G1 X20.191 Y-3.02 Z-2.3
X19.921 Y-2.972
X13.46 Y-1.813
X13.19 Y-1.764
X13.078 Y-1.744 Z-2.348
G3 X12.771 Y-1.88 Z-2.5 I-0.053 J-0.295
G1 X12.341 Y-2.624
X12.273 Y-2.758
X12.229 Y-2.901
X12.203 Y-3.049
X12.193 Y-3.198
X12.198 Y-3.348
X12.217 Y-3.504
X12.249 Y-3.666
X12.301 Y-3.847
X12.37 Y-4.029
X12.465 Y-4.232
X12.584 Y-4.438
X12.731 Y-4.653
X12.918 Y-4.883
X13.128 Y-5.104
X13.385 Y-5.333
X13.698 Y-5.57
X14.042 Y-5.789
X14.433 Y-5.997
X14.894 Y-6.196
X15.427 Y-6.376
X16.002 Y-6.521
X16.621 Y-6.625
X17.297 Y-6.683
X17.983 Y-6.687
X18.62 Y-6.64
X19.136 Y-6.559
X19.539 Y-6.462
X19.832 Y-6.366
X20.048 Y-6.276
X20.121 Y-6.239
X20.277 Y-6.129
X20.398 Y-5.981
X20.474 Y-5.806
X20.5 Y-5.617
Y-4.471
G3 X20.266 Y-4.189 Z-2.332 I-0.3 J-0.01
G1 X20.191 Y-4.172 Z-2.3
X19.924 Y-4.112
X13.027 Y-2.572
X12.76 Y-2.512
X12.661 Y-2.49 Z-2.343
X12.597 Y-2.483 Z-2.371
X12.596
G3 X12.341 Y-2.624 Z-2.5 I0. J-0.3
G1 X11.911 Y-3.37
X11.842 Y-3.504
X11.792 Y-3.645
X11.76 Y-3.792
X11.744 Y-3.941
X11.743 Y-4.091
X11.754 Y-4.242
X11.781 Y-4.416
X11.823 Y-4.595
X11.887 Y-4.791
X11.975 Y-5.002
X12.085 Y-5.216
X12.234 Y-5.456
X12.406 Y-5.69
X12.621 Y-5.937
X12.886 Y-6.197
X13.181 Y-6.442
X13.531 Y-6.689
X13.954 Y-6.939
X14.44 Y-7.176
X14.955 Y-7.377
X15.539 Y-7.553
X16.196 Y-7.695
X16.903 Y-7.788
X17.621 Y-7.825
X18.299 Y-7.806
X18.89 Y-7.741
X19.353 Y-7.652
X19.678 Y-7.562
X19.935 Y-7.469
X20.142 Y-7.373
X20.29 Y-7.262
X20.404 Y-7.117
X20.476 Y-6.946
X20.5 Y-6.763
Y-5.617
G3 X20.276 Y-5.337 Z-2.337 I-0.3 J-0.01
G1 X20.192 Y-5.315 Z-2.3
X19.927 Y-5.246
X12.593 Y-3.331
X12.328 Y-3.262
X12.241 Y-3.239 Z-2.339
G3 X11.911 Y-3.37 Z-2.5 I-0.076 J-0.29
G1 X11.433 Y-4.197
X11.365 Y-4.331
X11.317 Y-4.473
X11.286 Y-4.62
X11.271 Y-4.769
X11.269 Y-4.919
X11.28 Y-5.086
X11.306 Y-5.26
X11.353 Y-5.459
X11.417 Y-5.659
X11.511 Y-5.889
X11.628 Y-6.118
X11.78 Y-6.366
X11.974 Y-6.632
X12.195 Y-6.888
X12.475 Y-7.165
X12.819 Y-7.454
X13.193 Y-7.721
X13.633 Y-7.983
X14.147 Y-8.237
X14.738 Y-8.472
X15.394 Y-8.672
X16.077 Y-8.823
X16.793 Y-8.922
X17.513 Y-8.964
X18.223 Y-8.952
X18.804 Y-8.896
X19.304 Y-8.806
X19.637 Y-8.718
X19.911 Y-8.622
X20.111 Y-8.532
X20.135 Y-8.519
X20.286 Y-8.409
X20.402 Y-8.262
X20.475 Y-8.09
X20.5 Y-7.905
Y-6.763
G3 X20.282 Y-6.485 Z-2.34 I-0.3 J-0.01
G1 X20.192 Y-6.459 Z-2.3
X19.929 Y-6.384
X12.114 Y-4.165
X11.851 Y-4.09
X11.77 Y-4.067 Z-2.336
G3 X11.433 Y-4.197 Z-2.5 I-0.082 J-0.289
G1 X10.951 Y-5.032
X10.883 Y-5.165
X10.834 Y-5.307
X10.803 Y-5.454
X10.785 Y-5.603
X10.782 Y-5.759
X10.791 Y-5.923
X10.816 Y-6.112
X10.859 Y-6.308
X10.925 Y-6.524
X11.017 Y-6.757
X11.136 Y-6.999
X11.299 Y-7.272
X11.488 Y-7.538
X11.728 Y-7.824
X12.028 Y-8.128
X12.36 Y-8.415
X12.763 Y-8.71
X13.248 Y-9.009
X13.814 Y-9.297
X14.422 Y-9.548
X15.086 Y-9.761
X15.789 Y-9.926
X16.503 Y-10.037
X17.222 Y-10.097
X17.944 Y-10.105
X18.607 Y-10.061
X19.124 Y-9.985
X19.524 Y-9.892
X19.818 Y-9.799
X20.034 Y-9.711
X20.116 Y-9.669
X20.274 Y-9.56
X20.396 Y-9.411
X20.474 Y-9.235
X20.5 Y-9.045
Y-7.905
G3 X20.287 Y-7.628 Z-2.342 I-0.3 J-0.01
G1 X20.193 Y-7.6 Z-2.3
X19.931 Y-7.52
X11.63 Y-5.006
X11.368 Y-4.926
X11.293 Y-4.903 Z-2.334
G3 X10.951 Y-5.032 Z-2.5 I-0.087 J-0.287
G1 X10.448 Y-5.904
X10.379 Y-6.038
X10.332 Y-6.18
X10.302 Y-6.327
X10.285 Y-6.476
X10.281 Y-6.64
X10.291 Y-6.81
X10.318 Y-7.005
X10.363 Y-7.209
X10.432 Y-7.437
X10.529 Y-7.68
X10.656 Y-7.939
X10.828 Y-8.225
X11.026 Y-8.504
X11.281 Y-8.808
X11.605 Y-9.135
X11.961 Y-9.442
X12.404 Y-9.766
X12.929 Y-10.088
X13.529 Y-10.393
X14.19 Y-10.664
X14.878 Y-10.884
X15.58 Y-11.05
X16.293 Y-11.166
X17.012 Y-11.234
X17.734 Y-11.253
X18.433 Y-11.222
X18.984 Y-11.153
X19.427 Y-11.061
X19.742 Y-10.968
X19.975 Y-10.879
X20.102 Y-10.818
X20.265 Y-10.71
X20.392 Y-10.56
X20.473 Y-10.381
X20.5 Y-10.187
Y-9.045
G3 X20.29 Y-8.769 Z-2.343 I-0.3 J-0.01
G1 X20.193 Y-8.739 Z-2.3
X19.932 Y-8.656
X11.125 Y-5.882
X10.864 Y-5.8
X10.792 Y-5.777 Z-2.332
G3 X10.448 Y-5.904 Z-2.5 I-0.09 J-0.286
G1 X9.974 Y-6.724
X9.906 Y-6.858
X9.851 Y-6.997
X9.812 Y-7.142
X9.788 Y-7.29
X9.778 Y-7.441
X9.779 Y-7.614
X9.796 Y-7.797
X9.831 Y-8.003
X9.888 Y-8.224
X9.97 Y-8.464
X10.086 Y-8.729
X10.232 Y-9.002
X10.428 Y-9.307
X10.66 Y-9.611
X10.951 Y-9.934
X11.321 Y-10.284
X11.746 Y-10.626
X12.237 Y-10.96
X12.825 Y-11.294
X13.479 Y-11.6
X14.155 Y-11.852
X14.848 Y-12.055
X15.553 Y-12.211
X16.267 Y-12.322
X16.986 Y-12.387
X17.707 Y-12.405
X18.393 Y-12.374
X18.97 Y-12.302
X19.414 Y-12.209
X19.738 Y-12.114
X19.97 Y-12.025
X20.183 Y-11.923
X20.254 Y-11.882
X20.311 Y-11.845
X20.364 Y-11.803
X20.412 Y-11.756
X20.44 Y-11.727
X20.465 Y-11.686
X20.483 Y-11.645
X20.493 Y-11.604
X20.498 Y-11.563
X20.5 Y-11.481
Y-10.187
G3 X20.295 Y-9.913 Z-2.345 I-0.3 J-0.01
G1 X20.194 Y-9.879 Z-2.3
X19.934 Y-9.793
X10.65 Y-6.707
X10.391 Y-6.621
X10.323 Y-6.599 Z-2.33
G3 X9.974 Y-6.724 Z-2.5 I-0.095 J-0.285
G1 X9.449 Y-7.635
X9.38 Y-7.768
X9.328 Y-7.909
X9.291 Y-8.054
X9.269 Y-8.203
X9.259 Y-8.362
X9.262 Y-8.534
X9.282 Y-8.732
X9.319 Y-8.941
X9.381 Y-9.175
X9.47 Y-9.426
X9.589 Y-9.694
X9.755 Y-9.998
X9.951 Y-10.297
X10.213 Y-10.634
X10.537 Y-10.989
X10.901 Y-11.328
X11.363 Y-11.694
X11.918 Y-12.064
X12.548 Y-12.416
X13.205 Y-12.716
X13.881 Y-12.967
X14.574 Y-13.172
X15.278 Y-13.331
X15.99 Y-13.448
X16.709 Y-13.523
X17.43 Y-13.554
X18.152 Y-13.538
X18.436 Y-13.51
X18.593 Y-13.476
X18.738 Y-13.408
X18.863 Y-13.308
X20.363 Y-11.809
X20.412 Y-11.756
G3 X20.385 Y-11.333 Z-2.3 I-0.226 J0.198
G1 X20.339 Y-11.3
X20.288 Y-11.276
X20.137 Y-11.222
X10.122 Y-7.625
X9.864 Y-7.533
X9.804 Y-7.511 Z-2.327
G3 X9.449 Y-7.635 Z-2.5 I-0.101 J-0.282
G1 X8.933 Y-8.528
X8.864 Y-8.662
X8.81 Y-8.802
X8.772 Y-8.947
X8.748 Y-9.095
X8.736 Y-9.26
X8.737 Y-9.431
X8.755 Y-9.633
X8.79 Y-9.84
X8.852 Y-10.084
X8.936 Y-10.331
X9.063 Y-10.623
X9.216 Y-10.912
X9.422 Y-11.234
X9.69 Y-11.587
X9.995 Y-11.927
X10.396 Y-12.308
X10.89 Y-12.708
X11.442 Y-13.085
X12.069 Y-13.443
X12.722 Y-13.751
X13.395 Y-14.012
X14.084 Y-14.229
X14.784 Y-14.404
X15.493 Y-14.54
X16.209 Y-14.636
X16.929 Y-14.692
X17.17 Y-14.697
X17.357 Y-14.676
X17.531 Y-14.606
X17.68 Y-14.492
X18.863 Y-13.308
G3 X18.849 Y-12.885 Z-2.3 I-0.219 J0.205
G1 X18.812 Y-12.855
X18.771 Y-12.832
X18.608 Y-12.756
X9.595 Y-8.547
X9.347 Y-8.431
X9.314 Y-8.416 Z-2.315
X9.252 Y-8.395 Z-2.343
X9.188 Y-8.387 Z-2.371
X9.187
G3 X8.933 Y-8.528 Z-2.5 I0. J-0.3
G1 X8.407 Y-9.439
X8.339 Y-9.572
X8.284 Y-9.712
X8.245 Y-9.857
X8.22 Y-10.004
X8.206 Y-10.169
Y-10.341
X8.222 Y-10.544
X8.256 Y-10.754
X8.316 Y-11.001
X8.4 Y-11.255
X8.525 Y-11.55
X8.677 Y-11.841
X8.888 Y-12.177
X9.156 Y-12.536
X9.477 Y-12.9
X9.889 Y-13.299
X10.391 Y-13.713
X10.95 Y-14.102
X11.574 Y-14.466
X12.224 Y-14.78
X12.893 Y-15.051
X13.578 Y-15.28
X14.274 Y-15.471
X14.98 Y-15.623
X15.693 Y-15.738
X16.027 Y-15.775
X16.234 Y-15.766
X16.43 Y-15.698
X16.598 Y-15.574
X17.68 Y-14.492
G3 X17.665 Y-14.068 Z-2.3 I-0.219 J0.205
G1 X17.635 Y-14.043
X17.601 Y-14.023
X17.429 Y-13.931
X9.062 Y-9.471
X8.821 Y-9.342
X8.803 Y-9.333 Z-2.309
G3 X8.407 Y-9.439 Z-2.5 I-0.141 J-0.265
G1 X7.872 Y-10.365
X7.804 Y-10.498
X7.749 Y-10.638
X7.71 Y-10.783
X7.684 Y-10.93
X7.67 Y-11.097
X7.669 Y-11.269
X7.685 Y-11.475
X7.719 Y-11.689
X7.779 Y-11.94
X7.863 Y-12.198
X7.99 Y-12.501
X8.145 Y-12.799
X8.363 Y-13.148
X8.635 Y-13.516
X8.967 Y-13.896
X9.391 Y-14.309
X9.903 Y-14.733
X10.487 Y-15.143
X11.11 Y-15.508
X11.757 Y-15.827
X12.424 Y-16.105
X13.106 Y-16.342
X13.799 Y-16.543
X14.502 Y-16.709
X14.953 Y-16.791
X15.177 Y-16.796
X15.392 Y-16.729
X15.574 Y-16.598
X16.598 Y-15.574
G3 X16.583 Y-15.15 Z-2.3 I-0.219 J0.205
G1 X16.53 Y-15.111
X16.351 Y-15.006
X8.522 Y-10.408
X8.286 Y-10.269
X8.279 Y-10.265 Z-2.303
G3 X7.872 Y-10.365 Z-2.5 I-0.152 J-0.259
G1 X7.512 Y-10.989
X7.403 Y-11.153
X7.38 Y-11.185
X7.295 Y-11.308
X7.23 Y-11.443
X7.18 Y-11.585
X7.146 Y-11.731
X7.124 Y-11.879
X7.112 Y-12.055
X7.115 Y-12.237
X7.136 Y-12.455
X7.176 Y-12.679
X7.246 Y-12.947
X7.34 Y-13.215
X7.48 Y-13.533
X7.654 Y-13.852
X7.89 Y-14.214
X8.201 Y-14.617
X8.552 Y-15.004
X9.008 Y-15.43
X9.554 Y-15.864
X10.154 Y-16.267
X10.781 Y-16.624
X11.431 Y-16.939
X12.098 Y-17.216
X12.779 Y-17.455
X13.472 Y-17.658
X13.942 Y-17.768
X13.992 Y-17.776
X14.21 Y-17.775
X14.417 Y-17.707
X14.593 Y-17.579
X15.574 Y-16.598
G3 X15.559 Y-16.174 Z-2.3 I-0.219 J0.205
G1 X15.517 Y-16.141
X15.332 Y-16.022
X8.035 Y-11.304
X7.806 Y-11.156
X7.768 Y-11.131 Z-2.319
G3 X7.38 Y-11.185 Z-2.5 I-0.163 J-0.252
G1 X7.272 Y-11.317
X7.216 Y-11.378
X7.117 Y-11.481
X7.052 Y-11.534
X6.937 Y-11.622
X6.823 Y-11.719
X6.726 Y-11.834
X6.647 Y-11.962
X6.584 Y-12.097
X6.533 Y-12.239
X6.495 Y-12.39
X6.468 Y-12.549
X6.451 Y-12.74
X6.45 Y-12.938
X6.467 Y-13.17
X6.504 Y-13.411
X6.57 Y-13.688
X6.667 Y-13.986
X6.801 Y-14.309
X6.989 Y-14.674
X7.212 Y-15.033
X7.508 Y-15.435
X7.894 Y-15.878
X8.339 Y-16.314
X8.869 Y-16.755
X9.46 Y-17.171
X10.078 Y-17.544
X10.719 Y-17.876
X11.378 Y-18.17
X12.052 Y-18.429
X12.698 Y-18.641
X12.988 Y-18.71
X13.165 Y-18.73
X13.342 Y-18.704
X13.506 Y-18.634
X13.647 Y-18.525
X14.593 Y-17.579
G3 X14.578 Y-17.155 Z-2.3 I-0.219 J0.205
G1 X14.554 Y-17.135
X14.361 Y-16.989
X7.583 Y-11.848
X7.365 Y-11.683
X7.292 Y-11.628 Z-2.339
G3 X6.937 Y-11.622 Z-2.5 I-0.181 J-0.239
G1 X6.888 Y-11.659
X6.724 Y-11.757
X6.618 Y-11.809
X6.56 Y-11.833
X6.47 Y-11.869
X6.333 Y-11.93
X6.211 Y-12.017
X6.104 Y-12.122
X6.011 Y-12.24
X5.931 Y-12.367
X5.864 Y-12.501
X5.809 Y-12.641
X5.759 Y-12.804
X5.72 Y-12.983
X5.693 Y-13.183
X5.68 Y-13.409
X5.686 Y-13.647
X5.716 Y-13.928
X5.769 Y-14.212
X5.856 Y-14.532
X5.985 Y-14.888
X6.146 Y-15.243
X6.374 Y-15.652
X6.669 Y-16.096
X7.007 Y-16.525
X7.434 Y-16.984
X7.957 Y-17.464
X8.526 Y-17.908
X9.126 Y-18.31
X9.75 Y-18.672
X10.395 Y-18.998
X11.055 Y-19.29
X11.661 Y-19.52
X12.012 Y-19.622
X12.088 Y-19.638
X12.26 Y-19.652
X12.43 Y-19.623
X12.588 Y-19.553
X12.724 Y-19.447
X13.647 Y-18.525
G3 X13.632 Y-18.101 Z-2.3 I-0.219 J0.205
G1 X13.628 Y-18.097
X13.429 Y-17.918
X7.085 Y-12.213
X6.881 Y-12.029
X6.769 Y-11.929 Z-2.364
G3 X6.47 Y-11.869 Z-2.5 I-0.201 J-0.223
G1 X6.396 Y-11.897
X6.232 Y-11.945
X6.068 Y-11.976
X5.978 Y-11.984
X5.83 Y-12.004
X5.69 Y-12.06
X5.562 Y-12.137
X5.445 Y-12.231
X5.339 Y-12.338
X5.245 Y-12.455
X5.162 Y-12.58
X5.087 Y-12.715
X5.013 Y-12.879
X4.951 Y-13.052
X4.896 Y-13.254
X4.855 Y-13.476
X4.83 Y-13.716
X4.823 Y-13.996
X4.839 Y-14.284
X4.883 Y-14.602
X4.963 Y-14.964
X5.075 Y-15.328
X5.237 Y-15.735
X5.454 Y-16.176
X5.732 Y-16.64
X6.057 Y-17.096
X6.477 Y-17.596
X6.984 Y-18.109
X7.531 Y-18.58
X8.111 Y-19.011
X8.716 Y-19.405
X9.343 Y-19.763
X9.988 Y-20.087
X10.62 Y-20.364
X10.902 Y-20.462
X10.976 Y-20.483
X11.053 Y-20.496
X11.13 Y-20.5
X11.481
X11.563 Y-20.498
X11.604 Y-20.493
X11.645 Y-20.483 F400.
X11.686 Y-20.465 F500.
X11.727 Y-20.44
X11.809 Y-20.363
X12.724 Y-19.447
G3 Y-19.038 Z-2.309 I-0.219 J0.205
G1 X12.71 Y-19.023 Z-2.3
X12.523 Y-18.823
X6.543 Y-12.431
X6.356 Y-12.232
X6.213 Y-12.078 Z-2.389
G3 X5.978 Y-11.984 Z-2.5 I-0.219 J-0.205
G1 X5.904 Y-11.99
X5.74 Y-11.999
X5.412 Y-12.
X5.262 Y-12.007
X5.116 Y-12.038
X4.976 Y-12.092
X4.844 Y-12.164
X4.722 Y-12.251
X4.609 Y-12.35
X4.506 Y-12.458
X4.404 Y-12.585
X4.311 Y-12.723
X4.217 Y-12.889
X4.131 Y-13.073
X4.056 Y-13.277
X3.99 Y-13.514
X3.941 Y-13.763
X3.909 Y-14.047
X3.898 Y-14.367
X3.914 Y-14.695
X3.961 Y-15.06
X4.048 Y-15.471
X4.175 Y-15.899
X4.347 Y-16.344
X4.578 Y-16.824
X4.882 Y-17.342
X5.263 Y-17.888
X5.697 Y-18.413
X6.2 Y-18.931
X6.74 Y-19.409
X7.311 Y-19.851
X7.908 Y-20.258
X8.141 Y-20.399
X8.255 Y-20.455
X8.377 Y-20.489
X8.503 Y-20.5
X11.13
G3 X11.42 Y-20.19 Z-2.3 I-0.01 J0.3
G1 X11.412 Y-20.131
X11.393 Y-20.075
X11.363 Y-20.024
X11.307 Y-19.947
X5.922 Y-12.506
X5.761 Y-12.284
X5.645 Y-12.124 Z-2.384
G3 X5.412 Y-12. Z-2.5 I-0.243 J-0.176
G1 X4.625
X4.476 Y-12.007
X4.329 Y-12.04
X4.189 Y-12.093
X4.056 Y-12.162
X3.93 Y-12.244
X3.813 Y-12.338
X3.702 Y-12.443
X3.585 Y-12.573
X3.476 Y-12.716
X3.366 Y-12.887
X3.262 Y-13.082
X3.168 Y-13.296
X3.082 Y-13.546
X3.013 Y-13.817
X2.962 Y-14.114
X2.931 Y-14.456
X2.928 Y-14.824
X2.955 Y-15.211
X3.021 Y-15.642
X3.132 Y-16.114
X3.291 Y-16.607
X3.501 Y-17.114
X3.785 Y-17.671
X4.142 Y-18.249
X4.569 Y-18.831
X5.041 Y-19.377
X5.551 Y-19.889
X6.048 Y-20.326
X6.187 Y-20.421
X6.344 Y-20.48
X6.51 Y-20.5
X8.503
G3 X8.792 Y-20.19 Z-2.3 I-0.01 J0.3
G1 X8.784 Y-20.127
X8.762 Y-20.068
X8.697 Y-19.936
X5.07 Y-12.545
X4.949 Y-12.3
X4.884 Y-12.168 Z-2.362
G3 X4.625 Y-12. Z-2.5 I-0.269 J-0.132
G1 X3.772
X3.622 Y-12.007
X3.476 Y-12.041
X3.336 Y-12.094
X3.201 Y-12.161
X3.074 Y-12.24
X2.949 Y-12.335
X2.828 Y-12.443
X2.699 Y-12.579
X2.577 Y-12.729
X2.454 Y-12.909
X2.335 Y-13.117
X2.228 Y-13.344
X2.126 Y-13.615
X2.042 Y-13.909
X1.977 Y-14.229
X1.933 Y-14.598
X1.917 Y-15.007
X1.935 Y-15.427
X1.993 Y-15.898
X2.098 Y-16.411
X2.26 Y-16.968
X2.474 Y-17.529
X2.754 Y-18.118
X3.115 Y-18.743
X3.525 Y-19.337
X3.977 Y-19.9
X4.322 Y-20.274
X4.471 Y-20.396
X4.647 Y-20.474
X4.837 Y-20.5
X6.51
G3 X6.8 Y-20.19 Z-2.3 I-0.01 J0.3
G1 X6.795 Y-20.145
X6.783 Y-20.102
X6.723 Y-19.928
X4.171 Y-12.564
X4.081 Y-12.306
X4.045 Y-12.202 Z-2.347
G3 X3.772 Y-12. Z-2.5 I-0.283 J-0.098
G1 X2.903
X2.753 Y-12.007
X2.606 Y-12.038
X2.464 Y-12.086
X2.327 Y-12.148
X2.198 Y-12.224
X2.071 Y-12.312
X1.938 Y-12.423
X1.803 Y-12.554
X1.668 Y-12.708
X1.53 Y-12.894
X1.405 Y-13.095
X1.278 Y-13.339
X1.163 Y-13.614
X1.064 Y-13.916
X0.979 Y-14.267
X0.917 Y-14.658
X0.886 Y-15.065
X0.888 Y-15.531
X0.933 Y-16.054
X1.026 Y-16.614
X1.167 Y-17.176
X1.372 Y-17.783
X1.652 Y-18.436
X1.99 Y-19.074
X2.374 Y-19.686
X2.774 Y-20.234
X2.793 Y-20.256
X2.944 Y-20.388
X3.126 Y-20.471
X3.324 Y-20.5
X4.837
G3 X5.126 Y-20.19 Z-2.3 I-0.01 J0.3
G1 X5.118 Y-20.129
X5.068 Y-19.923
X3.268 Y-12.574
X3.203 Y-12.308
X3.183 Y-12.228 Z-2.335
G3 X2.903 Y-12. Z-2.5 I-0.291 J-0.071
G1 X1.968
X1.818 Y-12.007
X1.671 Y-12.038
X1.529 Y-12.085
X1.392 Y-12.147
X1.262 Y-12.221
X1.127 Y-12.313
X0.988 Y-12.425
X0.843 Y-12.562
X0.702 Y-12.718
X0.553 Y-12.914
X0.417 Y-13.126
X0.279 Y-13.382
X0.151 Y-13.677
X0.043 Y-13.992
X-0.053 Y-14.365
X-0.126 Y-14.792
X-0.166 Y-15.235
X-0.171 Y-15.742
X-0.132 Y-16.299
X-0.039 Y-16.905
X0.111 Y-17.543
X0.32 Y-18.191
X0.596 Y-18.858
X0.922 Y-19.502
X1.256 Y-20.064
X1.357 Y-20.205
X1.512 Y-20.363
X1.709 Y-20.465
X1.928 Y-20.5
X3.324
G3 X3.613 Y-20.19 Z-2.3 I-0.01 J0.3
G1 X3.609 Y-20.149
X3.569 Y-19.92
X2.31 Y-12.579
X2.264 Y-12.309
X2.253 Y-12.249 Z-2.326
G3 X1.968 Y-12. Z-2.5 I-0.296 J-0.051
G1 X1.058
X0.908 Y-12.007
X0.76 Y-12.031
X0.616 Y-12.072
X0.476 Y-12.128
X0.341 Y-12.197
X0.209 Y-12.279
X0.06 Y-12.389
X-0.083 Y-12.514
X-0.238 Y-12.672
X-0.386 Y-12.85
X-0.538 Y-13.066
X-0.687 Y-13.319
X-0.825 Y-13.602
X-0.956 Y-13.939
X-1.069 Y-14.312
X-1.157 Y-14.723
X-1.22 Y-15.203
X-1.248 Y-15.748
X-1.231 Y-16.309
X-1.164 Y-16.925
X-1.035 Y-17.593
X-0.842 Y-18.289
X-0.596 Y-18.967
X-0.302 Y-19.626
X-0.085 Y-20.031
X0.009 Y-20.179
X0.121 Y-20.312
X0.263 Y-20.414
X0.425 Y-20.478
X0.598 Y-20.5
X1.928
G3 X2.217 Y-20.19 Z-2.3 I-0.01 J0.3
G1 X2.215 Y-20.167
X2.188 Y-19.918
X1.38 Y-12.582
X1.35 Y-12.31
X1.346 Y-12.267 Z-2.318
G3 X1.058 Y-12. Z-2.5 I-0.298 J-0.033
G1 X0.074
X-0.076 Y-12.007
X-0.224 Y-12.03
X-0.369 Y-12.071
X-0.508 Y-12.126
X-0.642 Y-12.194
X-0.784 Y-12.279
X-0.931 Y-12.386
X-1.086 Y-12.518
X-1.242 Y-12.675
X-1.406 Y-12.868
X-1.56 Y-13.082
X-1.72 Y-13.349
X-1.866 Y-13.641
X-2.004 Y-13.984
X-2.133 Y-14.398
X-2.23 Y-14.833
X-2.301 Y-15.327
X-2.335 Y-15.893
X-2.322 Y-16.525
X-2.255 Y-17.194
X-2.128 Y-17.89
X-1.942 Y-18.587
X-1.706 Y-19.269
X-1.489 Y-19.781
X-1.323 Y-20.098
X-1.275 Y-20.173
X-1.164 Y-20.309
X-1.021 Y-20.413
X-0.858 Y-20.478
X-0.683 Y-20.5
X0.598
G3 X0.888 Y-20.19 Z-2.3 I-0.01 J0.3
G1 X0.887 Y-20.18
X0.87 Y-19.917
X0.383 Y-12.583
X0.365 Y-12.31
X0.363 Y-12.28 Z-2.313
G3 X0.074 Y-12. Z-2.5 I-0.299 J-0.02
G1 X-0.984
X-1.134 Y-12.007
X-1.281 Y-12.037
X-1.424 Y-12.083
X-1.562 Y-12.142
X-1.7 Y-12.216
X-1.851 Y-12.312
X-2.002 Y-12.427
X-2.167 Y-12.574
X-2.326 Y-12.741
X-2.5 Y-12.956
X-2.661 Y-13.19
X-2.827 Y-13.48
X-2.983 Y-13.811
X-3.121 Y-14.179
X-3.248 Y-14.624
X-3.35 Y-15.129
X-3.414 Y-15.664
X-3.438 Y-16.284
X-3.409 Y-16.97
X-3.321 Y-17.686
X-3.177 Y-18.394
X-2.983 Y-19.09
X-2.782 Y-19.648
X-2.629 Y-19.984
X-2.542 Y-20.14
X-2.432 Y-20.289
X-2.286 Y-20.403
X-2.114 Y-20.475
X-1.93 Y-20.5
X-0.683
G3 X-0.394 Y-20.19 Z-2.3 I-0.01 J0.3
G1 Y-20.189
X-0.404 Y-19.916
X-0.683 Y-12.584
X-0.694 Y-12.31
X-0.695 Y-12.288 Z-2.309
G3 X-0.984 Y-12. Z-2.5 I-0.3 J-0.011
G1 X-1.968
X-2.118 Y-12.007
X-2.266 Y-12.032
X-2.41 Y-12.073
X-2.55 Y-12.127
X-2.692 Y-12.197
X-2.84 Y-12.286
X-2.997 Y-12.399
X-3.16 Y-12.536
X-3.33 Y-12.705
X-3.498 Y-12.9
X-3.677 Y-13.147
X-3.841 Y-13.415
X-4.012 Y-13.753
X-4.167 Y-14.133
X-4.302 Y-14.555
X-4.419 Y-15.064
X-4.506 Y-15.652
X-4.547 Y-16.259
X-4.537 Y-16.951
X-4.469 Y-17.67
X-4.348 Y-18.382
X-4.178 Y-19.083
X-4.012 Y-19.592
X-3.871 Y-19.931
X-3.754 Y-20.158
X-3.748 Y-20.169
X-3.636 Y-20.307
X-3.493 Y-20.412
X-3.329 Y-20.478
X-3.153 Y-20.5
X-1.93
G3 X-1.641 Y-20.199 Z-2.304 I-0.01 J0.3
G1 Y-20.19 Z-2.3
X-1.642 Y-19.916
X-1.677 Y-12.584
X-1.679 Y-12.31
Y-12.298 Z-2.305
G3 X-1.968 Y-12. Z-2.5 I-0.3 J-0.001
G1 X-3.042
X-3.192 Y-12.007
X-3.339 Y-12.036
X-3.483 Y-12.08
X-3.621 Y-12.138
X-3.77 Y-12.214
X-3.919 Y-12.307
X-4.087 Y-12.43
X-4.251 Y-12.573
X-4.43 Y-12.756
X-4.605 Y-12.965
X-4.783 Y-13.218
X-4.965 Y-13.525
X-5.129 Y-13.863
X-5.295 Y-14.287
X-5.439 Y-14.764
X-5.55 Y-15.279
X-5.631 Y-15.891
X-5.667 Y-16.581
X-5.646 Y-17.302
X-5.571 Y-18.02
X-5.446 Y-18.732
X-5.289 Y-19.346
X-5.155 Y-19.735
X-5.031 Y-20.018
X-4.971 Y-20.131
X-4.86 Y-20.283
X-4.713 Y-20.401
X-4.54 Y-20.475
X-4.354 Y-20.5
X-3.153
G3 X-2.863 Y-20.204 Z-2.306 I-0.01 J0.3
G1 Y-20.19 Z-2.3
X-2.859 Y-19.916
X-2.757 Y-12.584
X-2.753 Y-12.31
Y-12.304 Z-2.303
G3 X-3.042 Y-12. Z-2.5 I-0.3 J0.004
G1 X-4.1
X-4.25 Y-12.007
X-4.397 Y-12.036
X-4.54 Y-12.081
X-4.679 Y-12.138
X-4.829 Y-12.214
X-4.985 Y-12.31
X-5.152 Y-12.433
X-5.321 Y-12.58
X-5.503 Y-12.764
X-5.683 Y-12.98
X-5.876 Y-13.252
X-6.051 Y-13.548
X-6.231 Y-13.915
X-6.4 Y-14.343
X-6.543 Y-14.813
X-6.667 Y-15.386
X-6.756 Y-16.042
X-6.795 Y-16.759
X-6.775 Y-17.48
X-6.703 Y-18.199
X-6.583 Y-18.89
X-6.443 Y-19.433
X-6.321 Y-19.785
X-6.213 Y-20.031
X-6.159 Y-20.132
X-6.049 Y-20.284
X-5.902 Y-20.401
X-5.729 Y-20.475
X-5.543 Y-20.5
X-4.354
G3 X-4.064 Y-20.21 Z-2.308 I-0.01 J0.3
G1 Y-20.19 Z-2.3
X-4.055 Y-19.916
X-3.82 Y-12.584
X-3.811 Y-12.31
Y-12.309
G3 X-4.1 Y-12. Z-2.5 I-0.3 J0.01
G1 X-5.174
X-5.324 Y-12.007
X-5.471 Y-12.037
X-5.614 Y-12.082
X-5.754 Y-12.14
X-5.904 Y-12.217
X-6.063 Y-12.315
X-6.231 Y-12.438
X-6.408 Y-12.592
X-6.591 Y-12.778
X-6.777 Y-13.001
X-6.973 Y-13.276
X-7.152 Y-13.578
X-7.341 Y-13.966
X-7.512 Y-14.398
X-7.665 Y-14.902
X-7.797 Y-15.509
X-7.888 Y-16.188
X-7.927 Y-16.909
X-7.91 Y-17.631
X-7.839 Y-18.349
X-7.73 Y-18.983
X-7.602 Y-19.477
X-7.488 Y-19.81
X-7.385 Y-20.043
X-7.338 Y-20.131
X-7.228 Y-20.283
X-7.081 Y-20.401
X-6.908 Y-20.475
X-6.722 Y-20.5
X-5.543
G3 X-5.253 Y-20.214 Z-2.31 I-0.01 J0.3
G1 X-5.252 Y-20.19 Z-2.3
X-5.24 Y-19.917
X-4.898 Y-12.583
X-4.885 Y-12.314
Y-12.31
G3 X-5.174 Y-12. Z-2.5 I-0.3 J0.01
G1 X-5.576
X-5.74 Y-11.999
X-5.904 Y-11.99
X-6.068 Y-11.976
X-6.218 Y-11.963
X-6.367 Y-11.974
X-6.514 Y-12.003
X-6.658 Y-12.047
X-6.806 Y-12.107
X-6.954 Y-12.181
X-7.122 Y-12.283
X-7.288 Y-12.402
X-7.476 Y-12.562
X-7.656 Y-12.743
X-7.854 Y-12.976
X-8.046 Y-13.242
X-8.24 Y-13.563
X-8.44 Y-13.963
X-8.612 Y-14.39
X-8.779 Y-14.926
X-8.921 Y-15.552
X-9.019 Y-16.233
X-9.063 Y-16.954
X-9.051 Y-17.676
X-8.987 Y-18.395
X-8.887 Y-19.003
X-8.768 Y-19.479
X-8.659 Y-19.804
X-8.559 Y-20.036
X-8.511 Y-20.127
X-8.401 Y-20.281
X-8.254 Y-20.399
X-8.08 Y-20.474
X-7.892 Y-20.5
X-6.722
G3 X-6.433 Y-20.223 Z-2.314 I-0.01 J0.3
G1 X-6.43 Y-20.19 Z-2.3
X-6.41 Y-19.917
X-5.854 Y-12.604
X-5.834 Y-12.331
X-5.831 Y-12.292 Z-2.317
G3 X-6.068 Y-11.976 Z-2.5 I-0.299 J0.023
G1 X-6.232 Y-11.945
X-6.396 Y-11.897
X-6.56 Y-11.833
X-6.618 Y-11.809
X-6.756 Y-11.75
X-6.903 Y-11.72
X-7.052 Y-11.712
X-7.202 Y-11.721
X-7.35 Y-11.746
X-7.496 Y-11.784
X-7.65 Y-11.838
X-7.818 Y-11.913
X-7.991 Y-12.006
X-8.181 Y-12.131
X-8.369 Y-12.276
X-8.581 Y-12.469
X-8.781 Y-12.683
X-8.996 Y-12.954
X-9.209 Y-13.271
X-9.414 Y-13.638
X-9.626 Y-14.099
X-9.812 Y-14.611
X-9.971 Y-15.186
X-10.1 Y-15.858
X-10.178 Y-16.575
X-10.202 Y-17.297
X-10.174 Y-18.018
X-10.096 Y-18.701
X-9.988 Y-19.253
X-9.884 Y-19.623
X-9.777 Y-19.913
X-9.679 Y-20.124
X-9.667 Y-20.145
X-9.556 Y-20.292
X-9.41 Y-20.405
X-9.24 Y-20.476
X-9.058 Y-20.5
X-7.892
G3 X-7.606 Y-20.242 Z-2.322 I-0.01 J0.3
G1 X-7.598 Y-20.19 Z-2.3
X-7.56 Y-19.919
X-6.514 Y-12.49
X-6.476 Y-12.219
X-6.461 Y-12.115 Z-2.344
G3 X-6.618 Y-11.809 Z-2.5 I-0.297 J0.042
G1 X-6.724 Y-11.757
X-6.888 Y-11.659
X-7.052 Y-11.534
X-7.088 Y-11.505
X-7.208 Y-11.415
X-7.345 Y-11.354
X-7.49 Y-11.314
X-7.638 Y-11.293
X-7.788 Y-11.288
X-7.938 Y-11.297
X-8.094 Y-11.321
X-8.256 Y-11.358
X-8.439 Y-11.417
X-8.621 Y-11.492
X-8.827 Y-11.596
X-9.032 Y-11.722
X-9.252 Y-11.883
X-9.485 Y-12.084
X-9.708 Y-12.311
X-9.954 Y-12.603
X-10.193 Y-12.939
X-10.422 Y-13.323
X-10.651 Y-13.788
X-10.87 Y-14.34
X-11.048 Y-14.922
X-11.196 Y-15.598
X-11.294 Y-16.313
X-11.339 Y-17.034
X-11.334 Y-17.756
X-11.277 Y-18.475
X-11.184 Y-19.061
X-11.077 Y-19.506
X-10.976 Y-19.811
X-10.88 Y-20.039
X-10.837 Y-20.122
X-10.727 Y-20.278
X-10.579 Y-20.398
X-10.404 Y-20.474
X-10.215 Y-20.5
X-9.058
G3 X-8.774 Y-20.262 Z-2.331 I-0.01 J0.3
G1 X-8.76 Y-20.191 Z-2.3
X-8.703 Y-19.923
X-7.082 Y-12.211
X-7.026 Y-11.943
X-6.994 Y-11.79 Z-2.366
G3 X-7.088 Y-11.505 Z-2.5 I-0.294 J0.062
G1 X-7.117 Y-11.481
X-7.216 Y-11.378
X-7.272 Y-11.317
X-7.38 Y-11.185
X-7.403 Y-11.153
X-7.492 Y-11.032
X-7.607 Y-10.936
X-7.736 Y-10.86
X-7.875 Y-10.802
X-8.019 Y-10.761
X-8.167 Y-10.735
X-8.316 Y-10.723
X-8.473
X-8.648 Y-10.737
X-8.828 Y-10.767
X-9.033 Y-10.818
X-9.239 Y-10.887
X-9.463 Y-10.982
X-9.703 Y-11.109
X-9.942 Y-11.26
X-10.204 Y-11.457
X-10.47 Y-11.692
X-10.729 Y-11.962
X-11.003 Y-12.298
X-11.283 Y-12.703
X-11.535 Y-13.139
X-11.78 Y-13.654
X-12.01 Y-14.257
X-12.207 Y-14.935
X-12.353 Y-15.642
X-12.445 Y-16.358
X-12.489 Y-17.079
X-12.482 Y-17.801
X-12.427 Y-18.506
X-12.335 Y-19.083
X-12.232 Y-19.507
X-12.128 Y-19.82
X-12.036 Y-20.04
X-11.992 Y-20.123
X-11.882 Y-20.278
X-11.735 Y-20.398
X-11.56 Y-20.474
X-11.371 Y-20.5
X-10.215
G3 X-9.938 Y-20.283 Z-2.34 I-0.01 J0.3
G1 X-9.912 Y-20.193 Z-2.3
X-9.836 Y-19.93
X-7.507 Y-11.868
X-7.432 Y-11.606
X-7.37 Y-11.393 Z-2.394
X-7.359 Y-11.332 Z-2.42
X-7.361 Y-11.269 Z-2.447
X-7.376 Y-11.209 Z-2.473
X-7.403 Y-11.153 Z-2.5
X-7.512 Y-10.989
X-7.708 Y-10.649
X-7.79 Y-10.523
X-7.889 Y-10.41
X-8.006 Y-10.316
X-8.134 Y-10.237
X-8.27 Y-10.174
X-8.412 Y-10.126
X-8.557 Y-10.09
X-8.717 Y-10.065
X-8.887 Y-10.052
X-9.073 Y-10.053
X-9.281 Y-10.07
X-9.491 Y-10.105
X-9.729 Y-10.165
X-9.978 Y-10.249
X-10.235 Y-10.359
X-10.513 Y-10.507
X-10.801 Y-10.69
X-11.088 Y-10.907
X-11.399 Y-11.183
X-11.716 Y-11.514
X-12.013 Y-11.88
X-12.309 Y-12.311
X-12.605 Y-12.826
X-12.889 Y-13.425
X-13.14 Y-14.091
X-13.341 Y-14.784
X-13.487 Y-15.491
X-13.584 Y-16.207
X-13.633 Y-16.927
X-13.637 Y-17.649
X-13.592 Y-18.37
X-13.51 Y-18.962
X-13.407 Y-19.429
X-13.308 Y-19.752
X-13.213 Y-19.99
X-13.154 Y-20.11
X-13.045 Y-20.27
X-12.896 Y-20.395
X-12.718 Y-20.473
X-12.526 Y-20.5
X-11.371
G3 X-11.1 Y-20.302 Z-2.349 I-0.01 J0.3
G1 X-11.061 Y-20.195 Z-2.3
X-10.968 Y-19.937
X-7.859 Y-11.356
X-7.766 Y-11.099
X-7.691 Y-10.892 Z-2.393
X-7.676 Y-10.831 Z-2.42
X-7.674 Y-10.768 Z-2.447
X-7.685 Y-10.707 Z-2.473
X-7.708 Y-10.649 Z-2.5
X-8.109 Y-9.955
X-8.19 Y-9.829
X-8.293 Y-9.72
X-8.41 Y-9.625
X-8.536 Y-9.545
X-8.671 Y-9.478
X-8.811 Y-9.424
X-8.958 Y-9.381
X-9.13 Y-9.345
X-9.312 Y-9.322
X-9.514 Y-9.312
X-9.739 Y-9.32
X-9.971 Y-9.347
X-10.232 Y-9.399
X-10.508 Y-9.477
X-10.789 Y-9.581
X-11.1 Y-9.726
X-11.428 Y-9.913
X-11.75 Y-10.132
X-12.09 Y-10.405
X-12.442 Y-10.738
X-12.798 Y-11.134
X-13.129 Y-11.567
X-13.465 Y-12.089
X-13.791 Y-12.698
X-14.08 Y-13.359
X-14.316 Y-14.041
X-14.503 Y-14.739
X-14.643 Y-15.447
X-14.737 Y-16.163
X-14.786 Y-16.883
X-14.791 Y-17.605
X-14.75 Y-18.326
X-14.671 Y-18.924
X-14.568 Y-19.402
X-14.468 Y-19.734
X-14.374 Y-19.973
X-14.31 Y-20.106
X-14.201 Y-20.268
X-14.051 Y-20.393
X-13.873 Y-20.473
X-13.68 Y-20.5
X-12.526
G3 X-12.259 Y-20.314 Z-2.354 I-0.01 J0.3
G1 X-12.211 Y-20.197 Z-2.3
X-12.106 Y-19.944
X-8.28 Y-10.655
X-8.175 Y-10.402
X-8.096 Y-10.21 Z-2.388
G3 X-8.109 Y-9.955 Z-2.5 I-0.277 J0.114
G1 X-8.528 Y-9.228
X-8.61 Y-9.102
X-8.711 Y-8.992
X-8.826 Y-8.895
X-8.951 Y-8.812
X-9.083 Y-8.741
X-9.225 Y-8.68
X-9.379 Y-8.628
X-9.561 Y-8.583
X-9.75 Y-8.551
X-9.969 Y-8.533
X-10.202 Y-8.532
X-10.456 Y-8.552
X-10.743 Y-8.598
X-11.033 Y-8.668
X-11.347 Y-8.772
X-11.691 Y-8.916
X-12.043 Y-9.099
X-12.402 Y-9.324
X-12.787 Y-9.611
X-13.182 Y-9.957
X-13.579 Y-10.366
X-13.951 Y-10.816
X-14.329 Y-11.358
X-14.694 Y-11.981
X-15.008 Y-12.631
X-15.274 Y-13.303
X-15.493 Y-13.991
X-15.669 Y-14.691
X-15.802 Y-15.401
X-15.893 Y-16.117
X-15.941 Y-16.837
X-15.948 Y-17.559
X-15.909 Y-18.28
X-15.831 Y-18.889
X-15.729 Y-19.377
X-15.629 Y-19.716
X-15.534 Y-19.96
X-15.466 Y-20.103
X-15.357 Y-20.266
X-15.207 Y-20.393
X-15.029 Y-20.473
X-14.835 Y-20.5
X-13.68
G3 X-13.417 Y-20.324 Z-2.358 I-0.01 J0.3
G1 X-13.361 Y-20.198 Z-2.3
X-13.248 Y-19.949
X-8.714 Y-9.922
X-8.601 Y-9.672
X-8.52 Y-9.493 Z-2.384
G3 X-8.528 Y-9.228 Z-2.5 I-0.273 J0.124
G1 X-8.981 Y-8.445
X-9.062 Y-8.319
X-9.164 Y-8.209
X-9.279 Y-8.112
X-9.403 Y-8.028
X-9.535 Y-7.955
X-9.683 Y-7.889
X-9.846 Y-7.831
X-10.037 Y-7.78
X-10.237 Y-7.744
X-10.471 Y-7.72
X-10.719 Y-7.715
X-10.993 Y-7.732
X-11.303 Y-7.776
X-11.616 Y-7.846
X-11.959 Y-7.953
X-12.338 Y-8.105
X-12.725 Y-8.298
X-13.123 Y-8.538
X-13.549 Y-8.845
X-13.985 Y-9.214
X-14.429 Y-9.657
X-14.848 Y-10.148
X-15.263 Y-10.72
X-15.637 Y-11.337
X-15.966 Y-11.98
X-16.25 Y-12.644
X-16.491 Y-13.325
X-16.692 Y-14.018
X-16.853 Y-14.722
X-16.975 Y-15.434
X-17.058 Y-16.151
X-17.102 Y-16.871
X-17.105 Y-17.593
X-17.063 Y-18.314
X-16.981 Y-18.928
X-16.877 Y-19.404
X-16.775 Y-19.74
X-16.683 Y-19.976
X-16.618 Y-20.108
X-16.509 Y-20.269
X-16.36 Y-20.394
X-16.182 Y-20.473
X-15.989 Y-20.5
X-14.835
G3 X-14.575 Y-20.33 Z-2.362 I-0.01 J0.3
G1 X-14.512 Y-20.2 Z-2.3
X-14.393 Y-19.953
X-9.177 Y-9.133
X-9.058 Y-8.887
X-8.976 Y-8.716 Z-2.381
G3 X-8.981 Y-8.445 Z-2.5 I-0.27 J0.13
G1 X-9.435 Y-7.659
X-9.516 Y-7.533
X-9.615 Y-7.42
X-9.727 Y-7.321
X-9.849 Y-7.233
X-9.98 Y-7.155
X-10.122 Y-7.086
X-10.293 Y-7.019
X-10.477 Y-6.964
X-10.689 Y-6.918
X-10.925 Y-6.887
X-11.179 Y-6.874
X-11.477 Y-6.883
X-11.78 Y-6.916
X-12.121 Y-6.982
X-12.5 Y-7.086
X-12.882 Y-7.226
X-13.294 Y-7.416
X-13.743 Y-7.668
X-14.22 Y-7.988
X-14.683 Y-8.356
X-15.147 Y-8.79
X-15.62 Y-9.31
X-16.061 Y-9.881
X-16.459 Y-10.484
X-16.813 Y-11.113
X-17.127 Y-11.763
X-17.401 Y-12.431
X-17.636 Y-13.114
X-17.834 Y-13.808
X-17.994 Y-14.512
X-18.117 Y-15.224
X-18.203 Y-15.941
X-18.253 Y-16.661
X-18.265 Y-17.383
X-18.234 Y-18.104
X-18.159 Y-18.781
X-18.06 Y-19.291
X-17.961 Y-19.649
X-17.862 Y-19.918
X-17.764 Y-20.131
X-17.757 Y-20.143
X-17.646 Y-20.291
X-17.5 Y-20.404
X-17.33 Y-20.476
X-17.147 Y-20.5
X-15.989
G3 X-15.732 Y-20.336 Z-2.364 I-0.01 J0.3
G1 X-15.664 Y-20.201 Z-2.3
X-15.54 Y-19.957
X-9.639 Y-8.343
X-9.515 Y-8.099
X-9.432 Y-7.936 Z-2.378
G3 X-9.435 Y-7.659 Z-2.5 I-0.267 J0.136
G1 X-9.908 Y-6.839
X-9.989 Y-6.713
X-10.087 Y-6.599
X-10.197 Y-6.497
X-10.317 Y-6.407
X-10.449 Y-6.326
X-10.593 Y-6.252
X-10.765 Y-6.181
X-10.953 Y-6.12
X-11.17 Y-6.069
X-11.413 Y-6.032
X-11.679 Y-6.013
X-11.987 Y-6.016
X-12.303 Y-6.045
X-12.659 Y-6.106
X-13.064 Y-6.21
X-13.469 Y-6.349
X-13.919 Y-6.545
X-14.403 Y-6.805
X-14.911 Y-7.131
X-15.414 Y-7.516
X-15.916 Y-7.968
X-16.412 Y-8.492
X-16.867 Y-9.053
X-17.281 Y-9.645
X-17.656 Y-10.261
X-17.993 Y-10.9
X-18.293 Y-11.556
X-18.558 Y-12.228
X-18.787 Y-12.913
X-18.981 Y-13.609
X-19.139 Y-14.313
X-19.263 Y-15.024
X-19.352 Y-15.741
X-19.406 Y-16.461
X-19.424 Y-17.182
X-19.404 Y-17.904
X-19.338 Y-18.623
X-19.244 Y-19.164
X-19.141 Y-19.569
X-19.039 Y-19.864
X-18.947 Y-20.076
X-18.918 Y-20.131
X-18.807 Y-20.283
X-18.66 Y-20.401
X-18.487 Y-20.475
X-18.301 Y-20.5
X-17.147
Z3.06
X-9.727 Y-7.902
Z-1.9
Z-2.2
Y-7.894 Z-2.267
X-9.726 Y-7.872 Z-2.33
Y-7.837 Z-2.387
X-9.725 Y-7.789 Z-2.435
Y-7.732 Z-2.47
X-9.724 Y-7.669 Z-2.492
X-9.723 Y-7.602 Z-2.5
G3 X-9.908 Y-6.839 I-1.582 J0.02
G1 X-10.405 Y-5.978
X-10.486 Y-5.852
X-10.585 Y-5.739
X-10.695 Y-5.637
X-10.815 Y-5.547
X-10.95 Y-5.463
X-11.099 Y-5.386
X-11.276 Y-5.312
X-11.471 Y-5.248
X-11.695 Y-5.195
X-11.949 Y-5.155
X-12.227 Y-5.134
X-12.552 Y-5.136
X-12.884 Y-5.164
X-13.264 Y-5.228
X-13.696 Y-5.337
X-14.13 Y-5.484
X-14.612 Y-5.691
X-15.133 Y-5.968
X-15.679 Y-6.316
X-16.231 Y-6.734
X-16.769 Y-7.215
X-17.268 Y-7.737
X-17.728 Y-8.293
X-18.151 Y-8.878
X-18.538 Y-9.488
X-18.89 Y-10.118
X-19.208 Y-10.766
X-19.492 Y-11.43
X-19.744 Y-12.107
X-19.962 Y-12.795
X-20.149 Y-13.493
X-20.302 Y-14.198
X-20.424 Y-14.91
X-20.495 Y-15.488
X-20.498 Y-15.517
X-20.499 Y-15.545
X-20.5 Y-15.574
Y-17.549
X-20.464 Y-18.27
X-20.42 Y-18.8
X-20.342 Y-19.269
X-20.259 Y-19.601
X-20.166 Y-19.88
X-20.079 Y-20.083
X-20.056 Y-20.126
X-19.945 Y-20.28
X-19.798 Y-20.399
X-19.624 Y-20.474
X-19.436 Y-20.5
G3 X-19.147 Y-20.19 Z-2.3 I-0.01 J0.3
G1 X-19.151 Y-20.154
X-19.158 Y-20.118
X-19.213 Y-19.925
X-19.912 Y-17.477
G3 X-20.19 Y-17.26 I-0.288 J-0.082
X-20.5 Y-17.549 Z-2.5 I-0.01 J-0.3
G1 Y-20.099
Y-20.173
X-20.498 Y-20.214
X-20.491 Y-20.255
X-20.478 Y-20.296 F400.
X-20.457 Y-20.337 F500.
X-20.432 Y-20.373
X-20.397 Y-20.41
X-20.367 Y-20.437
X-20.337 Y-20.457
X-20.296 Y-20.478
X-20.255 Y-20.491 F400.
X-20.214 Y-20.498 F500.
X-20.173 Y-20.5
X-18.301
Z3.06
X-10.224 Y-7.041
Z-1.9
Z-2.2
Y-7.034 Z-2.267
X-10.223 Y-7.012 Z-2.33
Y-6.976 Z-2.387
X-10.222 Y-6.928 Z-2.435
X-10.221 Y-6.872 Z-2.47
Y-6.808 Z-2.492
X-10.22 Y-6.741 Z-2.5
G3 X-10.405 Y-5.978 I-1.582 J0.02
G1 X-10.902 Y-5.117
X-10.983 Y-4.991
X-11.08 Y-4.877
X-11.189 Y-4.774
X-11.308 Y-4.682
X-11.444 Y-4.594
X-11.592 Y-4.515
X-11.774 Y-4.436
X-11.966 Y-4.37
X-12.201 Y-4.31
X-12.448 Y-4.268
X-12.745 Y-4.241
X-13.066 Y-4.238
X-13.416 Y-4.263
X-13.824 Y-4.325
X-14.249 Y-4.426
X-14.714 Y-4.576
X-15.238 Y-4.793
X-15.803 Y-5.082
X-16.359 Y-5.425
X-16.931 Y-5.845
X-17.477 Y-6.318
X-17.986 Y-6.83
X-18.461 Y-7.374
X-18.902 Y-7.946
X-19.309 Y-8.542
X-19.683 Y-9.159
X-20.026 Y-9.795
X-20.337 Y-10.446
X-20.445 Y-10.704
X-20.475 Y-10.792
X-20.494 Y-10.883
X-20.5 Y-10.975
Y-15.574
G3 X-20.19 Y-15.863 Z-2.3 I0.3 J0.01
G1 X-20.129 Y-15.855
X-20.072 Y-15.834
X-20.019 Y-15.803
X-19.975 Y-15.761
X-19.956 Y-15.739
X-11.193 Y-5.743
X-11.013 Y-5.538
X-10.941 Y-5.456 Z-2.346
G3 X-10.902 Y-5.117 Z-2.5 I-0.226 J0.198
G1 X-11.394 Y-4.264
X-11.476 Y-4.138
X-11.569 Y-4.02
X-11.674 Y-3.914
X-11.79 Y-3.818
X-11.92 Y-3.729
X-12.065 Y-3.646
X-12.239 Y-3.564
X-12.431 Y-3.492
X-12.661 Y-3.426
X-12.909 Y-3.376
X-13.207 Y-3.34
X-13.515 Y-3.329
X-13.878 Y-3.344
X-14.285 Y-3.394
X-14.713 Y-3.482
X-15.214 Y-3.628
X-15.762 Y-3.836
X-16.306 Y-4.094
X-16.888 Y-4.431
X-17.482 Y-4.841
X-18.043 Y-5.296
X-18.571 Y-5.788
X-19.066 Y-6.313
X-19.53 Y-6.867
X-19.963 Y-7.444
X-20.365 Y-8.044
X-20.4 Y-8.102
X-20.455 Y-8.215
X-20.489 Y-8.337
X-20.5 Y-8.462
Y-10.975
G3 X-20.19 Y-11.265 Z-2.3 I0.3 J0.01
G1 X-20.129 Y-11.256
X-20.07 Y-11.235
X-20.017 Y-11.203
X-19.948 Y-11.15
X-11.733 Y-4.84
X-11.516 Y-4.673
X-11.477 Y-4.643 Z-2.321
G3 X-11.394 Y-4.264 Z-2.5 I-0.183 J0.238
G1 X-11.92 Y-3.354
X-12.001 Y-3.228
X-12.095 Y-3.111
X-12.202 Y-3.005
X-12.318 Y-2.91
X-12.45 Y-2.819
X-12.598 Y-2.735
X-12.779 Y-2.65
X-12.975 Y-2.577
X-13.213 Y-2.509
X-13.469 Y-2.458
X-13.767 Y-2.422
X-14.106 Y-2.41
X-14.473 Y-2.426
X-14.914 Y-2.481
X-15.372 Y-2.575
X-15.87 Y-2.721
X-16.431 Y-2.935
X-17.038 Y-3.225
X-17.662 Y-3.587
X-18.256 Y-3.998
X-18.818 Y-4.451
X-19.349 Y-4.94
X-19.85 Y-5.46
X-20.322 Y-6.006
X-20.353 Y-6.046
X-20.433 Y-6.177
X-20.483 Y-6.323
X-20.5 Y-6.476
Y-8.462
G3 X-20.19 Y-8.752 Z-2.3 I0.3 J0.01
G1 X-20.138 Y-8.745
X-20.089 Y-8.73
X-20.042 Y-8.707
X-19.942 Y-8.645
X-12.276 Y-3.904
X-12.044 Y-3.76
X-12.027 Y-3.75 Z-2.308
G3 X-11.92 Y-3.354 Z-2.5 I-0.158 J0.255
G1 X-12.436 Y-2.46
X-12.517 Y-2.334
X-12.609 Y-2.215
X-12.714 Y-2.108
X-12.828 Y-2.011
X-12.961 Y-1.917
X-13.106 Y-1.831
X-13.286 Y-1.743
X-13.48 Y-1.667
X-13.719 Y-1.595
X-13.975 Y-1.54
X-14.289 Y-1.498
X-14.612 Y-1.481
X-14.998 Y-1.492
X-15.43 Y-1.539
X-15.887 Y-1.626
X-16.426 Y-1.775
X-17.024 Y-1.993
X-17.619 Y-2.266
X-18.249 Y-2.618
X-18.849 Y-3.019
X-19.421 Y-3.461
X-19.963 Y-3.937
X-20.291 Y-4.258
X-20.404 Y-4.404
X-20.476 Y-4.574
X-20.5 Y-4.758
Y-6.476
G3 X-20.19 Y-6.765 Z-2.3 I0.3 J0.01
G1 X-20.125 Y-6.755
X-20.063 Y-6.732
X-19.937 Y-6.667
X-12.803 Y-2.991
X-12.564 Y-2.868
X-12.56 Y-2.866
G3 X-12.436 Y-2.46 Z-2.5 I-0.141 J0.265
G1 X-13.004 Y-1.476
X-13.086 Y-1.35
X-13.184 Y-1.237
X-13.294 Y-1.135
X-13.414 Y-1.042
X-13.554 Y-0.95
X-13.716 Y-0.862
X-13.909 Y-0.776
X-14.124 Y-0.7
X-14.378 Y-0.633
X-14.664 Y-0.581
X-14.982 Y-0.55
X-15.366 Y-0.543
X-15.759 Y-0.568
X-16.241 Y-0.638
X-16.775 Y-0.759
X-17.313 Y-0.928
X-17.927 Y-1.176
X-18.573 Y-1.5
X-19.191 Y-1.873
X-19.782 Y-2.287
X-20.236 Y-2.649
X-20.378 Y-2.802
X-20.469 Y-2.99
X-20.5 Y-3.196
Y-4.758
G3 X-20.19 Y-5.047 Z-2.3 I0.3 J0.01
G1 X-20.132 Y-5.039
X-20.077 Y-5.021
X-19.934 Y-4.956
X-13.377 Y-1.995
X-13.146 Y-1.89
X-13.128 Y-1.882
G3 X-13.004 Y-1.476 Z-2.5 I-0.141 J0.265
G1 X-13.121 Y-1.274
X-13.189 Y-1.148
X-13.358 Y-0.82
X-13.433 Y-0.656
X-13.495 Y-0.52
X-13.583 Y-0.398
X-13.685 Y-0.288
X-13.796 Y-0.188
X-13.923 Y-0.092
X-14.07 Y0.002
X-14.248 Y0.096
X-14.446 Y0.181
X-14.679 Y0.26
X-14.941 Y0.326
X-15.245 Y0.376
X-15.597 Y0.406
X-15.978 Y0.408
X-16.429 Y0.374
X-16.915 Y0.297
X-17.443 Y0.17
X-18.051 Y-0.029
X-18.707 Y-0.304
X-19.348 Y-0.636
X-19.964 Y-1.013
X-20.208 Y-1.188
X-20.365 Y-1.343
X-20.465 Y-1.539
X-20.5 Y-1.757
Y-3.196
G3 X-20.19 Y-3.486 Z-2.3 I0.3 J0.01
G1 X-20.141 Y-3.48
X-20.094 Y-3.467
X-19.93 Y-3.404
X-13.898 Y-1.123
X-13.642 Y-1.026
X-13.616 Y-1.016 Z-2.312
G3 X-13.433 Y-0.656 Z-2.5 I-0.106 J0.281
G1 X-13.484 Y-0.492
X-13.516 Y-0.328
X-13.537 Y-0.164
X-13.54 Y-0.114
X-13.556 Y0.035
X-13.606 Y0.176
X-13.675 Y0.309
X-13.759 Y0.434
X-13.855 Y0.549
X-13.961 Y0.655
X-14.091 Y0.766
X-14.236 Y0.871
X-14.415 Y0.979
X-14.612 Y1.078
X-14.845 Y1.172
X-15.111 Y1.256
X-15.409 Y1.324
X-15.766 Y1.375
X-16.134 Y1.398
X-16.568 Y1.391
X-17.075 Y1.341
X-17.587 Y1.249
X-18.184 Y1.091
X-18.842 Y0.86
X-19.502 Y0.566
X-19.984 Y0.306
X-20.18 Y0.18
X-20.313 Y0.068
X-20.415 Y-0.073
X-20.478 Y-0.235
X-20.5 Y-0.408
Y-1.757
G3 X-20.19 Y-2.046 Z-2.3 I0.3 J0.01
G1 X-20.126 Y-2.037
X-19.924 Y-1.985
X-14.096 Y-0.497
X-13.831 Y-0.429
X-13.765 Y-0.412 Z-2.329
G3 X-13.54 Y-0.114 Z-2.5 I-0.074 J0.291
G1 X-13.546 Y0.
X-13.537 Y0.164
X-13.516 Y0.328
X-13.506 Y0.378
X-13.485 Y0.526
X-13.491 Y0.676
X-13.522 Y0.823
X-13.571 Y0.965
X-13.636 Y1.1
X-13.714 Y1.227
X-13.804 Y1.348
X-13.915 Y1.475
X-14.042 Y1.598
X-14.196 Y1.725
X-14.373 Y1.849
X-14.579 Y1.97
X-14.823 Y2.088
X-15.082 Y2.188
X-15.395 Y2.281
X-15.744 Y2.355
X-16.13 Y2.404
X-16.575 Y2.426
X-17.074 Y2.409
X-17.591 Y2.351
X-18.195 Y2.232
X-18.859 Y2.046
X-19.5 Y1.809
X-19.927 Y1.61
X-20.185 Y1.465
X-20.192 Y1.46
X-20.357 Y1.304
X-20.463 Y1.104
X-20.5 Y0.88
Y-0.408
G3 X-20.19 Y-0.697 Z-2.3 I0.3 J0.01
G1 X-20.161 Y-0.695
X-19.918 Y-0.663
X-14.137 Y0.098
X-13.866 Y0.134
X-13.759 Y0.148 Z-2.346
G3 X-13.506 Y0.378 Z-2.5 I-0.039 J0.297
G1 X-13.484 Y0.492
X-13.433 Y0.656
X-13.358 Y0.82
X-13.336 Y0.863
X-13.274 Y1.
X-13.248 Y1.148
X-13.247 Y1.298
X-13.266 Y1.446
X-13.301 Y1.592
X-13.352 Y1.733
X-13.415 Y1.869
X-13.491 Y2.003
X-13.59 Y2.15
X-13.706 Y2.295
X-13.846 Y2.442
X-14.016 Y2.596
X-14.203 Y2.739
X-14.431 Y2.886
X-14.688 Y3.025
X-14.973 Y3.149
X-15.312 Y3.266
X-15.687 Y3.363
X-16.096 Y3.434
X-16.564 Y3.477
X-17.1 Y3.483
X-17.653 Y3.444
X-18.271 Y3.351
X-18.936 Y3.195
X-19.528 Y3.005
X-19.864 Y2.867
X-20.143 Y2.725
X-20.167 Y2.711
X-20.305 Y2.599
X-20.411 Y2.456
X-20.477 Y2.291
X-20.5 Y2.114
Y0.88
G3 X-20.195 Y0.591 Z-2.302 I0.3 J0.01
G1 X-20.19 Z-2.3
X-19.916 Y0.596
X-14.024 Y0.702
X-13.751 Y0.707
X-13.592 Y0.71 Z-2.367
G3 X-13.336 Y0.863 Z-2.5 I-0.005 J0.3
G1 X-13.189 Y1.148
X-13.121 Y1.274
X-13.047 Y1.402
X-12.978 Y1.536
X-12.933 Y1.679
X-12.911 Y1.827
X-12.909 Y1.977
X-12.923 Y2.126
X-12.953 Y2.274
X-12.995 Y2.417
X-13.053 Y2.567
X-13.129 Y2.725
X-13.223 Y2.885
X-13.345 Y3.059
X-13.484 Y3.227
X-13.653 Y3.4
X-13.857 Y3.579
X-14.081 Y3.745
X-14.35 Y3.914
X-14.663 Y4.076
X-14.995 Y4.215
X-15.382 Y4.342
X-15.834 Y4.451
X-16.325 Y4.529
X-16.84 Y4.568
X-17.426 Y4.566
X-18.077 Y4.511
X-18.742 Y4.4
X-19.32 Y4.255
X-19.715 Y4.122
X-20.003 Y3.998
X-20.127 Y3.933
X-20.281 Y3.822
X-20.4 Y3.675
X-20.474 Y3.501
X-20.5 Y3.314
Y2.114
G3 X-20.225 Y1.826 Z-2.315 I0.3 J0.01
G1 X-20.19 Y1.823 Z-2.3
X-19.917 Y1.801
X-13.741 Y1.296
X-13.468 Y1.274
X-13.326 Y1.262 Z-2.361
G3 X-13.047 Y1.402 Z-2.5 I0.024 J0.299
G1 X-12.67 Y2.055
X-12.601 Y2.189
X-12.552 Y2.33
X-12.523 Y2.477
X-12.512 Y2.627
X-12.517 Y2.777
X-12.537 Y2.926
X-12.569 Y3.076
X-12.619 Y3.24
X-12.685 Y3.406
X-12.775 Y3.59
X-12.883 Y3.772
X-13.019 Y3.964
X-13.189 Y4.166
X-13.379 Y4.36
X-13.61 Y4.559
X-13.885 Y4.761
X-14.181 Y4.943
X-14.533 Y5.123
X-14.942 Y5.292
X-15.395 Y5.438
X-15.871 Y5.549
X-16.416 Y5.632
X-17.031 Y5.675
X-17.698 Y5.668
X-18.369 Y5.608
X-18.977 Y5.503
X-19.471 Y5.376
X-19.807 Y5.26
X-20.041 Y5.158
X-20.131 Y5.11
X-20.283 Y4.999
X-20.401 Y4.852
X-20.475 Y4.679
X-20.5 Y4.493
Y3.314
G3 X-20.245 Y3.028 Z-2.324 I0.3 J0.01
G1 X-20.19 Y3.019 Z-2.3
X-19.92 Y2.978
X-13.361 Y1.977
X-13.09 Y1.936
X-12.969 Y1.918 Z-2.352
G3 X-12.67 Y2.055 Z-2.5 I0.045 J0.297
G1 X-12.247 Y2.788
X-12.178 Y2.922
X-12.128 Y3.063
X-12.098 Y3.21
X-12.084 Y3.359
X-12.085 Y3.509
X-12.101 Y3.663
X-12.129 Y3.819
X-12.176 Y3.995
X-12.239 Y4.174
X-12.326 Y4.368
X-12.438 Y4.574
X-12.574 Y4.781
X-12.746 Y5.002
X-12.948 Y5.223
X-13.183 Y5.441
X-13.472 Y5.669
X-13.803 Y5.89
X-14.166 Y6.092
X-14.586 Y6.284
X-15.068 Y6.458
X-15.615 Y6.608
X-16.186 Y6.715
X-16.825 Y6.783
X-17.517 Y6.801
X-18.215 Y6.763
X-18.859 Y6.676
X-19.357 Y6.567
X-19.704 Y6.461
X-19.967 Y6.357
X-20.108 Y6.288
X-20.269 Y6.179
X-20.394 Y6.03
X-20.473 Y5.852
X-20.5 Y5.66
Y4.493
G3 X-20.26 Y4.209 Z-2.33 I0.3 J0.01
G1 X-20.191 Y4.195 Z-2.3
X-19.923 Y4.141
X-12.934 Y2.729
X-12.666 Y2.674
X-12.561 Y2.653 Z-2.346
G3 X-12.247 Y2.788 Z-2.5 I0.059 J0.294
G1 X-11.809 Y3.547
X-11.74 Y3.68
X-11.688 Y3.821
X-11.654 Y3.967
X-11.636 Y4.116
X-11.632 Y4.266
X-11.642 Y4.422
X-11.667 Y4.585
X-11.709 Y4.77
X-11.768 Y4.957
X-11.853 Y5.166
X-11.96 Y5.377
X-12.098 Y5.604
X-12.275 Y5.847
X-12.475 Y6.082
X-12.724 Y6.328
X-13.024 Y6.583
X-13.353 Y6.818
X-13.741 Y7.051
X-14.199 Y7.279
X-14.718 Y7.486
X-15.277 Y7.659
X-15.881 Y7.795
X-16.562 Y7.89
X-17.283 Y7.933
X-18.004 Y7.918
X-18.677 Y7.852
X-19.201 Y7.757
X-19.586 Y7.654
X-19.881 Y7.55
X-20.094 Y7.455
X-20.136 Y7.432
X-20.286 Y7.321
X-20.402 Y7.175
X-20.475 Y7.003
X-20.5 Y6.818
Y5.66
G3 X-20.271 Y5.379 Z-2.335 I0.3 J0.01
G1 X-20.192 Y5.36 Z-2.3
X-19.926 Y5.295
X-12.493 Y3.501
X-12.227 Y3.437
X-12.133 Y3.414 Z-2.341
G3 X-11.809 Y3.547 Z-2.5 I0.07 J0.292
G1 X-11.317 Y4.399
X-11.248 Y4.533
X-11.202 Y4.675
X-11.173 Y4.823
X-11.16 Y4.972
X-11.159 Y5.122
X-11.172 Y5.292
X-11.2 Y5.466
X-11.248 Y5.663
X-11.316 Y5.868
X-11.409 Y6.089
X-11.535 Y6.329
X-11.685 Y6.568
X-11.879 Y6.828
X-12.113 Y7.094
X-12.38 Y7.353
X-12.714 Y7.628
X-13.112 Y7.905
X-13.541 Y8.155
X-14.038 Y8.394
X-14.604 Y8.612
X-15.244 Y8.801
X-15.948 Y8.949
X-16.664 Y9.04
X-17.385 Y9.076
X-18.105 Y9.059
X-18.733 Y8.993
X-19.27 Y8.892
X-19.622 Y8.796
X-19.907 Y8.693
X-20.114 Y8.6
X-20.14 Y8.585
X-20.289 Y8.474
X-20.403 Y8.328
X-20.475 Y8.157
X-20.5 Y7.973
Y6.818
G3 X-20.277 Y6.538 Z-2.337 I0.3 J0.01
G1 X-20.192 Y6.516 Z-2.3
X-19.927 Y6.446
X-11.999 Y4.361
X-11.734 Y4.291
X-11.647 Y4.268 Z-2.338
G3 X-11.317 Y4.399 Z-2.5 I0.076 J0.29
G1 X-10.869 Y5.174
X-10.801 Y5.308
X-10.745 Y5.447
X-10.708 Y5.593
X-10.686 Y5.741
X-10.677 Y5.891
X-10.681 Y6.048
X-10.701 Y6.228
X-10.736 Y6.415
X-10.795 Y6.63
X-10.873 Y6.846
X-10.984 Y7.089
X-11.122 Y7.337
X-11.298 Y7.601
X-11.527 Y7.891
X-11.784 Y8.168
X-12.1 Y8.457
X-12.485 Y8.756
X-12.927 Y9.047
X-13.41 Y9.31
X-13.983 Y9.566
X-14.639 Y9.798
X-15.337 Y9.983
X-16.047 Y10.114
X-16.765 Y10.194
X-17.486 Y10.224
X-18.199 Y10.2
X-18.816 Y10.129
X-19.332 Y10.028
X-19.665 Y9.935
X-19.937 Y9.834
X-20.145 Y9.736
X-20.292 Y9.625
X-20.405 Y9.48
X-20.476 Y9.31
X-20.5 Y9.127
Y7.973
G3 X-20.284 Y7.696 Z-2.341 I0.3 J0.01
G1 X-20.193 Y7.669 Z-2.3
X-19.93 Y7.592
X-11.549 Y5.145
X-11.286 Y5.068
X-11.207 Y5.045 Z-2.335
G3 X-10.869 Y5.174 Z-2.5 I0.084 J0.288
G1 X-10.353 Y6.068
X-10.284 Y6.202
X-10.235 Y6.343
X-10.202 Y6.49
X-10.184 Y6.639
X-10.178 Y6.789
X-10.186 Y6.964
X-10.208 Y7.144
X-10.251 Y7.356
X-10.314 Y7.57
X-10.407 Y7.815
X-10.525 Y8.062
X-10.681 Y8.332
X-10.884 Y8.626
X-11.118 Y8.912
X-11.418 Y9.225
X-11.783 Y9.548
X-12.184 Y9.849
X-12.661 Y10.151
X-13.232 Y10.451
X-13.881 Y10.728
X-14.566 Y10.958
X-15.266 Y11.135
X-15.976 Y11.263
X-16.694 Y11.342
X-17.415 Y11.372
X-18.137 Y11.351
X-18.761 Y11.287
X-19.283 Y11.19
X-19.633 Y11.095
X-19.913 Y10.995
X-20.116 Y10.903
X-20.139 Y10.89
X-20.288 Y10.78
X-20.403 Y10.633
X-20.475 Y10.462
X-20.5 Y10.278
Y9.127
G3 X-20.287 Y8.851 Z-2.342 I0.3 J0.01
G1 X-20.193 Y8.822 Z-2.3
X-19.931 Y8.743
X-11.032 Y6.043
X-10.77 Y5.963
X-10.694 Y5.94 Z-2.334
G3 X-10.353 Y6.068 Z-2.5 I0.087 J0.287
G1 X-9.841 Y6.956
X-9.772 Y7.089
X-9.724 Y7.231
X-9.693 Y7.378
X-9.675 Y7.527
X-9.669 Y7.691
X-9.678 Y7.862
X-9.703 Y8.063
X-9.747 Y8.269
X-9.816 Y8.502
X-9.911 Y8.749
X-10.039 Y9.014
X-10.212 Y9.31
X-10.414 Y9.6
X-10.676 Y9.918
X-11.003 Y10.254
X-11.363 Y10.571
X-11.813 Y10.906
X-12.357 Y11.246
X-12.978 Y11.569
X-13.643 Y11.849
X-14.328 Y12.078
X-15.028 Y12.257
X-15.737 Y12.389
X-16.454 Y12.475
X-17.175 Y12.516
X-17.897 Y12.512
X-18.598 Y12.457
X-19.133 Y12.372
X-19.541 Y12.272
X-19.837 Y12.175
X-20.052 Y12.084
X-20.123 Y12.047
X-20.278 Y11.937
X-20.398 Y11.789
X-20.474 Y11.615
X-20.5 Y11.426
Y10.278
G3 X-20.29 Y10.002 Z-2.343 I0.3 J0.01
G1 X-20.193 Y9.972 Z-2.3
X-19.932 Y9.89
X-10.518 Y6.933
X-10.257 Y6.851
X-10.185 Y6.828 Z-2.332
G3 X-9.841 Y6.956 Z-2.5 I0.09 J0.286
G1 X-9.348 Y7.808
X-9.28 Y7.941
X-9.227 Y8.082
X-9.19 Y8.227
X-9.168 Y8.376
X-9.158 Y8.532
X-9.161 Y8.708
X-9.179 Y8.899
X-9.217 Y9.109
X-9.277 Y9.339
X-9.364 Y9.586
X-9.487 Y9.864
X-9.639 Y10.143
X-9.844 Y10.457
X-10.093 Y10.779
X-10.393 Y11.108
X-10.781 Y11.47
X-11.245 Y11.839
X-11.754 Y12.18
X-12.369 Y12.524
X-13.026 Y12.825
X-13.702 Y13.077
X-14.395 Y13.282
X-15.098 Y13.443
X-15.811 Y13.562
X-16.529 Y13.638
X-17.25 Y13.673
X-17.972 Y13.663
X-18.629 Y13.606
X-19.186 Y13.512
X-19.56 Y13.418
X-19.859 Y13.317
X-20.069 Y13.226
X-20.102 Y13.208
X-20.246 Y13.107
X-20.359 Y12.974
X-20.436 Y12.817
X-20.472 Y12.645
X-20.499 Y12.301
X-20.5 Y11.426
G3 X-20.294 Y11.151 Z-2.345 I0.3 J0.01
G1 X-20.194 Y11.119 Z-2.3
X-19.933 Y11.033
X-10.025 Y7.789
X-9.765 Y7.704
X-9.696 Y7.682 Z-2.331
G3 X-9.348 Y7.808 Z-2.5 I0.093 J0.285
G1 X-8.838 Y8.692
X-8.769 Y8.826
X-8.714 Y8.965
X-8.675 Y9.11
X-8.65 Y9.258
X-8.637 Y9.42
Y9.588
X-8.653 Y9.787
X-8.687 Y9.992
X-8.746 Y10.233
X-8.827 Y10.475
X-8.947 Y10.758
X-9.096 Y11.042
X-9.298 Y11.362
X-9.559 Y11.709
X-9.86 Y12.051
X-10.244 Y12.42
X-10.72 Y12.81
X-11.254 Y13.18
X-11.869 Y13.537
X-12.521 Y13.848
X-13.193 Y14.112
X-13.881 Y14.332
X-14.58 Y14.51
X-15.289 Y14.649
X-16.004 Y14.748
X-16.723 Y14.809
X-17.445 Y14.829
X-18.167 Y14.804
X-18.809 Y14.732
X-19.316 Y14.634
X-19.65 Y14.541
X-19.906 Y14.448
X-19.953 Y14.426
X-20.107 Y14.329
X-20.23 Y14.196
X-20.315 Y14.036
X-20.357 Y13.859
X-20.445 Y12.957
X-20.46 Y12.793
X-20.472 Y12.645
G3 X-20.269 Y12.348 Z-2.336 I0.3 J-0.013
G1 X-20.189 Y12.321 Z-2.3
X-19.93 Y12.232
X-9.513 Y8.678
X-9.254 Y8.59
X-9.189 Y8.567 Z-2.329
G3 X-8.838 Y8.692 Z-2.5 I0.097 J0.284
G1 X-8.312 Y9.603
X-8.244 Y9.736
X-8.188 Y9.875
X-8.148 Y10.02
X-8.122 Y10.168
X-8.109 Y10.331
X-8.108 Y10.5
X-8.123 Y10.703
X-8.155 Y10.909
X-8.215 Y11.156
X-8.296 Y11.404
X-8.418 Y11.694
X-8.57 Y11.988
X-8.773 Y12.315
X-9.043 Y12.678
X-9.35 Y13.03
X-9.748 Y13.417
X-10.237 Y13.823
X-10.799 Y14.217
X-11.421 Y14.582
X-12.07 Y14.898
X-12.74 Y15.169
X-13.424 Y15.398
X-14.121 Y15.588
X-14.827 Y15.741
X-15.539 Y15.857
X-16.257 Y15.936
X-16.978 Y15.978
X-17.7 Y15.98
X-18.42 Y15.935
X-19.015 Y15.85
X-19.389 Y15.765
X-19.51 Y15.727
X-19.713 Y15.626
X-19.872 Y15.465
X-19.972 Y15.262
X-20.323 Y14.105
X-20.337 Y14.046
X-20.357 Y13.859
G3 X-20.157 Y13.557 Z-2.335 I0.299 J-0.019
G1 X-20.079 Y13.529 Z-2.3
X-19.821 Y13.438
X-8.986 Y9.592
X-8.728 Y9.501
X-8.667 Y9.479 Z-2.328
G3 X-8.312 Y9.603 Z-2.5 I0.1 J0.283
G1 X-7.748 Y10.58
X-7.68 Y10.714
X-7.631 Y10.856
X-7.598 Y11.002
X-7.578 Y11.151
X-7.569 Y11.321
X-7.573 Y11.504
X-7.596 Y11.716
X-7.638 Y11.938
X-7.709 Y12.197
X-7.806 Y12.466
X-7.942 Y12.763
X-8.126 Y13.094
X-8.347 Y13.426
X-8.65 Y13.809
X-9.017 Y14.203
X-9.444 Y14.595
X-9.974 Y15.007
X-10.578 Y15.403
X-11.211 Y15.752
X-11.865 Y16.056
X-12.538 Y16.319
X-13.224 Y16.544
X-13.921 Y16.733
X-14.626 Y16.885
X-15.339 Y17.002
X-16.056 Y17.085
X-16.776 Y17.131
X-17.498 Y17.14
X-18.22 Y17.106
X-18.72 Y17.046
X-18.807 Y17.028
X-19. Y16.959
X-19.165 Y16.837
X-19.286 Y16.672
X-19.869 Y15.581
X-19.925 Y15.417
X-19.972 Y15.262
G3 X-19.788 Y14.905 Z-2.313 I0.29 J-0.077
G1 X-19.76 Y14.894 Z-2.3
X-19.504 Y14.797
X-8.419 Y10.577
X-8.163 Y10.48
X-8.109 Y10.459 Z-2.325
G3 X-7.748 Y10.58 Z-2.5 I0.107 J0.28
G1 X-7.512 Y10.989
X-7.403 Y11.153
X-7.38 Y11.185
X-7.321 Y11.257
X-7.232 Y11.378
X-7.157 Y11.508
X-7.099 Y11.646
X-7.056 Y11.79
X-7.027 Y11.937
X-7.01 Y12.095
X-7.004 Y12.275
X-7.015 Y12.476
X-7.044 Y12.696
X-7.095 Y12.937
X-7.176 Y13.206
X-7.288 Y13.494
X-7.449 Y13.826
X-7.641 Y14.152
X-7.904 Y14.526
X-8.237 Y14.926
X-8.618 Y15.317
X-9.107 Y15.743
X-9.687 Y16.172
X-10.3 Y16.554
X-10.938 Y16.892
X-11.596 Y17.19
X-12.269 Y17.45
X-12.956 Y17.674
X-13.652 Y17.863
X-14.358 Y18.018
X-15.069 Y18.139
X-15.786 Y18.227
X-16.506 Y18.281
X-17.228 Y18.3
X-17.727 Y18.286
X-17.923 Y18.252
X-18.102 Y18.165
X-18.248 Y18.03
X-19.114 Y16.975
X-19.145 Y16.934
X-19.189 Y16.854
X-19.286 Y16.672
G3 X-19.149 Y16.271 Z-2.3 I0.269 J-0.132
G1 X-19.139 Y16.266
X-18.899 Y16.16
X-8.001 Y11.329
X-7.751 Y11.219
X-7.667 Y11.181 Z-2.339
G3 X-7.321 Y11.257 Z-2.5 I0.122 J0.274
G1 X-7.272 Y11.317
X-7.216 Y11.378
X-7.117 Y11.481
X-7.052 Y11.534
X-6.888 Y11.659
X-6.861 Y11.676
X-6.736 Y11.758
X-6.635 Y11.869
X-6.55 Y11.993
X-6.482 Y12.126
X-6.426 Y12.266
X-6.384 Y12.41
X-6.351 Y12.57
X-6.329 Y12.749
X-6.32 Y12.95
X-6.328 Y13.17
X-6.358 Y13.419
X-6.409 Y13.675
X-6.495 Y13.978
X-6.609 Y14.281
X-6.772 Y14.628
X-6.988 Y15.007
X-7.241 Y15.377
X-7.579 Y15.795
X-8.009 Y16.247
X-8.5 Y16.687
X-9.075 Y17.124
X-9.682 Y17.515
X-10.315 Y17.863
X-10.967 Y18.174
X-11.635 Y18.448
X-12.316 Y18.688
X-13.007 Y18.894
X-13.708 Y19.068
X-14.416 Y19.211
X-15.129 Y19.322
X-15.847 Y19.402
X-16.189 Y19.425
X-16.318 Y19.421
X-16.445 Y19.394
X-16.565 Y19.344
X-16.893 Y19.168
X-16.934 Y19.145
X-16.975 Y19.114
X-18.083 Y18.205
X-18.144 Y18.153
X-18.205 Y18.083
X-18.248 Y18.03
X-18.282 Y17.975 Z-2.472
X-18.303 Y17.913 Z-2.445
X-18.31 Y17.849 Z-2.417
Y17.848
G3 X-18.192 Y17.61 Z-2.3 I0.3 J0.
G1 X-18.152 Y17.584
X-17.953 Y17.477
X-7.541 Y11.886
X-7.299 Y11.757
X-7.147 Y11.675 Z-2.374
G3 X-6.861 Y11.676 Z-2.5 I0.142 J0.264
G1 X-6.724 Y11.757
X-6.618 Y11.809
X-6.56 Y11.833
X-6.396 Y11.897
X-6.369 Y11.905
X-6.227 Y11.954
X-6.103 Y12.039
X-5.994 Y12.141
X-5.898 Y12.256
X-5.815 Y12.381
X-5.745 Y12.514
X-5.684 Y12.656
X-5.632 Y12.813
X-5.587 Y12.997
X-5.555 Y13.191
X-5.537 Y13.418
Y13.654
X-5.559 Y13.924
X-5.607 Y14.218
X-5.683 Y14.53
X-5.8 Y14.88
X-5.955 Y15.246
X-6.157 Y15.63
X-6.431 Y16.066
X-6.775 Y16.525
X-7.164 Y16.966
X-7.655 Y17.439
X-8.213 Y17.897
X-8.804 Y18.311
X-9.422 Y18.686
X-10.06 Y19.023
X-10.716 Y19.325
X-11.386 Y19.593
X-12.068 Y19.83
X-12.761 Y20.035
X-13.461 Y20.209
X-13.898 Y20.298
X-14.013 Y20.311
X-14.128 Y20.306
X-14.241 Y20.282
X-15.417 Y19.925
X-15.581 Y19.869
X-16.565 Y19.344
G3 X-16.674 Y18.934 Z-2.3 I0.151 J-0.259
G1 X-16.635 Y18.881
X-16.585 Y18.837
X-16.469 Y18.757
X-7.015 Y12.227
X-6.79 Y12.071
X-6.613 Y11.949 Z-2.391
X-6.557 Y11.919 Z-2.419
X-6.496 Y11.901 Z-2.446
X-6.432 Y11.896 Z-2.473
X-6.369 Y11.905 Z-2.5
X-6.232 Y11.945
X-6.068 Y11.976
X-5.904 Y11.99
X-5.755 Y12.006
X-5.612 Y12.052
X-5.48 Y12.122
X-5.358 Y12.209
X-5.247 Y12.31
X-5.148 Y12.423
X-5.059 Y12.544
X-4.979 Y12.675
X-4.9 Y12.831
X-4.832 Y12.998
X-4.769 Y13.196
X-4.72 Y13.407
X-4.685 Y13.644
X-4.668 Y13.915
X-4.672 Y14.193
X-4.702 Y14.51
X-4.763 Y14.859
X-4.855 Y15.211
X-4.995 Y15.612
X-5.191 Y16.056
X-5.428 Y16.493
X-5.729 Y16.955
X-6.113 Y17.453
X-6.582 Y17.969
X-7.108 Y18.463
X-7.671 Y18.915
X-8.263 Y19.329
X-8.879 Y19.705
X-9.516 Y20.045
X-10.169 Y20.352
X-10.4 Y20.447
X-10.486 Y20.476
X-10.576 Y20.494
X-10.667 Y20.5
X-12.301 Y20.499
X-12.793 Y20.46
X-12.957 Y20.445
X-13.941 Y20.348
X-14.046 Y20.337
X-14.105 Y20.323
X-14.241 Y20.282
G3 X-14.428 Y19.901 Z-2.3 I0.097 J-0.284
G1 X-14.408 Y19.856
X-14.382 Y19.815
X-14.349 Y19.779
X-14.256 Y19.692
X-6.49 Y12.422
X-6.29 Y12.235
X-6.115 Y12.071 Z-2.402
X-6.069 Y12.036 Z-2.426
X-6.018 Y12.01 Z-2.451
X-5.962 Y11.995 Z-2.475
X-5.904 Y11.99 Z-2.5
X-5.74 Y11.999
X-5.412 Y12.
X-5.248
X-5.098 Y12.007
X-4.953 Y12.044
X-4.815 Y12.102
X-4.685 Y12.177
X-4.564 Y12.266
X-4.452 Y12.366
X-4.348 Y12.477
X-4.249 Y12.602
X-4.148 Y12.753
X-4.056 Y12.917
X-3.969 Y13.108
X-3.89 Y13.324
X-3.826 Y13.555
X-3.774 Y13.826
X-3.742 Y14.117
X-3.734 Y14.426
X-3.752 Y14.779
X-3.803 Y15.164
X-3.889 Y15.56
X-4.02 Y15.997
X-4.206 Y16.469
X-4.45 Y16.97
X-4.741 Y17.463
X-5.12 Y17.999
X-5.582 Y18.554
X-6.087 Y19.07
X-6.628 Y19.548
X-7.199 Y19.99
X-7.8 Y20.4
X-7.913 Y20.455
X-8.035 Y20.489
X-8.161 Y20.5
X-10.667
G3 X-10.956 Y20.19 Z-2.3 I0.01 J-0.3
G1 X-10.949 Y20.134
X-10.931 Y20.08
X-10.904 Y20.031
X-10.845 Y19.945
X-5.748 Y12.513
X-5.593 Y12.287
X-5.485 Y12.13 Z-2.381
G3 X-5.248 Y12. Z-2.5 I0.247 J0.17
G1 X-4.502
X-4.352 Y12.007
X-4.205 Y12.036
X-4.063 Y12.086
X-3.929 Y12.152
X-3.802 Y12.232
X-3.683 Y12.324
X-3.567 Y12.43
X-3.451 Y12.555
X-3.338 Y12.698
X-3.223 Y12.87
X-3.12 Y13.056
X-3.02 Y13.274
X-2.931 Y13.521
X-2.859 Y13.786
X-2.8 Y14.094
X-2.764 Y14.433
X-2.755 Y14.785
X-2.777 Y15.184
X-2.837 Y15.628
X-2.938 Y16.087
X-3.085 Y16.573
X-3.291 Y17.094
X-3.565 Y17.653
X-3.917 Y18.243
X-4.334 Y18.832
X-4.798 Y19.386
X-5.301 Y19.903
X-5.765 Y20.321
X-5.905 Y20.418
X-6.064 Y20.479
X-6.233 Y20.5
X-8.161
G3 X-8.45 Y20.19 Z-2.3 I0.01 J-0.3
G1 X-8.442 Y20.131
X-8.423 Y20.074
X-8.358 Y19.935
X-4.938 Y12.549
X-4.823 Y12.301
X-4.764 Y12.174 Z-2.36
G3 X-4.502 Y12. Z-2.5 I0.272 J0.126
G1 X-3.682
X-3.532 Y12.007
X-3.384 Y12.032
X-3.241 Y12.076
X-3.104 Y12.136
X-2.973 Y12.211
X-2.85 Y12.296
X-2.727 Y12.397
X-2.598 Y12.523
X-2.475 Y12.662
X-2.346 Y12.835
X-2.227 Y13.025
X-2.111 Y13.247
X-2.002 Y13.506
X-1.912 Y13.778
X-1.835 Y14.094
X-1.776 Y14.458
X-1.747 Y14.833
X-1.748 Y15.253
X-1.786 Y15.72
X-1.87 Y16.229
X-1.997 Y16.745
X-2.183 Y17.3
X-2.442 Y17.906
X-2.775 Y18.54
X-3.161 Y19.15
X-3.592 Y19.73
X-4.063 Y20.278
X-4.077 Y20.292
X-4.223 Y20.405
X-4.392 Y20.476
X-4.575 Y20.5
X-6.233
G3 X-6.523 Y20.19 Z-2.3 I0.01 J-0.3
G1 X-6.518 Y20.148
X-6.508 Y20.108
X-6.45 Y19.927
X-4.073 Y12.567
X-3.989 Y12.307
X-3.957 Y12.208 Z-2.344
G3 X-3.682 Y12. Z-2.5 I0.285 J0.092
G1 X-2.788
X-2.638 Y12.007
X-2.49 Y12.031
X-2.346 Y12.074
X-2.208 Y12.133
X-2.076 Y12.204
X-1.944 Y12.292
X-1.816 Y12.393
X-1.677 Y12.521
X-1.544 Y12.666
X-1.406 Y12.841
X-1.272 Y13.045
X-1.146 Y13.274
X-1.023 Y13.547
X-0.918 Y13.841
X-0.829 Y14.174
X-0.758 Y14.56
X-0.715 Y14.979
X-0.706 Y15.427
X-0.735 Y15.927
X-0.812 Y16.475
X-0.946 Y17.071
X-1.13 Y17.668
X-1.388 Y18.313
X-1.71 Y18.959
X-2.079 Y19.58
X-2.49 Y20.173
X-2.547 Y20.243
X-2.7 Y20.381
X-2.886 Y20.47
X-3.09 Y20.5
X-4.575
G3 X-4.864 Y20.19 Z-2.3 I0.01 J-0.3
G1 X-4.857 Y20.134
X-4.809 Y19.922
X-3.148 Y12.576
X-3.087 Y12.309
X-3.07 Y12.234 Z-2.333
G3 X-2.788 Y12. Z-2.5 I0.293 J0.066
G1 X-1.804
X-1.654 Y12.007
X-1.507 Y12.038
X-1.365 Y12.086
X-1.229 Y12.148
X-1.098 Y12.222
X-0.957 Y12.317
X-0.821 Y12.427
X-0.673 Y12.567
X-0.53 Y12.726
X-0.385 Y12.916
X-0.239 Y13.143
X-0.106 Y13.391
X0.024 Y13.691
X0.139 Y14.024
X0.231 Y14.386
X0.304 Y14.81
X0.347 Y15.29
X0.352 Y15.783
X0.312 Y16.34
X0.22 Y16.945
X0.065 Y17.601
X-0.156 Y18.288
X-0.432 Y18.955
X-0.757 Y19.6
X-0.941 Y19.91
X-1.117 Y20.181
X-1.229 Y20.314
X-1.37 Y20.415
X-1.532 Y20.478
X-1.704 Y20.5
X-3.09
G3 X-3.379 Y20.19 Z-2.3 I0.01 J-0.3
G1 X-3.375 Y20.152
X-3.337 Y19.92
X-2.143 Y12.58
X-2.099 Y12.309
X-2.09 Y12.252 Z-2.325
G3 X-1.804 Y12. Z-2.5 I0.296 J0.048
G1 X-0.894
X-0.744 Y12.007
X-0.596 Y12.031
X-0.451 Y12.071
X-0.312 Y12.127
X-0.177 Y12.196
X-0.044 Y12.278
X0.104 Y12.387
X0.248 Y12.511
X0.406 Y12.672
X0.554 Y12.849
X0.709 Y13.067
X0.857 Y13.317
X0.996 Y13.601
X1.133 Y13.946
X1.245 Y14.315
X1.335 Y14.731
X1.401 Y15.215
X1.43 Y15.759
X1.416 Y16.315
X1.348 Y16.942
X1.218 Y17.632
X1.027 Y18.328
X0.784 Y19.008
X0.494 Y19.669
X0.283 Y20.062
X0.208 Y20.179
X0.096 Y20.313
X-0.046 Y20.415
X-0.208 Y20.478
X-0.381 Y20.5
X-1.704
G3 X-1.994 Y20.19 Z-2.3 I0.01 J-0.3
G1 X-1.992 Y20.17
X-1.966 Y19.918
X-1.214 Y12.582
X-1.186 Y12.31
X-1.182 Y12.269 Z-2.317
G3 X-0.894 Y12. Z-2.5 I0.298 J0.031
G1 X0.09
X0.24 Y12.007
X0.388 Y12.03
X0.533 Y12.07
X0.673 Y12.124
X0.807 Y12.191
X0.948 Y12.276
X1.097 Y12.382
X1.251 Y12.512
X1.409 Y12.67
X1.573 Y12.861
X1.729 Y13.076
X1.891 Y13.343
X2.038 Y13.633
X2.178 Y13.979
X2.309 Y14.392
X2.408 Y14.826
X2.481 Y15.32
X2.518 Y15.889
X2.508 Y16.53
X2.444 Y17.193
X2.318 Y17.904
X2.135 Y18.603
X1.903 Y19.286
X1.695 Y19.783
X1.534 Y20.095
X1.487 Y20.17
X1.376 Y20.307
X1.233 Y20.412
X1.069 Y20.478
X0.893 Y20.5
X-0.381
G3 X-0.67 Y20.19 Z-2.3 I0.01 J-0.3
G1 Y20.182
X-0.654 Y19.917
X-0.217 Y12.583
X-0.2 Y12.31
X-0.199 Y12.282 Z-2.312
G3 X0.09 Y12. Z-2.5 I0.299 J0.018
G1 X1.148
X1.298 Y12.007
X1.445 Y12.036
X1.588 Y12.081
X1.726 Y12.139
X1.865 Y12.212
X2.016 Y12.307
X2.167 Y12.421
X2.332 Y12.566
X2.492 Y12.732
X2.667 Y12.945
X2.829 Y13.178
X2.996 Y13.466
X3.153 Y13.795
X3.223 Y13.978
X3.257 Y14.078
X3.394 Y14.509
X3.499 Y14.96
X3.578 Y15.497
X3.619 Y16.109
X3.61 Y16.788
X3.543 Y17.494
X3.418 Y18.205
X3.24 Y18.905
X3.038 Y19.518
X2.881 Y19.89
X2.753 Y20.138
X2.732 Y20.171
X2.62 Y20.308
X2.477 Y20.412
X2.313 Y20.478
X2.138 Y20.5
X0.893
G3 X0.604 Y20.191 Z-2.3 I0.01 J-0.3
G1 Y20.19
X0.613 Y19.916
X0.849 Y12.584
X0.858 Y12.31
X0.859 Y12.29 Z-2.308
G3 X1.148 Y12. Z-2.5 I0.3 J0.01
G1 X2.132
X2.282 Y12.007
X2.431 Y12.02
X2.578 Y12.05
X2.721 Y12.095
X2.86 Y12.153
X2.993 Y12.222
X3.12 Y12.301
X3.242 Y12.389
X3.359 Y12.483
X3.47 Y12.584
X3.575 Y12.691
X3.674 Y12.803
X3.82 Y12.91
X3.988 Y12.976
X4.167 Y12.997
X4.346 Y12.971
X4.512 Y12.9
X4.654 Y12.789
X5.046 Y12.276
X5.199 Y12.128
X5.389 Y12.033
X5.599 Y12.
G3 X5.928 Y12.284 Z-2.3 I-0.01 J0.345
X5.589 Y12.69 I-0.34 J0.06
G1 X2.144
G3 X1.804 Y12.286 I0. J-0.345
X2.132 Y12. Z-2.5 I0.34 J0.059
G1 X5.576
X5.74 Y11.999
X5.904 Y11.99
X6.068 Y11.976
X6.232 Y11.945
X6.396 Y11.897
X6.56 Y11.833
X6.618 Y11.809
X6.724 Y11.757
G3 X7.103 Y11.875 Z-2.316 I0.122 J0.274
G1 X7.122 Y11.907 Z-2.3
X7.264 Y12.141
X11.992 Y19.942
X12.055 Y20.045
X12.077 Y20.09
X12.092 Y20.139
X12.098 Y20.19
G3 X11.809 Y20.5 Z-2.5 I-0.3 J0.01
G1 X9.677
X9.527 Y20.493
X9.356 Y20.469
X9.148 Y20.423
X8.928 Y20.355
X8.68 Y20.256
X8.407 Y20.12
X8.108 Y19.942
X7.798 Y19.72
X7.452 Y19.428
X7.11 Y19.088
X6.773 Y18.696
X6.605 Y18.466
X6.526 Y18.348
X6.446 Y18.225
X6.136 Y17.728
X6.054 Y17.567
X6.014 Y17.486
G3 X6.165 Y17.09 Z-2.3 I0.274 J-0.123
X6.481 Y17.134 I0.123 J0.274
G1 X9.842 Y19.956
X9.859 Y19.97
X9.903 Y20.016
X9.936 Y20.069
X9.957 Y20.128
X9.966 Y20.19
G3 X9.677 Y20.5 Z-2.5 I-0.3 J0.01
G1 X8.2
X8.008 Y20.49
X7.859 Y20.471
X7.696 Y20.436
X7.502 Y20.378
X7.309 Y20.302
X7.08 Y20.191
X6.843 Y20.052
X6.591 Y19.874
X6.323 Y19.652
X6.194 Y19.526
X6.069 Y19.396
X5.915 Y19.302
X5.741 Y19.251
X5.561 Y19.246
X5.385 Y19.287
X5.066 Y19.456
X4.529 Y19.938
X4.25 Y20.259
X4.099 Y20.389
X3.918 Y20.472
X3.721 Y20.5
Z3.06
X9.212 Y20.125
Z-1.9
Z-2.2
X9.205 Y20.129 Z-2.267
X9.186 Y20.141 Z-2.33
X9.156 Y20.159 Z-2.387
X9.115 Y20.183 Z-2.435
X9.066 Y20.212 Z-2.47
X9.011 Y20.245 Z-2.492
X8.954 Y20.279 Z-2.5
G3 X8.2 Y20.5 I-0.809 J-1.36
G1 X2.138
G3 X1.849 Y20.201 I0.01 J-0.3
G1 Y20.2
G3 X2.008 Y19.935 I0.3 J0.
G1 X2.067 Y19.904 Z-2.492
X2.123 Y19.874 Z-2.47
X2.173 Y19.847 Z-2.435
X2.215 Y19.825 Z-2.387
X2.246 Y19.808 Z-2.33
X2.266 Y19.798 Z-2.267
X2.273 Y19.794 Z-2.2
Z8.
X0.208 Y-1.497
Z3.06
Z2.55
S8000
G3 X1.28 Y0.804 Z2.445 I-0.208 J1.497 F167.
X-1.255 Y0.838 Z2.34 I-1.278 J-0.803
X-0.248 Y-1.485 Z2.234 I1.255 J-0.836
X1.456 Y0.384 Z2.129 I0.247 J1.485
X-0.944 Y1.17 Z2.024 I-1.454 J-0.383
X-0.678 Y-1.339 Z1.919 I0.945 J-1.168
X1.498 Y-0.068 Z1.814 I0.677 J1.339
X-0.55 Y1.394 Z1.708 I-1.497 J0.068
X-1.043 Y-1.071 Z1.603 I0.551 J-1.392
X1.404 Y-0.51 Z1.498 I1.042 J1.072
X-0.109 Y1.489 Z1.393 I-1.403 J0.51
X-1.31 Y-0.708 Z1.288 I0.11 J-1.487
X1.183 Y-0.903 Z1.182 I1.31 J0.709
X0.339 Y1.449 Z1.077 I-1.182 J0.903
X-1.457 Y-0.283 Z0.972 I-0.338 J-1.447
X0.856 Y-1.21 Z0.867 I1.456 J0.285
X0.753 Y1.277 Z0.761 I-0.856 J1.21
X-1.47 Y0.164 Z0.656 I-0.752 J-1.275
X0.454 Y-1.405 Z0.551 I1.469 J-0.162
X1.095 Y0.99 Z0.446 I-0.454 J1.405
X-1.349 Y0.593 Z0.341 I-1.094 J-0.989
X0.014 Y-1.471 Z0.235 I1.349 J-0.591
X1.336 Y0.616 Z0.13 I-0.014 J1.471
X-1.107 Y0.966 Z0.025 I-1.334 J-0.615
X-0.425 Y-1.402 Z-0.08 I1.107 J-0.963
X1.453 Y0.188 Z-0.185 I0.424 J1.403
X-0.765 Y1.247 Z-0.291 I-1.452 J-0.188
X-0.821 Y-1.207 Z-0.396 I0.766 J-1.245
X1.437 Y-0.253 Z-0.501 I0.821 J1.208
X-0.357 Y1.414 Z-0.606 I-1.436 J0.253
X-1.14 Y-0.903 Z-0.711 I0.358 J-1.412
X1.291 Y-0.668 Z-0.817 I1.139 J0.904
X0.081 Y1.451 Z-0.922 I-1.29 J0.668
X-1.353 Y-0.519 Z-1.027 I-0.08 J-1.449
X1.029 Y-1.019 Z-1.132 I1.352 J0.521
X0.508 Y1.355 Z-1.237 I-1.028 J1.018
X-1.441 Y-0.091 Z-1.343 I-0.507 J-1.354
X0.675 Y-1.274 Z-1.448 I1.44 J0.093
X0.886 Y1.138 Z-1.553 I-0.675 J1.274
X-1.397 Y0.342 Z-1.658 I-0.884 J-1.136
X0.262 Y-1.412 Z-1.764 I1.397 J-0.34
X1.18 Y0.818 Z-1.869 I-0.262 J1.412
X-1.227 Y0.741 Z-1.974 I-1.179 J-0.817
X-0.171 Y-1.42 Z-2.079 I1.227 J-0.739
X1.365 Y0.427 Z-2.184 I0.17 J1.42
X-0.947 Y1.069 Z-2.29 I-1.364 J-0.427
X-0.585 Y-1.299 Z-2.395 I0.947 J-1.067
X1.425 Y0. Z-2.5 I0.584 J1.3
X-1.426 I-1.425 J0.
X1.425 I1.425 J0.
S5000
G1 X1.459 Y0.722 F500.
X1.476 Y0.81
X1.484 Y0.96
X1.464 Y1.109
X1.422 Y1.253
X1.36 Y1.389
X1.282 Y1.517
X1.189 Y1.635
X1.085 Y1.743
X0.971 Y1.84
X0.847 Y1.926
X0.717 Y2.
X0.58 Y2.062
X0.439 Y2.113
X0.294 Y2.152
X0.143 Y2.179
X-0.013 Y2.195
X-0.173 Y2.199
X-0.335 Y2.189
X-0.498 Y2.166
X-0.66 Y2.13
X-0.821 Y2.08
X-0.979 Y2.016
X-1.133 Y1.94
X-1.281 Y1.851
X-1.423 Y1.749
X-1.557 Y1.636
X-1.682 Y1.512
X-1.797 Y1.377
X-1.902 Y1.233
X-1.995 Y1.081
X-2.075 Y0.92
X-2.143 Y0.754
X-2.197 Y0.582
X-2.238 Y0.406
X-2.264 Y0.227
X-2.276 Y0.047
X-2.273 Y-0.135
X-2.256 Y-0.316
X-2.224 Y-0.495
X-2.178 Y-0.671
X-2.117 Y-0.843
X-2.044 Y-1.01
X-1.957 Y-1.17
X-1.857 Y-1.323
X-1.745 Y-1.468
X-1.622 Y-1.603
X-1.489 Y-1.728
X-1.346 Y-1.842
X-1.194 Y-1.944
X-1.034 Y-2.033
X-0.868 Y-2.109
X-0.696 Y-2.172
X-0.519 Y-2.221
X-0.34 Y-2.256
X-0.158 Y-2.276
X0.025 Y-2.281
X0.208 Y-2.272
X0.39 Y-2.248
X0.569 Y-2.209
X0.745 Y-2.156
X0.915 Y-2.09
X1.08 Y-2.009
X1.238 Y-1.916
X1.388 Y-1.811
X1.528 Y-1.694
X1.659 Y-1.565
X1.78 Y-1.427
X1.889 Y-1.28
X1.99 Y-1.117
X2.101 Y-0.901
X2.234 Y-0.582
X2.343 Y-0.245
X2.408 Y0.025
X2.445 Y0.263
X2.461 Y0.483
X2.459 Y0.697
X2.441 Y0.905
X2.408 Y1.102
X2.36 Y1.291
X2.297 Y1.476
X2.219 Y1.657
X2.126 Y1.832
X2.018 Y1.999
X1.898 Y2.158
X1.763 Y2.308
X1.616 Y2.448
X1.456 Y2.578
X1.401 Y2.614
X1.358 Y2.637
X1.314 Y2.657
X0.82 Y2.861
X0.779 Y2.876
X0.738 Y2.885
X0.164 Y2.961
X0. Y2.98
X-0.164 Y2.961
X-0.738 Y2.885
X-0.779 Y2.876
X-0.82 Y2.861
X-1.392 Y2.624
X-1.476 Y2.588
X-1.517 Y2.563
X-2.079 Y2.132
X-2.109 Y2.105
X-2.132 Y2.079
X-2.563 Y1.517
X-2.588 Y1.476
X-2.624 Y1.392
X-2.861 Y0.82
X-2.876 Y0.779
X-2.885 Y0.738
X-2.961 Y0.164
X-2.98 Y0.
X-2.961 Y-0.164
X-2.885 Y-0.738
X-2.876 Y-0.779
X-2.861 Y-0.82
X-2.624 Y-1.392
X-2.588 Y-1.476
X-2.563 Y-1.517
X-2.132 Y-2.079
X-2.109 Y-2.105
X-2.079 Y-2.132
X-1.517 Y-2.563
X-1.476 Y-2.588
X-1.392 Y-2.624
X-0.82 Y-2.861
X-0.779 Y-2.876
X-0.738 Y-2.885
X-0.164 Y-2.961
X0. Y-2.98
X0.164 Y-2.961
X0.738 Y-2.885
X0.779 Y-2.876
X0.82 Y-2.861
X1.392 Y-2.624
X1.476 Y-2.588
X1.517 Y-2.563
X2.079 Y-2.132
X2.109 Y-2.105
X2.132 Y-2.079
X2.563 Y-1.517
X2.588 Y-1.476
X2.624 Y-1.392
X2.861 Y-0.82
X2.876 Y-0.779
X2.885 Y-0.738
X2.961 Y-0.164
X2.98 Y0.
X2.961 Y0.164
X2.885 Y0.738
X2.876 Y0.779
X2.861 Y0.82
X2.624 Y1.392
X2.588 Y1.476
X2.563 Y1.517
X2.132 Y2.079
X2.109 Y2.105
X2.079 Y2.132
X1.517 Y2.563
X1.476 Y2.588
X1.392 Y2.624
X1.314 Y2.657
G3 X0.978 Y2.185 I-0.105 J-0.281
G1 X1.02 Y2.133 Z-2.492
X1.06 Y2.084 Z-2.47
X1.097 Y2.04 Z-2.435
X1.127 Y2.004 Z-2.387
X1.15 Y1.976 Z-2.33
X1.164 Y1.959 Z-2.267
X1.168 Y1.953 Z-2.2
Z8.

M5
G28 G91 Z0.
G90
G28 G91 X0. Y0.
G90
M30
