(1001)
(FRESA 1 FILO_3MMDH_3MMDS)
(T3 D=3.175 CR=0. - ZMIN=-2.5 - FRESA CON PUNTA PLANA)
G90 G94 G91.1 G40 G49 G17
G21
(WHEN USING FUSION FOR PERSONAL USE, THE FEEDRATE OF RAPID)
(MOVES IS REDUCED TO MATCH THE FEEDRATE OF CUTTING MOVES,)
(WHICH CAN INCREASE MACHINING TIME. UNRESTRICTED RAPID MOVES)
(ARE AVAILABLE WITH A FUSION SUBSCRIPTION.)
G28 G91 Z0.
G90

(PRUEBA_1FILO3MM)
T3 M6
S10000 M3
G17 G90 G94
G54
G0 X12.273 Y13.103
G43 Z8. H3
G1 Z3.06 F500.
Z2.55
G3 X14.89 Y12.636 Z2.44 I1.463 J0.633 F333.
X14.3 Y15.225 Z2.33 I-1.153 J1.099
X12.149 Y13.672 Z2.221 I-0.561 J-1.488
X14.415 Y12.3 Z2.111 I1.587 J0.064
X14.794 Y14.918 Z2.001 I-0.677 J1.435
X12.238 Y14.246 Z1.891 I-1.055 J-1.182
X13.852 Y12.158 Z1.782 I1.499 J-0.51
X15.144 Y14.456 Z1.672 I-0.115 J1.577
X12.527 Y14.748 Z1.562 I-1.405 J-0.721
X13.278 Y12.228 Z1.452 I1.21 J-1.011
X15.303 Y13.901 Z1.342 I0.458 J1.507
X12.975 Y15.111 Z1.233 I-1.565 J-0.166
X12.77 Y12.498 Z1.123 I0.763 J-1.374
X15.252 Y13.328 Z1.013 I0.966 J1.237
X13.522 Y15.287 Z0.903 I-1.514 J0.407
X12.395 Y12.932 Z0.793 I0.216 J-1.551
X15. Y12.814 Z0.684 I1.342 J0.803
X14.093 Y15.255 Z0.574 I-1.262 J0.921
X12.201 Y13.47 Z0.464 I-0.355 J-1.519
X14.58 Y12.426 Z0.354 I1.535 J0.266
X14.613 Y15.021 Z0.245 I-0.843 J1.308
X12.214 Y14.04 Z0.135 I-0.875 J-1.285
X14.051 Y12.216 Z0.025 I1.522 J-0.303
X15.012 Y14.616 Z-0.085 I-0.314 J1.518
X12.431 Y14.564 Z-0.195 I-1.274 J-0.881
X13.485 Y12.211 Z-0.304 I1.306 J-0.828
X15.238 Y14.097 Z-0.414 I0.252 J1.524
X12.82 Y14.975 Z-0.524 I-1.5 J-0.362
X12.956 Y12.409 Z-0.634 I0.918 J-1.238
X15.262 Y13.534 Z-0.743 I0.781 J1.326
X13.329 Y15.216 Z-0.853 I-1.524 J0.201
X12.535 Y12.783 Z-0.963 I0.409 J-1.48
X15.082 Y13.001 Z-1.073 I1.201 J0.953
X13.888 Y15.258 Z-1.183 I-1.344 J0.733
X12.278 Y13.281 Z-1.292 I-0.15 J-1.522
X14.724 Y12.571 Z-1.402 I1.458 J0.455
X14.424 Y15.097 Z-1.512 I-0.987 J1.163
X12.218 Y13.836 Z-1.622 I-0.685 J-1.361
X14.237 Y12.299 Z-1.732 I1.518 J-0.1
X14.863 Y14.755 Z-1.841 I-0.5 J1.435
X12.361 Y14.374 Z-1.951 I-1.125 J-1.019
X13.687 Y12.221 Z-2.061 I1.376 J-0.637
X15.149 Y14.279 Z-2.171 I0.05 J1.513
X12.687 Y14.822 Z-2.28 I-1.411 J-0.544
X13.148 Y12.346 Z-2.39 I1.05 J-1.085
X15.245 Y13.735 Z-2.5 I0.589 J1.389
X12.228 I-1.508 J0.
X15.245 I1.508 J0.
G1 X15.264 Y14.472 F500.
X15.286 Y14.562
X15.301 Y14.711
X15.289 Y14.861
X15.253 Y15.007
X15.198 Y15.146
X15.127 Y15.278
X15.041 Y15.401
X14.943 Y15.515
X14.834 Y15.618
X14.716 Y15.711
X14.591 Y15.793
X14.459 Y15.864
X14.32 Y15.924
X14.173 Y15.975
X14.02 Y16.014
X13.859 Y16.041
X13.694 Y16.056
X13.526 Y16.058
X13.355 Y16.046
X13.183 Y16.02
X13.012 Y15.979
X12.842 Y15.924
X12.676 Y15.856
X12.514 Y15.773
X12.358 Y15.677
X12.21 Y15.568
X12.069 Y15.446
X11.939 Y15.313
X11.818 Y15.17
X11.71 Y15.016
X11.613 Y14.853
X11.53 Y14.683
X11.46 Y14.506
X11.405 Y14.324
X11.364 Y14.137
X11.339 Y13.948
X11.328 Y13.756
X11.333 Y13.564
X11.354 Y13.373
X11.39 Y13.184
X11.441 Y12.998
X11.506 Y12.817
X11.587 Y12.641
X11.681 Y12.473
X11.788 Y12.312
X11.908 Y12.16
X12.04 Y12.019
X12.182 Y11.888
X12.335 Y11.769
X12.497 Y11.663
X12.667 Y11.571
X12.844 Y11.492
X13.027 Y11.427
X13.214 Y11.378
X13.405 Y11.343
X13.598 Y11.324
X13.792 Y11.321
X13.985 Y11.333
X14.177 Y11.361
X14.366 Y11.404
X14.551 Y11.462
X14.731 Y11.534
X14.904 Y11.621
X15.07 Y11.722
X15.227 Y11.835
X15.375 Y11.961
X15.512 Y12.098
X15.638 Y12.246
X15.751 Y12.403
X15.855 Y12.576
X15.967 Y12.798
X16.114 Y13.162
X16.221 Y13.506
X16.285 Y13.788
X16.322 Y14.044
X16.336 Y14.281
X16.332 Y14.504
X16.311 Y14.717
X16.274 Y14.924
X16.22 Y15.127
X16.15 Y15.324
X16.065 Y15.514
X15.965 Y15.697
X15.85 Y15.872
X15.721 Y16.039
X15.577 Y16.196
X15.419 Y16.343
X15.247 Y16.479
X15.063 Y16.602
X14.866 Y16.711
X14.658 Y16.806
X14.44 Y16.885
X14.214 Y16.947
X13.98 Y16.991
X13.74 Y17.016
X13.496 Y17.023
X13.25 Y17.009
X13.003 Y16.976
X12.757 Y16.922
X12.514 Y16.848
X12.276 Y16.754
X12.045 Y16.641
X11.822 Y16.509
X11.61 Y16.358
X11.409 Y16.189
X11.221 Y16.004
X11.048 Y15.804
X10.89 Y15.59
X10.75 Y15.362
X10.629 Y15.124
X10.526 Y14.875
X10.443 Y14.619
X10.382 Y14.356
X10.341 Y14.088
X10.322 Y13.817
X10.325 Y13.545
X10.349 Y13.274
X10.396 Y13.005
X10.464 Y12.741
X10.553 Y12.483
X10.662 Y12.232
X10.791 Y11.991
X10.94 Y11.76
X11.106 Y11.543
X11.29 Y11.339
X11.489 Y11.15
X11.703 Y10.978
X11.93 Y10.824
X12.169 Y10.689
X12.418 Y10.573
X12.676 Y10.477
X12.941 Y10.402
X13.21 Y10.349
X13.484 Y10.318
X13.759 Y10.308
X14.033 Y10.321
X14.306 Y10.356
X14.575 Y10.412
X14.839 Y10.49
X15.096 Y10.589
X15.344 Y10.708
X15.582 Y10.847
X15.808 Y11.004
X16.021 Y11.18
X16.228 Y11.38
X16.442 Y11.624
X16.644 Y11.894
X16.83 Y12.191
X16.995 Y12.508
X17.132 Y12.833
X17.24 Y13.159
X17.319 Y13.483
X17.37 Y13.803
X17.395 Y14.119
Y14.432
X17.369 Y14.739
X17.32 Y15.041
X17.247 Y15.335
X17.151 Y15.62
X17.033 Y15.896
X16.894 Y16.162
X16.733 Y16.416
X16.552 Y16.656
X16.352 Y16.883
X16.132 Y17.094
X15.895 Y17.288
X15.641 Y17.463
X15.371 Y17.619
X15.088 Y17.754
X14.791 Y17.867
X14.485 Y17.956
X14.169 Y18.021
X13.846 Y18.061
X13.519 Y18.075
X13.189 Y18.062
X12.859 Y18.023
X12.531 Y17.957
X12.208 Y17.864
X11.891 Y17.745
X11.582 Y17.6
X11.285 Y17.43
X11.001 Y17.235
X10.732 Y17.017
X10.48 Y16.778
X10.247 Y16.517
X10.035 Y16.238
X9.846 Y15.942
X9.68 Y15.63
X9.54 Y15.305
X9.426 Y14.969
X9.339 Y14.625
X9.28 Y14.273
X9.249 Y13.917
X9.246 Y13.56
X9.273 Y13.203
X9.328 Y12.848
X9.412 Y12.499
X9.523 Y12.157
X9.662 Y11.825
X9.826 Y11.505
X10.017 Y11.199
X10.231 Y10.909
X10.468 Y10.637
X10.726 Y10.385
X11.004 Y10.155
X11.299 Y9.947
X11.61 Y9.763
X11.935 Y9.605
X12.272 Y9.474
X12.618 Y9.37
X12.972 Y9.294
X13.33 Y9.247
X13.691 Y9.229
X14.053 Y9.24
X14.413 Y9.279
X14.768 Y9.348
X15.116 Y9.445
X15.456 Y9.569
X15.785 Y9.721
X16.104 Y9.899
X16.416 Y10.109
X16.719 Y10.351
X17.011 Y10.625
X17.288 Y10.929
X17.544 Y11.26
X17.774 Y11.614
X17.975 Y11.985
X18.145 Y12.37
X18.282 Y12.763
X18.387 Y13.163
X18.458 Y13.566
X18.496 Y13.97
X18.502 Y14.372
X18.476 Y14.77
X18.418 Y15.163
X18.33 Y15.547
X18.211 Y15.922
X18.063 Y16.285
X17.886 Y16.635
X17.682 Y16.969
X17.451 Y17.287
X17.195 Y17.586
X16.915 Y17.864
X16.612 Y18.12
X16.288 Y18.352
X15.944 Y18.559
X15.583 Y18.738
X15.206 Y18.889
X14.816 Y19.009
X14.415 Y19.099
X14.005 Y19.156
X13.59 Y19.18
X13.172 Y19.171
X12.754 Y19.129
X12.338 Y19.052
X11.927 Y18.942
X11.525 Y18.798
X11.134 Y18.622
X10.756 Y18.414
X10.395 Y18.175
X10.052 Y17.907
X9.731 Y17.611
X9.434 Y17.289
X9.163 Y16.944
X8.92 Y16.576
X8.706 Y16.19
X8.523 Y15.786
X8.374 Y15.368
X8.258 Y14.938
X8.176 Y14.5
X8.13 Y14.056
X8.12 Y13.609
X8.146 Y13.161
X8.208 Y12.717
X8.305 Y12.279
X8.437 Y11.849
X8.603 Y11.432
X8.803 Y11.028
X9.034 Y10.642
X9.296 Y10.275
X9.587 Y9.93
X9.904 Y9.61
X10.247 Y9.316
X10.612 Y9.05
X10.997 Y8.814
X11.4 Y8.61
X11.818 Y8.439
X12.249 Y8.302
X12.689 Y8.2
X13.136 Y8.133
X13.587 Y8.103
X14.04 Y8.109
X14.49 Y8.151
X14.935 Y8.23
X15.374 Y8.344
X15.804 Y8.493
X16.225 Y8.679
X16.634 Y8.9
X17.03 Y9.157
X17.411 Y9.45
X17.774 Y9.779
X18.114 Y10.142
X18.428 Y10.534
X18.711 Y10.954
X18.959 Y11.395
X19.171 Y11.854
X19.346 Y12.328
X19.481 Y12.812
X19.576 Y13.303
X19.631 Y13.797
X19.646 Y14.291
X19.622 Y14.782
X19.559 Y15.267
X19.457 Y15.744
X19.318 Y16.21
X19.142 Y16.663
X18.931 Y17.099
X18.685 Y17.517
X18.406 Y17.915
X18.096 Y18.289
X17.755 Y18.638
X17.387 Y18.96
X16.992 Y19.252
X16.574 Y19.513
X16.134 Y19.741
X15.675 Y19.933
X15.2 Y20.088
X14.712 Y20.206
X14.213 Y20.284
X13.707 Y20.322
X13.198 Y20.319
X12.687 Y20.276
X12.18 Y20.191
X11.679 Y20.065
X11.188 Y19.899
X10.71 Y19.693
X10.248 Y19.448
X9.805 Y19.166
X9.385 Y18.848
X8.991 Y18.497
X8.625 Y18.114
X8.291 Y17.701
X7.989 Y17.262
X7.723 Y16.799
X7.495 Y16.315
X7.306 Y15.814
X7.157 Y15.298
X7.051 Y14.77
X6.986 Y14.235
X6.965 Y13.696
X6.987 Y13.157
X7.053 Y12.62
X7.161 Y12.089
X7.312 Y11.569
X7.391 Y11.361
X7.415 Y11.305
X7.444 Y11.251
X7.477 Y11.199
X7.519 Y11.138
X7.623 Y10.971
X8.107 Y10.134
X8.457 Y9.591
X8.729 Y9.237
X9.046 Y8.886
X9.404 Y8.548
X9.8 Y8.231
X10.228 Y7.94
X10.685 Y7.682
X11.166 Y7.458
X11.668 Y7.273
X12.185 Y7.127
X12.715 Y7.023
X13.252 Y6.962
X13.794 Y6.944
X14.337 Y6.97
X14.878 Y7.039
X15.413 Y7.152
X15.94 Y7.309
X16.458 Y7.508
X16.962 Y7.751
X17.45 Y8.037
X17.919 Y8.365
X18.365 Y8.733
X18.784 Y9.14
X19.173 Y9.582
X19.527 Y10.058
X19.843 Y10.563
X20.118 Y11.092
X20.35 Y11.642
X20.375 Y11.72
X20.396 Y11.796
X20.408 Y11.874
X20.413 Y11.952
Y15.493
X20.392 Y15.908
X20.346 Y16.259
X20.27 Y16.614
X20.152 Y17.009
X19.987 Y17.431
X19.776 Y17.866
X19.525 Y18.293
X19.23 Y18.713
X18.887 Y19.126
X18.501 Y19.521
X18.076 Y19.892
X17.616 Y20.232
X17.506 Y20.301
X17.384 Y20.362
X17.252 Y20.4
X17.115 Y20.413
G3 X16.809 Y20.084 Z-2.3 I0.011 J-0.317
G1 X16.816 Y20.028
X16.833 Y19.973
X16.859 Y19.923
X16.901 Y19.858
X19.829 Y15.332
G3 X20.084 Y15.187 I0.267 J0.172
X20.413 Y15.493 Z-2.5 I0.011 J0.317
G1 Y17.838
X20.401 Y18.063
X20.377 Y18.246
X20.331 Y18.462
X20.259 Y18.704
X20.158 Y18.961
X20.016 Y19.255
X19.835 Y19.563
X19.604 Y19.891
X19.393 Y20.145
X19.233 Y20.289
X19.037 Y20.381
X18.823 Y20.413
G3 X18.517 Y20.084 Z-2.3 I0.011 J-0.317
G1 X18.523 Y20.034
X18.536 Y19.986
X18.557 Y19.94
X18.605 Y19.855
X19.818 Y17.694
G3 X20.084 Y17.532 I0.277 J0.155
X20.413 Y17.838 Z-2.5 I0.011 J0.317
G1 Y19.513
X20.404 Y19.683
X20.384 Y19.835
X20.314 Y20.022
X20.197 Y20.183
X20.042 Y20.307
X19.858 Y20.386
X19.661 Y20.413
G3 X19.355 Y20.084 Z-2.3 I0.011 J-0.317
G1 X19.364 Y20.021
X19.385 Y19.961
X19.417 Y19.906
X19.451 Y19.861
X19.84 Y19.335
G3 X20.084 Y19.207 I0.255 J0.189
X20.413 Y19.513 Z-2.5 I0.011 J0.317
G1 Y20.016
X20.412 Y20.1
X20.406 Y20.141
X20.395 Y20.183 F450.
X20.377 Y20.225 F500.
X20.351 Y20.266
X20.309 Y20.314
X20.266 Y20.351
X20.225 Y20.377
X20.183 Y20.395 F450.
X20.141 Y20.406 F500.
X20.1 Y20.412
X19.848 Y20.413
X10.804
X10.548 Y20.4
X10.336 Y20.372
X10.093 Y20.32
X9.824 Y20.239
X9.528 Y20.124
X9.214 Y19.972
X8.861 Y19.764
X8.514 Y19.52
X8.154 Y19.221
X7.786 Y18.862
X7.427 Y18.45
X7.087 Y17.992
X6.777 Y17.492
X6.502 Y16.96
X6.267 Y16.399
X6.076 Y15.814
X5.932 Y15.211
X5.835 Y14.592
X5.788 Y13.965
X5.792 Y13.334
X5.846 Y12.702
X5.867 Y12.578
X5.932 Y12.376
X6.051 Y12.201
X6.215 Y12.067
X6.41 Y11.984
X6.441 Y11.976
X6.616 Y11.907
X6.813 Y11.808
X7.012 Y11.675
X7.062 Y11.641
X7.119 Y11.593
X7.248 Y11.473
X7.4 Y11.306
X7.477 Y11.199
G3 X7.922 Y11.137 Z-2.3 I0.253 J0.191
G1 X7.967 Y11.179
X8.004 Y11.229
X8.03 Y11.285
X8.051 Y11.343
X11.042 Y19.847
X11.092 Y19.99
X11.104 Y20.036
X11.11 Y20.084
G3 X10.804 Y20.413 Z-2.5 I-0.317 J0.011
G1 X8.961
X8.811 Y20.405
X8.641 Y20.382
X8.465 Y20.345
X8.254 Y20.281
X8.035 Y20.195
X7.786 Y20.074
X7.521 Y19.918
X7.228 Y19.711
X6.933 Y19.466
X6.606 Y19.146
X6.281 Y18.773
X5.97 Y18.351
X5.662 Y17.855
X5.376 Y17.298
X5.123 Y16.692
X4.914 Y16.047
X4.753 Y15.372
X4.645 Y14.676
X4.593 Y13.964
X4.596 Y13.483
X4.626 Y13.143
X4.669 Y12.886
X4.729 Y12.652
X4.75 Y12.589
X4.856 Y12.388
X5.017 Y12.228
X5.22 Y12.125
X5.444 Y12.087
X5.611 Y12.086
X6.103 Y12.06
X6.281 Y12.018
X6.41 Y11.984
G3 X6.782 Y12.198 Z-2.311 I0.07 J0.31
G1 X6.791 Y12.224 Z-2.3
X6.866 Y12.46
X9.204 Y19.845
X9.253 Y19.999
X9.263 Y20.041
X9.267 Y20.084
G3 X8.961 Y20.413 Z-2.5 I-0.317 J0.011
G1 X7.454
X7.304 Y20.405
X7.154 Y20.384
X6.985 Y20.345
X6.809 Y20.29
X6.6 Y20.206
X6.391 Y20.102
X6.148 Y19.955
X5.904 Y19.779
X5.622 Y19.539
X5.352 Y19.27
X5.05 Y18.915
X4.748 Y18.497
X4.463 Y18.027
X4.182 Y17.467
X3.926 Y16.833
X3.709 Y16.142
X3.546 Y15.422
X3.445 Y14.739
X3.406 Y14.14
X3.413 Y13.663
X3.445 Y13.324
X3.499 Y13.02
X3.556 Y12.802
X3.632 Y12.584
X3.657 Y12.529
X3.77 Y12.348
X3.93 Y12.207
X4.124 Y12.118
X4.335 Y12.087
X5.444
G3 X5.743 Y12.325 Z-2.336 I-0.008 J0.317
G1 X5.766 Y12.411 Z-2.3
X5.828 Y12.651
X7.705 Y19.843
X7.75 Y20.015
X7.76 Y20.084
G3 X7.454 Y20.413 Z-2.5 I-0.317 J0.011
G1 X6.114
X5.937 Y20.404
X5.788 Y20.384
X5.642 Y20.352
X5.473 Y20.301
X5.286 Y20.227
X5.092 Y20.132
X4.865 Y19.997
X4.643 Y19.839
X4.385 Y19.623
X4.136 Y19.377
X3.855 Y19.053
X3.574 Y18.669
X3.298 Y18.221
X3.015 Y17.667
X2.752 Y17.029
X2.53 Y16.339
X2.365 Y15.636
X2.265 Y14.973
X2.223 Y14.382
X2.229 Y13.869
X2.267 Y13.442
X2.322 Y13.129
X2.393 Y12.85
X2.465 Y12.643
X2.513 Y12.532
X2.626 Y12.35
X2.787 Y12.208
X2.98 Y12.118
X3.192 Y12.087
X4.335
G3 X4.633 Y12.333 Z-2.333 I-0.011 J0.317
G1 X4.652 Y12.414 Z-2.3
X4.708 Y12.656
X6.37 Y19.841
X6.412 Y20.024
X6.42 Y20.084
G3 X6.114 Y20.413 Z-2.5 I-0.317 J0.011
G1 X4.774
X4.614 Y20.405
X4.465 Y20.385
X4.318 Y20.352
X4.15 Y20.299
X3.98 Y20.23
X3.78 Y20.13
X3.58 Y20.009
X3.351 Y19.843
X3.121 Y19.648
X2.861 Y19.388
X2.608 Y19.09
X2.321 Y18.692
X2.057 Y18.256
X1.789 Y17.721
X1.537 Y17.096
X1.327 Y16.422
X1.172 Y15.739
X1.077 Y15.078
X1.039 Y14.461
X1.049 Y13.931
X1.093 Y13.486
X1.154 Y13.148
X1.232 Y12.856
X1.307 Y12.643
X1.359 Y12.526
X1.472 Y12.347
X1.632 Y12.207
X1.825 Y12.118
X2.035 Y12.087
X3.192
G3 X3.492 Y12.341 Z-2.33 I-0.011 J0.317
G1 X3.507 Y12.415 Z-2.3
X3.557 Y12.658
X5.034 Y19.84
X5.074 Y20.031
X5.08 Y20.084
G3 X4.774 Y20.413 Z-2.5 I-0.317 J0.011
G1 X3.434
X3.284 Y20.405
X3.136 Y20.381
X2.982 Y20.341
X2.822 Y20.285
X2.644 Y20.207
X2.443 Y20.099
X2.243 Y19.968
X2.011 Y19.79
X1.786 Y19.586
X1.528 Y19.312
X1.278 Y18.999
X1.011 Y18.603
X0.734 Y18.113
X0.493 Y17.59
X0.268 Y16.978
X0.081 Y16.308
X-0.053 Y15.618
X-0.128 Y14.949
X-0.147 Y14.341
X-0.122 Y13.829
X-0.064 Y13.384
X0.006 Y13.055
X0.086 Y12.786
X0.168 Y12.574
X0.201 Y12.506
X0.317 Y12.334
X0.475 Y12.201
X0.663 Y12.116
X0.868 Y12.087
X2.035
G3 X2.337 Y12.348 Z-2.327 I-0.011 J0.317
G1 X2.349 Y12.415 Z-2.3
X2.393 Y12.659
X3.699 Y19.84
X3.735 Y20.038
X3.74 Y20.084
G3 X3.434 Y20.413 Z-2.5 I-0.317 J0.011
G1 X2.169
X2.019 Y20.405
X1.871 Y20.381
X1.726 Y20.343
X1.558 Y20.285
X1.391 Y20.212
X1.198 Y20.107
X0.998 Y19.978
X0.779 Y19.81
X0.546 Y19.599
X0.302 Y19.339
X0.057 Y19.033
X-0.211 Y18.636
X-0.453 Y18.207
X-0.696 Y17.681
X-0.922 Y17.069
X-1.108 Y16.404
X-1.241 Y15.721
X-1.316 Y15.059
X-1.335 Y14.434
X-1.308 Y13.877
X-1.249 Y13.42
X-1.178 Y13.085
X-1.092 Y12.796
X-1.01 Y12.585
X-0.972 Y12.506
X-0.857 Y12.334
X-0.698 Y12.201
X-0.51 Y12.116
X-0.305 Y12.087
X0.868
G3 X1.17 Y12.352 Z-2.326 I-0.011 J0.317
G1 X1.181 Y12.415 Z-2.3
X1.222 Y12.66
X2.437 Y19.839
X2.471 Y20.042
X2.475 Y20.084
G3 X2.169 Y20.413 Z-2.5 I-0.317 J0.011
G1 X0.921
X0.771 Y20.405
X0.623 Y20.381
X0.478 Y20.343
X0.313 Y20.286
X0.149 Y20.214
X-0.045 Y20.109
X-0.24 Y19.983
X-0.459 Y19.815
X-0.676 Y19.618
X-0.921 Y19.357
X-1.153 Y19.067
X-1.414 Y18.681
X-1.656 Y18.253
X-1.892 Y17.741
X-2.113 Y17.142
X-2.296 Y16.486
X-2.429 Y15.805
X-2.505 Y15.129
X-2.525 Y14.491
X-2.497 Y13.921
X-2.436 Y13.447
X-2.362 Y13.101
X-2.274 Y12.805
X-2.191 Y12.591
X-2.15 Y12.506
X-2.034 Y12.334
X-1.876 Y12.201
X-1.687 Y12.116
X-1.483 Y12.087
X-0.305
G3 X-0.002 Y12.355 Z-2.324 I-0.011 J0.317
G1 X0.007 Y12.415 Z-2.3
X0.046 Y12.66
X1.191 Y19.839
X1.224 Y20.045
X1.227 Y20.084
G3 X0.921 Y20.413 Z-2.5 I-0.317 J0.011
G1 X-0.343
X-0.493 Y20.405
X-0.641 Y20.378
X-0.789 Y20.337
X-0.948 Y20.279
X-1.118 Y20.201
X-1.313 Y20.092
X-1.504 Y19.963
X-1.726 Y19.787
X-1.939 Y19.588
X-2.182 Y19.321
X-2.414 Y19.021
X-2.661 Y18.641
X-2.913 Y18.176
X-3.133 Y17.679
X-3.341 Y17.085
X-3.514 Y16.426
X-3.637 Y15.736
X-3.702 Y15.05
X-3.712 Y14.404
X-3.675 Y13.843
X-3.608 Y13.382
X-3.531 Y13.046
X-3.442 Y12.764
X-3.355 Y12.552
X-3.326 Y12.495
X-3.211 Y12.327
X-3.053 Y12.198
X-2.867 Y12.116
X-2.665 Y12.087
X-1.483
G3 X-1.18 Y12.358 Z-2.323 I-0.011 J0.317
G1 X-1.171 Y12.415 Z-2.3
X-1.135 Y12.661
X-0.072 Y19.839
X-0.04 Y20.049
X-0.037 Y20.084
G3 X-0.343 Y20.413 Z-2.5 I-0.317 J0.011
G1 X-1.516
X-1.666 Y20.405
X-1.814 Y20.384
X-1.96 Y20.35
X-2.118 Y20.298
X-2.278 Y20.23
X-2.458 Y20.137
X-2.65 Y20.016
X-2.852 Y19.866
X-3.074 Y19.671
X-3.298 Y19.44
X-3.531 Y19.157
X-3.777 Y18.804
X-4.005 Y18.413
X-4.243 Y17.919
X-4.465 Y17.343
X-4.644 Y16.737
X-4.786 Y16.065
X-4.875 Y15.361
X-4.907 Y14.676
X-4.887 Y14.09
X-4.828 Y13.575
X-4.75 Y13.177
X-4.663 Y12.867
X-4.577 Y12.637
X-4.521 Y12.516
X-4.407 Y12.34
X-4.248 Y12.204
X-4.057 Y12.117
X-3.849 Y12.087
X-2.665
G3 X-2.362 Y12.358 Z-2.323 I-0.011 J0.317
G1 X-2.353 Y12.415 Z-2.3
X-2.317 Y12.661
X-1.244 Y19.839
X-1.213 Y20.048
X-1.21 Y20.084
G3 X-1.516 Y20.413 Z-2.5 I-0.317 J0.011
G1 X-2.764
X-2.913 Y20.405
X-3.062 Y20.382
X-3.209 Y20.344
X-3.357 Y20.292
X-3.527 Y20.217
X-3.707 Y20.12
X-3.899 Y19.996
X-4.104 Y19.839
X-4.318 Y19.645
X-4.544 Y19.404
X-4.78 Y19.109
X-5.014 Y18.763
X-5.259 Y18.329
X-5.48 Y17.851
X-5.684 Y17.298
X-5.863 Y16.657
X-5.999 Y15.963
X-6.077 Y15.269
X-6.098 Y14.601
X-6.068 Y13.995
X-6.005 Y13.502
X-5.926 Y13.13
X-5.834 Y12.822
X-5.749 Y12.603
X-5.702 Y12.506
X-5.587 Y12.334
X-5.429 Y12.201
X-5.24 Y12.116
X-5.035 Y12.087
X-3.849
G3 X-3.546 Y12.36 Z-2.322 I-0.011 J0.317
G1 X-3.538 Y12.415 Z-2.3
X-3.503 Y12.661
X-2.49 Y19.838
X-2.46 Y20.051
X-2.457 Y20.084
G3 X-2.764 Y20.413 Z-2.5 I-0.317 J0.011
G1 X-3.936
X-4.093 Y20.405
X-4.242 Y20.385
X-4.388 Y20.351
X-4.541 Y20.301
X-4.7 Y20.235
X-4.883 Y20.14
X-5.062 Y20.028
X-5.272 Y19.873
X-5.476 Y19.695
X-5.708 Y19.457
X-5.925 Y19.195
X-6.165 Y18.853
X-6.396 Y18.461
X-6.619 Y18.
X-6.838 Y17.439
X-7.027 Y16.806
X-7.169 Y16.142
X-7.259 Y15.447
X-7.293 Y14.764
X-7.275 Y14.16
X-7.215 Y13.62
X-7.135 Y13.21
X-7.045 Y12.888
X-6.959 Y12.654
X-6.898 Y12.52
X-6.763 Y12.317
X-6.573 Y12.164
X-6.346 Y12.076
X-6.103 Y12.06
X-5.611 Y12.086
X-5.444 Y12.087
X-5.035
G3 X-4.732 Y12.36 Z-2.322 I-0.011 J0.317
G1 X-4.724 Y12.415 Z-2.3
X-4.689 Y12.661
X-3.663 Y19.838
X-3.633 Y20.05
X-3.63 Y20.084
G3 X-3.936 Y20.413 Z-2.5 I-0.317 J0.011
G1 X-5.201
X-5.351 Y20.405
X-5.499 Y20.38
X-5.643 Y20.342
X-5.791 Y20.289
X-5.965 Y20.211
X-6.138 Y20.116
X-6.335 Y19.987
X-6.532 Y19.833
X-6.751 Y19.631
X-6.966 Y19.4
X-7.207 Y19.093
X-7.428 Y18.76
X-7.668 Y18.328
X-7.897 Y17.823
X-8.092 Y17.281
X-8.264 Y16.647
X-8.394 Y15.955
X-8.467 Y15.257
X-8.483 Y14.579
X-8.449 Y13.972
X-8.382 Y13.482
X-8.301 Y13.115
X-8.204 Y12.8
X-8.118 Y12.581
X-8.011 Y12.364
X-7.904 Y12.185
X-7.799 Y12.038
X-7.774 Y12.008
X-7.618 Y11.866
X-7.43 Y11.77
X-7.223 Y11.727
X-7.013 Y11.74
X-6.813 Y11.808
X-6.616 Y11.907
X-6.441 Y11.976
X-6.281 Y12.018
X-6.103 Y12.06
G3 X-5.872 Y12.326 Z-2.35 I-0.084 J0.306
G1 X-5.856 Y12.45 Z-2.3
X-5.825 Y12.696
X-4.924 Y19.838
X-4.897 Y20.055
X-4.895 Y20.084
G3 X-5.201 Y20.413 Z-2.5 I-0.317 J0.011
G1 X-6.373
X-6.523 Y20.405
X-6.672 Y20.384
X-6.817 Y20.349
X-6.972 Y20.297
X-7.13 Y20.229
X-7.312 Y20.133
X-7.491 Y20.019
X-7.7 Y19.862
X-7.901 Y19.683
X-8.133 Y19.441
X-8.35 Y19.174
X-8.587 Y18.83
X-8.816 Y18.434
X-9.034 Y17.973
X-9.247 Y17.412
X-9.431 Y16.776
X-9.567 Y16.108
X-9.652 Y15.409
X-9.68 Y14.726
X-9.657 Y14.125
X-9.591 Y13.583
X-9.5 Y13.135
X-9.389 Y12.746
X-9.265 Y12.419
X-9.143 Y12.161
X-9.02 Y11.947
X-8.899 Y11.77
X-8.764 Y11.604
X-8.64 Y11.475
X-8.497 Y11.347
X-8.36 Y11.243
X-8.315 Y11.214
X-8.127 Y11.129
X-7.922 Y11.098
X-7.717 Y11.126
X-7.528 Y11.209
X-7.369 Y11.341
X-7.248 Y11.473
X-7.119 Y11.593
X-7.062 Y11.641
X-6.88 Y11.764
X-6.813 Y11.808
G3 X-6.682 Y12.042 Z-2.389 I-0.185 J0.258
G1 X-6.665 Y12.263 Z-2.3
X-6.646 Y12.511
X-6.086 Y19.837
X-6.068 Y20.071
X-6.067 Y20.084
G3 X-6.373 Y20.413 Z-2.5 I-0.317 J0.011
G1 X-7.621
X-7.771 Y20.405
X-7.919 Y20.379
X-8.065 Y20.339
X-8.213 Y20.285
X-8.386 Y20.206
X-8.56 Y20.109
X-8.755 Y19.979
X-8.953 Y19.821
X-9.17 Y19.619
X-9.385 Y19.384
X-9.624 Y19.076
X-9.843 Y18.741
X-10.08 Y18.306
X-10.304 Y17.803
X-10.496 Y17.256
X-10.665 Y16.617
X-10.789 Y15.923
X-10.858 Y15.225
X-10.869 Y14.545
X-10.829 Y13.914
X-10.748 Y13.352
X-10.638 Y12.871
X-10.503 Y12.441
X-10.352 Y12.068
X-10.191 Y11.747
X-10.014 Y11.456
X-9.833 Y11.205
X-9.666 Y11.01
X-9.494 Y10.838
X-9.344 Y10.711
X-9.175 Y10.589
X-9.022 Y10.497
X-8.872 Y10.422
X-8.708 Y10.356
X-8.656 Y10.339
X-8.459 Y10.306
X-8.261 Y10.327
X-8.075 Y10.399
X-7.915 Y10.519
X-7.793 Y10.676
X-7.621 Y10.975
X-7.519 Y11.138
X-7.454 Y11.232
X-7.4 Y11.306
X-7.369 Y11.341
X-7.336 Y11.386 Z-2.478
X-7.313 Y11.437 Z-2.455
X-7.298 Y11.491 Z-2.433
X-7.293 Y11.547 Z-2.41
X-7.294 Y11.821 Z-2.3
X-7.295 Y12.069
X-7.314 Y19.836
X-7.315 Y20.084
Y20.096 Z-2.305
G3 X-7.621 Y20.413 Z-2.5 I-0.317 J-0.001
G1 X-8.794
X-8.943 Y20.405
X-9.092 Y20.382
X-9.237 Y20.346
X-9.393 Y20.291
X-9.551 Y20.222
X-9.734 Y20.123
X-9.913 Y20.007
X-10.122 Y19.847
X-10.323 Y19.665
X-10.554 Y19.419
X-10.77 Y19.149
X-11.006 Y18.801
X-11.232 Y18.4
X-11.448 Y17.934
X-11.656 Y17.368
X-11.835 Y16.728
X-11.967 Y16.053
X-12.046 Y15.351
X-12.069 Y14.641
X-12.036 Y13.974
X-11.956 Y13.357
X-11.835 Y12.787
X-11.681 Y12.269
X-11.498 Y11.796
X-11.3 Y11.388
X-11.091 Y11.03
X-10.871 Y10.717
X-10.643 Y10.441
X-10.416 Y10.208
X-10.183 Y10.004
X-9.977 Y9.851
X-9.763 Y9.717
X-9.583 Y9.624
X-9.394 Y9.545
X-9.218 Y9.487
X-9.051 Y9.448
X-8.829 Y9.446
X-8.617 Y9.511
X-8.433 Y9.635
X-8.294 Y9.809
X-7.793 Y10.676
X-7.77 Y10.732 Z-2.476
X-7.758 Y10.79 Z-2.452
X-7.757 Y10.85 Z-2.428
X-7.782 Y11.168 Z-2.3
X-7.802 Y11.415
X-8.466 Y19.837
X-8.485 Y20.084
X-8.488 Y20.12 Z-2.314
G3 X-8.794 Y20.413 Z-2.5 I-0.317 J-0.025
G1 X-9.966
X-10.117 Y20.405
X-10.266 Y20.385
X-10.412 Y20.351
X-10.559 Y20.303
X-10.717 Y20.236
X-10.896 Y20.143
X-11.075 Y20.032
X-11.28 Y19.88
X-11.478 Y19.706
X-11.702 Y19.476
X-11.918 Y19.215
X-12.151 Y18.882
X-12.382 Y18.488
X-12.6 Y18.038
X-12.812 Y17.489
X-12.999 Y16.861
X-13.141 Y16.194
X-13.232 Y15.488
X-13.268 Y14.754
X-13.244 Y14.027
X-13.166 Y13.335
X-13.04 Y12.688
X-12.873 Y12.091
X-12.671 Y11.542
X-12.439 Y11.042
X-12.184 Y10.59
X-11.913 Y10.189
X-11.639 Y9.846
X-11.357 Y9.548
X-11.074 Y9.292
X-10.791 Y9.074
X-10.518 Y8.897
X-10.294 Y8.776
X-10.061 Y8.674
X-9.863 Y8.605
X-9.68 Y8.558
X-9.588 Y8.542
X-9.362 Y8.537
X-9.146 Y8.6
X-8.959 Y8.725
X-8.818 Y8.901
X-8.294 Y9.809
X-8.269 Y9.87 Z-2.473
X-8.258 Y9.935 Z-2.447
X-8.26 Y10.001 Z-2.42
X-8.301 Y10.298 Z-2.3
X-8.335 Y10.544
X-9.621 Y19.839
X-9.655 Y20.085
X-9.663 Y20.139 Z-2.322
G3 X-9.966 Y20.413 Z-2.5 I-0.315 J-0.044
G1 X-11.231
X-11.38 Y20.405
X-11.528 Y20.378
X-11.672 Y20.337
X-11.824 Y20.281
X-11.997 Y20.2
X-12.169 Y20.103
X-12.369 Y19.967
X-12.562 Y19.811
X-12.784 Y19.602
X-12.994 Y19.369
X-13.23 Y19.06
X-13.453 Y18.713
X-13.682 Y18.286
X-13.909 Y17.766
X-14.102 Y17.206
X-14.264 Y16.574
X-14.386 Y15.861
X-14.453 Y15.126
X-14.463 Y14.389
X-14.417 Y13.652
X-14.314 Y12.921
X-14.158 Y12.22
X-13.954 Y11.56
X-13.708 Y10.944
X-13.428 Y10.379
X-13.124 Y9.873
X-12.808 Y9.43
X-12.477 Y9.039
X-12.135 Y8.694
X-11.795 Y8.403
X-11.463 Y8.161
X-11.151 Y7.971
X-10.883 Y7.835
X-10.62 Y7.728
X-10.407 Y7.66
X-10.207 Y7.614
X-10.11 Y7.6
X-9.89
X-9.68 Y7.666
X-9.498 Y7.79
X-9.361 Y7.962
X-8.818 Y8.901
X-8.797 Y8.951 Z-2.478
X-8.785 Y9.003 Z-2.457
X-8.781 Y9.057 Z-2.435
X-8.787 Y9.111 Z-2.413
X-8.841 Y9.388 Z-2.3
X-8.888 Y9.632
X-10.869 Y19.842
X-10.916 Y20.085
X-10.93 Y20.156 Z-2.329
G3 X-11.231 Y20.413 Z-2.5 I-0.312 J-0.06
G1 X-12.311 Y20.412
X-12.478 Y20.398
X-12.649 Y20.376
X-12.795 Y20.344
X-12.946 Y20.296
X-13.099 Y20.234
X-13.272 Y20.147
X-13.451 Y20.037
X-13.645 Y19.897
X-13.85 Y19.721
X-14.064 Y19.506
X-14.288 Y19.241
X-14.521 Y18.915
X-14.741 Y18.55
X-14.969 Y18.09
X-15.181 Y17.561
X-15.361 Y16.978
X-15.514 Y16.294
X-15.617 Y15.564
X-15.663 Y14.827
X-15.656 Y14.09
X-15.598 Y13.354
X-15.488 Y12.624
X-15.325 Y11.905
X-15.107 Y11.2
X-14.837 Y10.515
X-14.529 Y9.888
X-14.188 Y9.315
X-13.819 Y8.794
X-13.429 Y8.329
X-13.027 Y7.921
X-12.624 Y7.573
X-12.247 Y7.297
X-11.888 Y7.076
X-11.55 Y6.904
X-11.277 Y6.791
X-11.02 Y6.708
X-10.815 Y6.66
X-10.668 Y6.638
X-10.447
X-10.236 Y6.703
X-10.054 Y6.827
X-9.916 Y7.
X-9.361 Y7.962
X-9.338 Y8.015 Z-2.477
X-9.326 Y8.07 Z-2.454
X-9.324 Y8.128 Z-2.431
X-9.332 Y8.184 Z-2.408
X-9.394 Y8.447 Z-2.3
X-9.451 Y8.688
X-12.084 Y19.855
X-12.141 Y20.097
X-12.155 Y20.154 Z-2.323
G3 X-12.478 Y20.398 Z-2.5 I-0.309 J-0.073
G1 X-12.813 Y20.37
X-13.024 Y20.351
X-13.818 Y20.273
X-13.967 Y20.25
X-14.113 Y20.216
X-14.26 Y20.165
X-14.411 Y20.1
X-14.578 Y20.011
X-14.757 Y19.896
X-14.943 Y19.755
X-15.149 Y19.57
X-15.353 Y19.355
X-15.576 Y19.079
X-15.795 Y18.759
X-16.012 Y18.378
X-16.239 Y17.894
X-16.431 Y17.381
X-16.608 Y16.76
X-16.751 Y16.044
X-16.837 Y15.311
X-16.87 Y14.574
X-16.853 Y13.836
X-16.788 Y13.101
X-16.675 Y12.372
X-16.512 Y11.653
X-16.3 Y10.946
X-16.039 Y10.256
X-15.73 Y9.586
X-15.372 Y8.941
X-14.966 Y8.328
X-14.53 Y7.771
X-14.075 Y7.278
X-13.632 Y6.869
X-13.193 Y6.525
X-12.77 Y6.245
X-12.373 Y6.025
X-12.037 Y5.874
X-11.739 Y5.767
X-11.499 Y5.702
X-11.281 Y5.662
X-11.199 Y5.653
X-10.987 Y5.662
X-10.786 Y5.731
X-10.613 Y5.853
X-10.482 Y6.02
X-9.916 Y7.
X-9.893 Y7.056 Z-2.476
X-9.881 Y7.115 Z-2.451
X-9.88 Y7.176 Z-2.427
X-9.891 Y7.235 Z-2.403
X-9.96 Y7.482 Z-2.3
X-10.027 Y7.721
X-13.407 Y19.738
X-13.475 Y19.977
X-13.493 Y20.042 Z-2.327
G3 X-13.818 Y20.273 Z-2.5 I-0.306 J-0.086
G1 X-13.986 Y20.256
X-14.07 Y20.242
X-15.493 Y19.81
X-15.661 Y19.728
X-15.996 Y19.549
X-16.124 Y19.471
X-16.295 Y19.346
X-16.462 Y19.201
X-16.646 Y19.013
X-16.834 Y18.787
X-17.03 Y18.511
X-17.228 Y18.176
X-17.429 Y17.763
X-17.613 Y17.294
X-17.789 Y16.71
X-17.936 Y16.031
X-18.034 Y15.299
X-18.076 Y14.563
X-18.066 Y13.825
X-18.009 Y13.089
X-17.906 Y12.359
X-17.758 Y11.636
X-17.566 Y10.924
X-17.33 Y10.225
X-17.05 Y9.542
X-16.728 Y8.878
X-16.362 Y8.237
X-15.951 Y7.624
X-15.497 Y7.043
X-15.009 Y6.507
X-14.515 Y6.047
X-14.02 Y5.653
X-13.54 Y5.332
X-13.096 Y5.083
X-12.706 Y4.904
X-12.4 Y4.793
X-12.117 Y4.715
X-11.9 Y4.673
X-11.777 Y4.66
X-11.564 Y4.668
X-11.362 Y4.736
X-11.188 Y4.859
X-11.056 Y5.026
X-10.482 Y6.02
G3 X-10.466 Y6.284 Z-2.39 I-0.28 J0.149
G1 X-10.548 Y6.494 Z-2.3
X-10.638 Y6.726
X-15.48 Y19.173
X-15.56 Y19.379
X-15.571 Y19.404
G3 X-15.996 Y19.549 Z-2.5 I-0.285 J-0.14
G1 X-16.833 Y19.101
X-16.898 Y19.063
X-17.001 Y18.98
X-17.78 Y18.341
X-17.996 Y18.144
X-18.139 Y17.992
X-18.285 Y17.809
X-18.449 Y17.564
X-18.601 Y17.296
X-18.763 Y16.944
X-18.911 Y16.538
X-19.056 Y16.017
X-19.168 Y15.438
X-19.246 Y14.741
X-19.268 Y14.003
X-19.237 Y13.266
X-19.159 Y12.532
X-19.038 Y11.805
X-18.874 Y11.085
X-18.67 Y10.376
X-18.427 Y9.68
X-18.144 Y8.998
X-17.82 Y8.335
X-17.455 Y7.694
X-17.051 Y7.077
X-16.607 Y6.487
X-16.125 Y5.929
X-15.604 Y5.407
X-15.052 Y4.933
X-14.505 Y4.534
X-14.018 Y4.236
X-13.567 Y4.007
X-13.177 Y3.847
X-12.864 Y3.748
X-12.607 Y3.688
X-12.381 Y3.654
X-12.328 Y3.651
X-12.123 Y3.666
X-11.93 Y3.736
X-11.763 Y3.857
X-11.637 Y4.02
X-11.056 Y5.026
G3 X-11.05 Y5.314 Z-2.38 I-0.28 J0.149
G1 X-11.137 Y5.494 Z-2.3
X-11.246 Y5.717
X-17.221 Y18.061
X-17.301 Y18.227
X-17.335 Y18.281
G3 X-17.78 Y18.341 Z-2.5 I-0.252 J-0.193
G1 X-18.006 Y18.155
X-18.092 Y18.081
X-18.173 Y17.984
X-19.011 Y16.963
X-19.063 Y16.898
X-19.101 Y16.833
X-19.728 Y15.661
X-19.81 Y15.493
X-20.115 Y14.488
X-20.202 Y14.142
X-20.269 Y13.736
X-20.308 Y13.265
X-20.31 Y12.684
X-20.256 Y11.975
X-20.14 Y11.247
X-19.975 Y10.528
X-19.767 Y9.82
X-19.519 Y9.125
X-19.233 Y8.444
X-18.909 Y7.782
X-18.546 Y7.139
X-18.147 Y6.519
X-17.712 Y5.923
X-17.241 Y5.355
X-16.736 Y4.817
X-16.196 Y4.314
X-15.622 Y3.85
X-15.053 Y3.461
X-14.524 Y3.158
X-14.073 Y2.945
X-13.68 Y2.798
X-13.375 Y2.71
X-13.124 Y2.66
X-12.894 Y2.633
X-12.694 Y2.652
X-12.507 Y2.725
X-12.347 Y2.844
X-12.224 Y3.003
X-11.637 Y4.02
G3 X-11.666 Y4.363 Z-2.354 I-0.28 J0.149
G1 X-11.748 Y4.469 Z-2.3
X-11.9 Y4.666
X-19.525 Y14.53
X-19.563 Y14.58
X-19.606 Y14.625
X-19.656 Y14.661
X-19.712 Y14.686
G3 X-20.115 Y14.488 Z-2.5 I-0.102 J-0.301
G1 X-20.242 Y14.07
X-20.256 Y13.986
X-20.355 Y12.981
X-20.37 Y12.813
X-20.412 Y12.311
X-20.413 Y10.636
Y9.296
X-20.399 Y9.029
X-20.353 Y8.678
X-20.271 Y8.294
X-20.125 Y7.805
X-19.908 Y7.248
X-19.598 Y6.61
X-19.224 Y5.974
X-18.806 Y5.366
X-18.35 Y4.786
X-17.861 Y4.234
X-17.339 Y3.712
X-16.785 Y3.225
X-16.199 Y2.776
X-15.612 Y2.393
X-15.06 Y2.093
X-14.599 Y1.888
X-14.207 Y1.751
X-13.907 Y1.672
X-13.661 Y1.628
X-13.525 Y1.615
X-13.315 Y1.625
X-13.115 Y1.694
X-12.943 Y1.817
X-12.813 Y1.982
X-12.224 Y3.003
G3 X-12.305 Y3.399 Z-2.324 I-0.28 J0.149
G1 X-12.352 Y3.437 Z-2.3
X-12.545 Y3.593
X-19.862 Y9.505
X-19.896 Y9.532
X-19.953 Y9.569
X-20.017 Y9.593
X-20.084 Y9.602
G3 X-20.413 Y9.296 Z-2.5 I-0.011 J-0.317
G1 Y6.951
X-20.396 Y6.625
X-20.367 Y6.4
X-20.307 Y6.122
X-20.214 Y5.812
X-20.071 Y5.443
X-19.867 Y5.023
X-19.57 Y4.519
X-19.172 Y3.953
X-18.701 Y3.385
X-18.188 Y2.854
X-17.64 Y2.36
X-17.06 Y1.905
X-16.449 Y1.491
X-15.873 Y1.162
X-15.366 Y0.924
X-14.932 Y0.761
X-14.598 Y0.665
X-14.335 Y0.612
X-14.097 Y0.584
X-14.069 Y0.583
X-13.864 Y0.604
X-13.672 Y0.681
X-13.509 Y0.808
X-13.388 Y0.975
X-13.327 Y1.089
X-13.039 Y1.591
X-12.813 Y1.982
G3 X-12.913 Y2.393 Z-2.314 I-0.28 J0.149
G1 X-12.943 Y2.413 Z-2.3
X-13.148 Y2.554
X-19.859 Y7.163
X-19.915 Y7.202
X-19.968 Y7.231
X-20.025 Y7.25
X-20.084 Y7.257
G3 X-20.413 Y6.951 Z-2.5 I-0.011 J-0.317
G1 Y4.941
X-20.4 Y4.682
X-20.374 Y4.484
X-20.328 Y4.269
X-20.248 Y4.004
X-20.136 Y3.717
X-19.978 Y3.389
X-19.757 Y3.014
X-19.452 Y2.581
X-19.082 Y2.134
X-18.597 Y1.638
X-18.041 Y1.153
X-17.45 Y0.712
X-16.84 Y0.326
X-16.266 Y0.023
X-15.789 Y-0.181
X-15.384 Y-0.317
X-15.074 Y-0.394
X-14.824 Y-0.435
X-14.595 Y-0.454
X-14.383
X-14.3 Y-0.448
X-14.095 Y-0.402
X-13.91 Y-0.299
X-13.762 Y-0.149
X-13.662 Y0.037
X-13.619 Y0.243
G3 X-13.744 Y0.505 Z-2.379 I-0.317 J0.009
G1 X-13.901 Y0.624 Z-2.3
X-14.098 Y0.774
X-19.861 Y5.151
X-19.903 Y5.183
X-19.959 Y5.217
X-20.02 Y5.239
X-20.084 Y5.247
G3 X-20.413 Y4.941 Z-2.5 I-0.011 J-0.317
G1 Y3.099
X-20.405 Y2.949
X-20.38 Y2.768
X-20.336 Y2.569
X-20.27 Y2.354
X-20.165 Y2.092
X-20.031 Y1.82
X-19.842 Y1.505
X-19.595 Y1.159
X-19.262 Y0.763
X-18.877 Y0.375
X-18.39 Y-0.044
X-17.841 Y-0.443
X-17.282 Y-0.786
X-16.741 Y-1.06
X-16.282 Y-1.247
X-15.862 Y-1.381
X-15.499 Y-1.465
X-15.199 Y-1.51
X-14.948 Y-1.527
X-14.731 Y-1.524
X-14.516 Y-1.504
X-14.34 Y-1.473
X-14.159 Y-1.426
X-13.994 Y-1.368
X-13.986 Y-1.365
X-13.81 Y-1.255
X-13.671 Y-1.101
X-13.58 Y-0.915
X-13.544 Y-0.711
X-13.567 Y-0.504
X-13.589 Y-0.419
X-13.618 Y-0.251
X-13.629 Y-0.084
Y0.084
X-13.619 Y0.243
G3 X-13.803 Y0.541 Z-2.351 I-0.317 J0.009
G1 X-13.919 Y0.594 Z-2.3
X-14.145 Y0.698
X-19.851 Y3.325
X-19.962 Y3.376
X-20.022 Y3.397
X-20.084 Y3.405
G3 X-20.413 Y3.099 Z-2.5 I-0.011 J-0.317
G1 Y1.591
X-20.401 Y1.369
X-20.38 Y1.209
X-20.344 Y1.037
X-20.282 Y0.831
X-20.199 Y0.618
X-20.081 Y0.375
X-19.919 Y0.099
X-19.718 Y-0.186
X-19.448 Y-0.512
X-19.116 Y-0.852
X-18.73 Y-1.189
X-18.269 Y-1.53
X-17.778 Y-1.836
X-17.277 Y-2.094
X-16.787 Y-2.299
X-16.348 Y-2.442
X-15.945 Y-2.539
X-15.564 Y-2.598
X-15.218 Y-2.624
X-14.895 Y-2.622
X-14.643 Y-2.601
X-14.394 Y-2.559
X-14.199 Y-2.51
X-14.007 Y-2.445
X-13.834 Y-2.37
X-13.69 Y-2.294
X-13.54 Y-2.198
X-13.468 Y-2.143
X-13.318 Y-1.991
X-13.218 Y-1.803
X-13.176 Y-1.595
X-13.194 Y-1.383
X-13.272 Y-1.185
X-13.327 Y-1.089
X-13.417 Y-0.921
X-13.491 Y-0.754
X-13.546 Y-0.586
X-13.567 Y-0.504
G3 X-13.767 Y-0.294 Z-2.379 I-0.305 J-0.089
G1 X-13.952 Y-0.229 Z-2.3
X-14.187 Y-0.147
X-19.847 Y1.83
X-19.991 Y1.88
X-20.037 Y1.892
X-20.084 Y1.897
G3 X-20.413 Y1.591 Z-2.5 I-0.011 J-0.317
G1 Y0.084
X-20.403 Y-0.107
X-20.383 Y-0.256
X-20.346 Y-0.429
X-20.294 Y-0.603
X-20.213 Y-0.809
X-20.107 Y-1.027
X-19.967 Y-1.265
X-19.782 Y-1.527
X-19.553 Y-1.803
X-19.274 Y-2.087
X-18.925 Y-2.391
X-18.528 Y-2.684
X-18.097 Y-2.952
X-17.632 Y-3.191
X-17.156 Y-3.389
X-16.686 Y-3.542
X-16.23 Y-3.651
X-15.799 Y-3.717
X-15.389 Y-3.748
X-15.012 Y-3.745
X-14.669 Y-3.715
X-14.352 Y-3.661
X-14.053 Y-3.586
X-13.811 Y-3.503
X-13.576 Y-3.401
X-13.397 Y-3.306
X-13.227 Y-3.197
X-13.075 Y-3.082
X-12.953 Y-2.973
X-12.892 Y-2.908
X-12.78 Y-2.755
X-12.71 Y-2.579
X-12.688 Y-2.39
X-12.714 Y-2.202
X-12.787 Y-2.027
X-13.148 Y-1.401
X-13.272 Y-1.185
X-13.311 Y-1.134 Z-2.474
X-13.359 Y-1.093 Z-2.449
X-13.414 Y-1.061 Z-2.423
X-13.475 Y-1.042 Z-2.398
X-13.713 Y-0.99 Z-2.3
X-13.956 Y-0.937
X-19.841 Y0.342
X-20.028 Y0.383
X-20.084 Y0.39
G3 X-20.413 Y0.084 Z-2.5 I-0.011 J-0.317
G1 Y-1.348
X-20.405 Y-1.503
X-20.385 Y-1.652
X-20.353 Y-1.799
X-20.301 Y-1.971
X-20.228 Y-2.159
X-20.131 Y-2.357
X-19.997 Y-2.583
X-19.838 Y-2.809
X-19.628 Y-3.06
X-19.377 Y-3.316
X-19.082 Y-3.572
X-18.724 Y-3.836
X-18.316 Y-4.088
X-17.877 Y-4.313
X-17.411 Y-4.507
X-16.925 Y-4.664
X-16.433 Y-4.781
X-15.953 Y-4.855
X-15.491 Y-4.888
X-15.045 Y-4.884
X-14.626 Y-4.847
X-14.23 Y-4.78
X-13.875 Y-4.689
X-13.554 Y-4.58
X-13.261 Y-4.452
X-13.023 Y-4.325
X-12.805 Y-4.186
X-12.641 Y-4.061
X-12.483 Y-3.919
X-12.359 Y-3.788
X-12.335 Y-3.758
X-12.223 Y-3.567
X-12.173 Y-3.351
X-12.189 Y-3.129
X-12.27 Y-2.923
X-12.787 Y-2.027
G3 X-13.019 Y-1.88 Z-2.386 I-0.269 J-0.168
G1 X-13.232 Y-1.855 Z-2.3
X-13.478 Y-1.826
X-19.838 Y-1.07
X-20.058 Y-1.044
X-20.084 Y-1.042
G3 X-20.413 Y-1.348 Z-2.5 I-0.011 J-0.317
G1 Y-2.688
X-20.405 Y-2.838
X-20.385 Y-2.987
X-20.352 Y-3.134
X-20.3 Y-3.299
X-20.231 Y-3.469
X-20.132 Y-3.667
X-20.014 Y-3.862
X-19.85 Y-4.089
X-19.664 Y-4.307
X-19.422 Y-4.549
X-19.139 Y-4.789
X-18.814 Y-5.023
X-18.427 Y-5.257
X-17.988 Y-5.476
X-17.516 Y-5.666
X-17.02 Y-5.821
X-16.505 Y-5.937
X-15.981 Y-6.012
X-15.46 Y-6.044
X-14.956 Y-6.035
X-14.476 Y-5.987
X-14.021 Y-5.904
X-13.599 Y-5.792
X-13.211 Y-5.655
X-12.87 Y-5.502
X-12.569 Y-5.337
X-12.343 Y-5.189
X-12.132 Y-5.025
X-11.976 Y-4.882
X-11.84 Y-4.735
X-11.795 Y-4.679
X-11.686 Y-4.488
X-11.638 Y-4.273
X-11.655 Y-4.054
X-11.735 Y-3.849
X-12.27 Y-2.923
G3 X-12.523 Y-2.774 Z-2.378 I-0.269 J-0.168
G1 X-12.716 Y-2.764 Z-2.3
X-12.964 Y-2.751
X-19.836 Y-2.395
X-20.079 Y-2.382
X-20.084
G3 X-20.413 Y-2.688 Z-2.5 I-0.011 J-0.317
G1 Y-3.936
X-20.404 Y-4.115
X-20.384 Y-4.264
X-20.35 Y-4.41
X-20.301 Y-4.563
X-20.232 Y-4.731
X-20.14 Y-4.913
X-20.023 Y-5.103
X-19.871 Y-5.311
X-19.689 Y-5.523
X-19.462 Y-5.747
X-19.184 Y-5.981
X-18.875 Y-6.201
X-18.5 Y-6.425
X-18.066 Y-6.639
X-17.598 Y-6.824
X-17.097 Y-6.978
X-16.555 Y-7.098
X-15.99 Y-7.175
X-15.419 Y-7.208
X-14.853 Y-7.194
X-14.302 Y-7.137
X-13.776 Y-7.038
X-13.292 Y-6.907
X-12.86 Y-6.752
X-12.467 Y-6.574
X-12.121 Y-6.382
X-11.849 Y-6.201
X-11.625 Y-6.025
X-11.448 Y-5.861
X-11.31 Y-5.711
X-11.244 Y-5.626
X-11.136 Y-5.436
X-11.089 Y-5.222
X-11.106 Y-5.004
X-11.186 Y-4.8
X-11.735 Y-3.849
G3 X-12.002 Y-3.7 Z-2.372 I-0.269 J-0.168
G1 X-12.181 Y-3.698 Z-2.3
X-12.43 Y-3.696
X-19.836 Y-3.632
X-20.084 Y-3.63
X-20.092 Z-2.303
G3 X-20.413 Y-3.936 Z-2.5 I-0.003 J-0.317
G1 Y-5.201
X-20.405 Y-5.351
X-20.385 Y-5.499
X-20.351 Y-5.645
X-20.304 Y-5.791
X-20.234 Y-5.958
X-20.146 Y-6.13
X-20.029 Y-6.319
X-19.884 Y-6.515
X-19.701 Y-6.726
X-19.484 Y-6.938
X-19.209 Y-7.168
X-18.909 Y-7.379
X-18.543 Y-7.596
X-18.109 Y-7.807
X-17.642 Y-7.99
X-17.128 Y-8.145
X-16.561 Y-8.267
X-15.958 Y-8.347
X-15.338 Y-8.38
X-14.713 Y-8.362
X-14.102 Y-8.295
X-13.519 Y-8.184
X-12.97 Y-8.032
X-12.465 Y-7.848
X-12.034 Y-7.65
X-11.656 Y-7.438
X-11.338 Y-7.225
X-11.102 Y-7.038
X-10.906 Y-6.854
X-10.763 Y-6.698
X-10.682 Y-6.593
X-10.576 Y-6.403
X-10.529 Y-6.19
X-10.547 Y-5.972
X-10.627 Y-5.769
X-11.186 Y-4.8
G3 X-11.464 Y-4.651 Z-2.367 I-0.269 J-0.168
G1 X-11.632 Y-4.656 Z-2.3
X-11.881 Y-4.663
X-19.836 Y-4.887
X-20.084 Y-4.894
X-20.104 Z-2.308
G3 X-20.413 Y-5.201 Z-2.5 I0.009 J-0.317
G1 Y-6.449
X-20.405 Y-6.598
X-20.381 Y-6.746
X-20.343 Y-6.892
X-20.291 Y-7.039
X-20.215 Y-7.209
X-20.123 Y-7.377
X-19.996 Y-7.572
X-19.85 Y-7.76
X-19.652 Y-7.975
X-19.433 Y-8.18
X-19.154 Y-8.401
X-18.828 Y-8.618
X-18.461 Y-8.823
X-18.016 Y-9.026
X-17.504 Y-9.212
X-16.967 Y-9.359
X-16.371 Y-9.472
X-15.726 Y-9.542
X-15.055 Y-9.56
X-14.377 Y-9.523
X-13.71 Y-9.433
X-13.067 Y-9.293
X-12.469 Y-9.112
X-11.929 Y-8.899
X-11.471 Y-8.675
X-11.071 Y-8.437
X-10.744 Y-8.206
X-10.501 Y-8.003
X-10.31 Y-7.815
X-10.167 Y-7.65
X-10.103 Y-7.562
X-10.002 Y-7.374
X-9.96 Y-7.165
X-9.979 Y-6.952
X-10.058 Y-6.754
X-10.627 Y-5.769
G3 X-10.914 Y-5.62 Z-2.364 I-0.269 J-0.168
G1 X-11.073 Y-5.629 Z-2.3
X-11.321 Y-5.644
X-19.837 Y-6.127
X-20.084 Y-6.141
X-20.113 Y-6.143 Z-2.312
G3 X-20.413 Y-6.449 Z-2.5 I0.018 J-0.317
G1 Y-7.621
X-20.405 Y-7.771
X-20.384 Y-7.919
X-20.348 Y-8.065
X-20.298 Y-8.21
X-20.229 Y-8.371
X-20.136 Y-8.544
X-20.021 Y-8.724
X-19.873 Y-8.918
X-19.695 Y-9.118
X-19.474 Y-9.327
X-19.206 Y-9.544
X-18.897 Y-9.756
X-18.514 Y-9.975
X-18.089 Y-10.174
X-17.607 Y-10.355
X-17.041 Y-10.516
X-16.409 Y-10.643
X-15.728 Y-10.724
X-15.023 Y-10.75
X-14.304 Y-10.719
X-13.577 Y-10.629
X-12.871 Y-10.483
X-12.218 Y-10.292
X-11.624 Y-10.066
X-11.09 Y-9.811
X-10.631 Y-9.545
X-10.265 Y-9.292
X-9.997 Y-9.072
X-9.774 Y-8.859
X-9.623 Y-8.687
X-9.532 Y-8.566
X-9.429 Y-8.376
X-9.385 Y-8.166
X-9.403 Y-7.951
X-9.483 Y-7.751
X-10.058 Y-6.754
G3 X-10.351 Y-6.605 Z-2.362 I-0.269 J-0.168
G1 X-10.504 Y-6.616 Z-2.3
X-10.752 Y-6.634
X-19.837 Y-7.295
X-20.084 Y-7.313
X-20.118 Y-7.315 Z-2.314
G3 X-20.413 Y-7.621 Z-2.5 I0.023 J-0.317
G1 Y-8.794
X-20.405 Y-8.943
X-20.385 Y-9.092
X-20.35 Y-9.238
X-20.302 Y-9.38
X-20.233 Y-9.543
X-20.147 Y-9.707
X-20.031 Y-9.891
X-19.888 Y-10.081
X-19.708 Y-10.284
X-19.496 Y-10.487
X-19.226 Y-10.709
X-18.931 Y-10.913
X-18.554 Y-11.131
X-18.121 Y-11.337
X-17.634 Y-11.523
X-17.053 Y-11.692
X-16.398 Y-11.827
X-15.688 Y-11.915
X-14.956 Y-11.946
X-14.219 Y-11.919
X-13.486 Y-11.834
X-12.762 Y-11.695
X-12.049 Y-11.502
X-11.367 Y-11.258
X-10.772 Y-10.99
X-10.27 Y-10.714
X-9.836 Y-10.427
X-9.512 Y-10.173
X-9.266 Y-9.947
X-9.091 Y-9.758
X-8.947 Y-9.574
X-8.924 Y-9.539
X-8.836 Y-9.354
X-8.801 Y-9.153
X-8.823 Y-8.949
X-8.9 Y-8.759
X-9.483 Y-7.751
G3 X-9.779 Y-7.602 Z-2.36 I-0.269 J-0.168
G1 X-9.928 Y-7.615 Z-2.3
X-10.176 Y-7.636
X-19.837 Y-8.464
X-20.084 Y-8.485
X-20.122 Y-8.488 Z-2.315
G3 X-20.413 Y-8.794 Z-2.5 I0.027 J-0.316
G1 Y-9.966
X-20.405 Y-10.12
X-20.385 Y-10.268
X-20.35 Y-10.414
X-20.303 Y-10.557
X-20.234 Y-10.72
X-20.149 Y-10.881
X-20.033 Y-11.067
X-19.894 Y-11.252
X-19.712 Y-11.457
X-19.504 Y-11.659
X-19.232 Y-11.881
X-18.937 Y-12.086
X-18.558 Y-12.307
X-18.117 Y-12.517
X-17.623 Y-12.707
X-17.025 Y-12.882
X-16.349 Y-13.023
X-15.618 Y-13.114
X-14.881 Y-13.147
X-14.144 Y-13.122
X-13.41 Y-13.044
X-12.684 Y-12.916
X-11.968 Y-12.737
X-11.266 Y-12.51
X-10.586 Y-12.232
X-9.98 Y-11.925
X-9.497 Y-11.631
X-9.096 Y-11.338
X-8.806 Y-11.09
X-8.585 Y-10.867
X-8.431 Y-10.685
X-8.353 Y-10.576
X-8.256 Y-10.388
X-8.216 Y-10.181
X-8.236 Y-9.971
X-8.314 Y-9.775
X-8.9 Y-8.759
G3 X-9.2 Y-8.612 Z-2.359 I-0.269 J-0.168
G1 X-9.346 Y-8.626 Z-2.3
X-9.593 Y-8.649
X-19.837 Y-9.633
X-20.085 Y-9.657
X-20.126 Y-9.661 Z-2.317
G3 X-20.413 Y-9.966 Z-2.5 I0.03 J-0.316
G1 Y-11.138
X-20.405 Y-11.297
X-20.385 Y-11.446
X-20.35 Y-11.592
X-20.303 Y-11.734
X-20.234 Y-11.897
X-20.149 Y-12.059
X-20.032 Y-12.245
X-19.894 Y-12.429
X-19.711 Y-12.636
X-19.502 Y-12.838
X-19.228 Y-13.063
X-18.931 Y-13.269
X-18.545 Y-13.493
X-18.102 Y-13.705
X-17.594 Y-13.9
X-16.98 Y-14.08
X-16.289 Y-14.223
X-15.557 Y-14.315
X-14.82 Y-14.35
X-14.083 Y-14.329
X-13.348 Y-14.258
X-12.62 Y-14.14
X-11.901 Y-13.976
X-11.193 Y-13.766
X-10.501 Y-13.51
X-9.829 Y-13.206
X-9.23 Y-12.876
X-8.763 Y-12.567
X-8.386 Y-12.272
X-8.128 Y-12.033
X-7.93 Y-11.818
X-7.786 Y-11.635
X-7.747 Y-11.577
X-7.659 Y-11.392
X-7.625 Y-11.19
X-7.647 Y-10.987
X-7.724 Y-10.797
X-8.314 Y-9.775
G3 X-8.616 Y-9.627 Z-2.358 I-0.269 J-0.168
G1 X-8.76 Y-9.642 Z-2.3
X-9.007 Y-9.668
X-19.838 Y-10.803
X-20.085 Y-10.829
X-20.128 Y-10.834 Z-2.318
G3 X-20.413 Y-11.138 Z-2.5 I0.033 J-0.316
G1 Y-12.311
X-20.404 Y-12.475
X-20.385 Y-12.624
X-20.35 Y-12.77
X-20.303 Y-12.912
X-20.233 Y-13.076
X-20.149 Y-13.237
X-20.032 Y-13.424
X-19.892 Y-13.61
X-19.71 Y-13.817
X-19.498 Y-14.021
X-19.223 Y-14.247
X-18.923 Y-14.455
X-18.529 Y-14.684
X-18.086 Y-14.896
X-17.565 Y-15.096
X-16.94 Y-15.28
X-16.237 Y-15.426
X-15.505 Y-15.518
X-14.768 Y-15.555
X-14.03 Y-15.539
X-13.295 Y-15.476
X-12.565 Y-15.367
X-11.843 Y-15.215
X-11.131 Y-15.021
X-10.432 Y-14.786
X-9.749 Y-14.507
X-9.087 Y-14.182
X-8.501 Y-13.834
X-8.051 Y-13.517
X-7.699 Y-13.223
X-7.461 Y-12.989
X-7.283 Y-12.784
X-7.145 Y-12.597
X-7.062 Y-12.462
X-6.979 Y-12.275
X-6.951 Y-12.074
X-6.979 Y-11.872
X-7.06 Y-11.685
X-7.189 Y-11.528
X-7.248 Y-11.473
X-7.4 Y-11.306
X-7.454 Y-11.232
X-7.519 Y-11.138
X-7.623 Y-10.971
X-7.724 Y-10.797
G3 X-8.028 Y-10.65 Z-2.357 I-0.269 J-0.168
G1 X-8.169 Y-10.666 Z-2.3
X-8.416 Y-10.693
X-19.838 Y-11.974
X-20.085 Y-12.001
X-20.131 Y-12.007 Z-2.319
G3 X-20.413 Y-12.311 Z-2.5 I0.035 J-0.316
G1 Y-13.483
X-20.404 Y-13.655
X-20.384 Y-13.804
X-20.35 Y-13.95
X-20.302 Y-14.093
X-20.233 Y-14.256
X-20.148 Y-14.419
X-20.031 Y-14.605
X-19.89 Y-14.794
X-19.708 Y-15.001
X-19.494 Y-15.207
X-19.219 Y-15.434
X-18.914 Y-15.645
X-18.514 Y-15.879
X-18.072 Y-16.091
X-17.539 Y-16.295
X-16.904 Y-16.482
X-16.189 Y-16.631
X-15.457 Y-16.724
X-14.72 Y-16.763
X-13.983 Y-16.752
X-13.247 Y-16.695
X-12.516 Y-16.595
X-11.791 Y-16.455
X-11.076 Y-16.276
X-10.371 Y-16.057
X-9.68 Y-15.799
X-9.005 Y-15.5
X-8.352 Y-15.157
X-7.781 Y-14.797
X-7.35 Y-14.474
X-7.003 Y-14.168
X-6.757 Y-13.913
X-6.571 Y-13.686
X-6.437 Y-13.492
X-6.322 Y-13.294
X-6.241 Y-13.125
X-6.169 Y-12.939
X-6.12 Y-12.771
X-6.119 Y-12.764
X-6.105 Y-12.558
X-6.149 Y-12.356
X-6.247 Y-12.175
X-6.391 Y-12.027
X-6.571 Y-11.925
X-6.638 Y-11.909 Z-2.472
X-6.707 Y-11.908 Z-2.444
X-7.065 Y-11.942 Z-2.3
X-7.313 Y-11.965
X-19.837 Y-13.151
X-20.085 Y-13.175
X-20.125 Y-13.178 Z-2.316
G3 X-20.413 Y-13.483 Z-2.5 I0.03 J-0.316
G1 Y-14.748
X-20.405 Y-14.898
X-20.378 Y-15.045
X-20.338 Y-15.19
X-20.282 Y-15.34
X-20.204 Y-15.508
X-20.107 Y-15.679
X-19.973 Y-15.875
X-19.82 Y-16.066
X-19.615 Y-16.283
X-19.386 Y-16.49
X-19.085 Y-16.719
X-18.743 Y-16.94
X-18.324 Y-17.165
X-17.8 Y-17.393
X-17.247 Y-17.584
X-16.58 Y-17.755
X-15.853 Y-17.88
X-15.119 Y-17.951
X-14.381 Y-17.972
X-13.644 Y-17.948
X-12.909 Y-17.882
X-12.179 Y-17.777
X-11.455 Y-17.634
X-10.739 Y-17.454
X-10.034 Y-17.237
X-9.342 Y-16.982
X-8.665 Y-16.688
X-8.007 Y-16.354
X-7.374 Y-15.975
X-6.879 Y-15.623
X-6.473 Y-15.281
X-6.151 Y-14.962
X-5.895 Y-14.665
X-5.678 Y-14.369
X-5.522 Y-14.114
X-5.402 Y-13.878
X-5.317 Y-13.671
X-5.256 Y-13.48
X-5.21 Y-13.282
X-5.185 Y-13.114
X-5.173 Y-12.937
X-5.175 Y-12.767
X-5.177 Y-12.743
X-5.226 Y-12.539
X-5.331 Y-12.356
X-5.483 Y-12.21
X-5.67 Y-12.113
X-5.876 Y-12.072
X-6.103 Y-12.06
X-6.281 Y-12.018
X-6.441 Y-11.976
X-6.571 Y-11.925
X-6.625 Y-11.911 Z-2.478
X-6.681 Y-11.906 Z-2.455
X-6.736 Y-11.912 Z-2.433
X-7.061 Y-11.973 Z-2.3
X-7.305 Y-12.019
X-19.841 Y-14.388
X-20.085 Y-14.434
X-20.154 Y-14.447 Z-2.328
G3 X-20.413 Y-14.748 Z-2.5 I0.059 J-0.312
G1 Y-15.921
X-20.405 Y-16.07
X-20.38 Y-16.218
X-20.341 Y-16.363
X-20.286 Y-16.517
X-20.213 Y-16.676
X-20.112 Y-16.858
X-19.992 Y-17.037
X-19.829 Y-17.244
X-19.644 Y-17.443
X-19.393 Y-17.673
X-19.117 Y-17.888
X-18.764 Y-18.12
X-18.348 Y-18.347
X-17.872 Y-18.56
X-17.282 Y-18.768
X-16.602 Y-18.949
X-15.876 Y-19.08
X-15.143 Y-19.158
X-14.405 Y-19.186
X-13.668 Y-19.17
X-12.932 Y-19.114
X-12.2 Y-19.02
X-11.474 Y-18.891
X-10.755 Y-18.726
X-10.044 Y-18.526
X-9.345 Y-18.292
X-8.658 Y-18.022
X-7.986 Y-17.717
X-7.333 Y-17.374
X-6.709 Y-16.987
X-6.171 Y-16.592
X-5.715 Y-16.197
X-5.345 Y-15.82
X-5.048 Y-15.464
X-4.803 Y-15.117
X-4.611 Y-14.793
X-4.461 Y-14.485
X-4.342 Y-14.182
X-4.257 Y-13.903
X-4.205 Y-13.663
X-4.174 Y-13.432
X-4.164 Y-13.242
X-4.17 Y-13.039
X-4.189 Y-12.863
X-4.219 Y-12.705
X-4.239 Y-12.632
X-4.313 Y-12.455
X-4.431 Y-12.302
X-4.584 Y-12.186
X-4.762 Y-12.112
X-4.953 Y-12.087
X-5.444
X-5.611 Y-12.086
X-5.876 Y-12.072
X-5.918 Y-12.074 Z-2.483
X-5.958 Y-12.081 Z-2.467
X-6.362 Y-12.182 Z-2.3
X-6.603 Y-12.242
X-19.845 Y-15.542
X-20.086 Y-15.602
X-20.172 Y-15.624 Z-2.335
G3 X-20.413 Y-15.921 Z-2.5 I0.077 J-0.308
G1 Y-17.093
X-20.405 Y-17.243
X-20.382 Y-17.391
X-20.345 Y-17.536
X-20.293 Y-17.686
X-20.222 Y-17.846
X-20.124 Y-18.027
X-20.007 Y-18.206
X-19.848 Y-18.413
X-19.667 Y-18.611
X-19.427 Y-18.837
X-19.158 Y-19.051
X-18.809 Y-19.286
X-18.401 Y-19.515
X-17.924 Y-19.734
X-17.336 Y-19.95
X-16.657 Y-20.138
X-15.933 Y-20.278
X-15.2 Y-20.363
X-14.463 Y-20.4
X-13.725 Y-20.394
X-12.989 Y-20.348
X-12.256 Y-20.266
X-11.527 Y-20.15
X-10.804 Y-20.001
X-10.09 Y-19.818
X-9.384 Y-19.604
X-8.688 Y-19.356
X-8.006 Y-19.076
X-7.338 Y-18.762
X-6.689 Y-18.412
X-6.065 Y-18.018
X-5.486 Y-17.591
X-4.987 Y-17.157
X-4.558 Y-16.719
X-4.196 Y-16.284
X-3.901 Y-15.865
X-3.665 Y-15.465
X-3.477 Y-15.079
X-3.33 Y-14.705
X-3.226 Y-14.357
X-3.155 Y-14.03
X-3.114 Y-13.718
X-3.1 Y-13.456
X-3.108 Y-13.203
X-3.13 Y-13.002
X-3.169 Y-12.795
X-3.217 Y-12.622
X-3.235 Y-12.574
X-3.343 Y-12.377
X-3.506 Y-12.221
X-3.708 Y-12.122
X-3.931 Y-12.087
X-4.953
G3 X-5.13 Y-12.661 I0.011 J-0.317
G1 X-5.073 Y-12.703 Z-2.492
X-5.019 Y-12.742 Z-2.469
X-4.97 Y-12.778 Z-2.431
X-4.93 Y-12.808 Z-2.38
X-4.899 Y-12.83 Z-2.32
X-4.88 Y-12.844 Z-2.253
X-4.874 Y-12.849 Z-2.182
Z3.06
X-20.029 Y-16.067
Z-1.865
Z-2.182
X-20.033 Y-16.073 Z-2.253
X-20.045 Y-16.094 Z-2.32
X-20.064 Y-16.126 Z-2.38
X-20.09 Y-16.169 Z-2.431
X-20.121 Y-16.221 Z-2.469
X-20.155 Y-16.279 Z-2.492
X-20.191 Y-16.339 Z-2.5
G3 X-20.413 Y-17.093 I1.36 J-0.809
G1 Y-18.265
X-20.405 Y-18.415
X-20.385 Y-18.564
X-20.349 Y-18.71
X-20.3 Y-18.855
X-20.232 Y-19.015
X-20.139 Y-19.192
X-20.025 Y-19.372
X-19.872 Y-19.576
X-19.695 Y-19.775
X-19.462 Y-19.999
X-19.197 Y-20.216
X-19.103 Y-20.281
X-18.972 Y-20.353
X-18.83 Y-20.397
X-18.681 Y-20.413
G3 X-18.375 Y-20.084 Z-2.3 I-0.011 J0.317
G1 X-18.384 Y-20.019
X-18.406 Y-19.957
X-18.441 Y-19.901
X-18.472 Y-19.861
X-19.844 Y-18.083
G3 X-20.084 Y-17.959 I-0.251 J-0.194
X-20.413 Y-18.265 Z-2.5 I-0.011 J-0.317
G1 Y-19.513
X-20.405 Y-19.663
X-20.378 Y-19.811
X-20.361 Y-19.872
X-20.286 Y-20.048
X-20.168 Y-20.199
X-20.015 Y-20.315
X-19.838 Y-20.388
X-19.648 Y-20.413
G3 X-19.342 Y-20.084 Z-2.3 I-0.011 J0.317
G1 X-19.351 Y-20.02
X-19.373 Y-19.958
X-19.407 Y-19.902
X-19.438 Y-19.861
X-19.843 Y-19.332
G3 X-20.084 Y-19.207 I-0.252 J-0.193
X-20.413 Y-19.513 Z-2.5 I-0.011 J-0.317
G1 Y-20.016
X-20.412 Y-20.1
X-20.406 Y-20.141
X-20.395 Y-20.183 F450.
X-20.377 Y-20.225 F500.
X-20.351 Y-20.266
X-20.309 Y-20.314
X-20.266 Y-20.351
X-20.225 Y-20.377
X-20.183 Y-20.395 F450.
X-20.141 Y-20.406 F500.
X-20.1 Y-20.412
X-19.848 Y-20.413
X-9.296
X-8.898 Y-20.393
X-8.527 Y-20.344
X-8.058 Y-20.244
X-7.497 Y-20.075
X-6.892 Y-19.84
X-6.229 Y-19.518
X-5.592 Y-19.144
X-4.986 Y-18.724
X-4.414 Y-18.258
X-3.902 Y-17.769
X-3.462 Y-17.275
X-3.1 Y-16.796
X-2.797 Y-16.32
X-2.549 Y-15.85
X-2.351 Y-15.39
X-2.2 Y-14.943
X-2.097 Y-14.531
X-2.033 Y-14.15
X-2.002 Y-13.787
X-2.001 Y-13.465
X-2.021 Y-13.203
X-2.06 Y-12.957
X-2.106 Y-12.766
X-2.171 Y-12.567
X-2.181 Y-12.542
X-2.294 Y-12.356
X-2.454 Y-12.211
X-2.65 Y-12.119
X-2.865 Y-12.087
X-3.931
G3 X-4.18 Y-12.223 Z-2.382 I0.011 J-0.317
G1 X-4.297 Y-12.391 Z-2.3
X-4.439 Y-12.594
X-9.508 Y-19.86
X-9.545 Y-19.914
X-9.575 Y-19.966
X-9.594 Y-20.024
X-9.602 Y-20.084
G3 X-9.296 Y-20.413 Z-2.5 I0.317 J-0.011
G1 X-6.616
X-6.372 Y-20.4
X-6.14 Y-20.37
X-5.866 Y-20.311
X-5.534 Y-20.212
X-5.189 Y-20.078
X-4.768 Y-19.873
X-4.325 Y-19.612
X-3.859 Y-19.285
X-3.372 Y-18.88
X-2.902 Y-18.423
X-2.471 Y-17.928
X-2.086 Y-17.408
X-1.754 Y-16.875
X-1.476 Y-16.336
X-1.254 Y-15.804
X-1.088 Y-15.295
X-0.973 Y-14.816
X-0.903 Y-14.369
X-0.872 Y-13.948
X-0.874 Y-13.569
X-0.899 Y-13.272
X-0.946 Y-12.998
X-1. Y-12.781
X-1.066 Y-12.587
X-1.088 Y-12.535
X-1.201 Y-12.352
X-1.362 Y-12.209
X-1.556 Y-12.119
X-1.769 Y-12.087
X-2.865
G3 X-3.139 Y-12.266 Z-2.362 I0.011 J-0.317
G1 X-3.207 Y-12.405 Z-2.3
X-3.316 Y-12.628
X-6.84 Y-19.853
X-6.89 Y-19.956
X-6.913 Y-20.018
X-6.922 Y-20.084
G3 X-6.616 Y-20.413 Z-2.5 I0.317 J-0.011
G1 X-4.606
X-4.441 Y-20.404
X-4.263 Y-20.381
X-4.048 Y-20.335
X-3.803 Y-20.262
X-3.546 Y-20.161
X-3.232 Y-20.009
X-2.923 Y-19.827
X-2.556 Y-19.569
X-2.178 Y-19.255
X-1.797 Y-18.884
X-1.406 Y-18.436
X-1.031 Y-17.929
X-0.691 Y-17.382
X-0.398 Y-16.814
X-0.158 Y-16.24
X0.028 Y-15.673
X0.16 Y-15.119
X0.242 Y-14.595
X0.277 Y-14.133
X0.274 Y-13.712
X0.243 Y-13.349
X0.195 Y-13.062
X0.133 Y-12.817
X0.066 Y-12.62
X0.029 Y-12.535
X-0.083 Y-12.352
X-0.244 Y-12.209
X-0.438 Y-12.119
X-0.651 Y-12.087
X-1.769
G3 X-2.055 Y-12.295 Z-2.349 I0.011 J-0.317
G1 X-2.098 Y-12.41 Z-2.3
X-2.184 Y-12.643
X-4.842 Y-19.847
X-4.893 Y-19.985
X-4.907 Y-20.034
X-4.912 Y-20.084
G3 X-4.606 Y-20.413 Z-2.5 I0.317 J-0.011
G1 X-2.931
X-2.781 Y-20.405
X-2.618 Y-20.382
X-2.439 Y-20.342
X-2.225 Y-20.276
X-2.011 Y-20.191
X-1.757 Y-20.065
X-1.49 Y-19.905
X-1.19 Y-19.69
X-0.882 Y-19.43
X-0.535 Y-19.086
X-0.202 Y-18.698
X0.131 Y-18.24
X0.453 Y-17.713
X0.743 Y-17.139
X0.989 Y-16.536
X1.183 Y-15.924
X1.321 Y-15.327
X1.406 Y-14.755
X1.44 Y-14.239
X1.434 Y-13.787
X1.396 Y-13.39
X1.342 Y-13.087
X1.275 Y-12.826
X1.204 Y-12.623
X1.162 Y-12.529
X1.049 Y-12.349
X0.889 Y-12.208
X0.695 Y-12.118
X0.485 Y-12.087
X-0.651
G3 X-0.944 Y-12.315 Z-2.341 I0.011 J-0.317
G1 X-0.973 Y-12.413 Z-2.3
X-1.044 Y-12.651
X-3.177 Y-19.844
X-3.225 Y-20.005
X-3.233 Y-20.044
X-3.237 Y-20.084
G3 X-2.931 Y-20.413 Z-2.5 I0.317 J-0.011
G1 X-1.424
X-1.274 Y-20.405
X-1.123 Y-20.382
X-0.945 Y-20.34
X-0.767 Y-20.282
X-0.556 Y-20.194
X-0.335 Y-20.081
X-0.091 Y-19.929
X0.171 Y-19.737
X0.455 Y-19.49
X0.743 Y-19.196
X1.061 Y-18.814
X1.364 Y-18.386
X1.657 Y-17.891
X1.934 Y-17.323
X2.175 Y-16.709
X2.367 Y-16.073
X2.503 Y-15.442
X2.584 Y-14.837
X2.613 Y-14.282
X2.6 Y-13.808
X2.554 Y-13.391
X2.494 Y-13.078
X2.421 Y-12.811
X2.346 Y-12.605
X2.307 Y-12.52
X2.192 Y-12.343
X2.033 Y-12.205
X1.842 Y-12.117
X1.633 Y-12.087
X0.485
G3 X0.187 Y-12.328 Z-2.335 I0.011 J-0.317
G1 X0.166 Y-12.414 Z-2.3
X0.106 Y-12.655
X-1.677 Y-19.842
X-1.721 Y-20.019
X-1.73 Y-20.084
G3 X-1.424 Y-20.413 Z-2.5 I0.317 J-0.011
G1 X-0.084
X0.088 Y-20.404
X0.237 Y-20.384
X0.393 Y-20.35
X0.558 Y-20.3
X0.753 Y-20.222
X0.95 Y-20.126
X1.175 Y-19.991
X1.409 Y-19.825
X1.667 Y-19.608
X1.927 Y-19.352
X2.22 Y-19.013
X2.491 Y-18.642
X2.775 Y-18.18
X3.052 Y-17.636
X3.3 Y-17.034
X3.503 Y-16.399
X3.655 Y-15.752
X3.749 Y-15.125
X3.79 Y-14.531
X3.784 Y-13.992
X3.742 Y-13.53
X3.682 Y-13.183
X3.604 Y-12.881
X3.528 Y-12.663
X3.471 Y-12.531
X3.358 Y-12.35
X3.197 Y-12.208
X3.004 Y-12.118
X2.792 Y-12.087
X1.633
G3 X1.334 Y-12.336 Z-2.332 I0.011 J-0.317
G1 X1.317 Y-12.414 Z-2.3
X1.263 Y-12.657
X-0.341 Y-19.841
X-0.383 Y-20.026
X-0.39 Y-20.084
G3 X-0.084 Y-20.413 Z-2.5 I0.317 J-0.011
G1 X1.256
X1.424 Y-20.404
X1.572 Y-20.385
X1.719 Y-20.352
X1.891 Y-20.298
X2.063 Y-20.229
X2.262 Y-20.13
X2.466 Y-20.007
X2.694 Y-19.844
X2.93 Y-19.643
X3.188 Y-19.386
X3.445 Y-19.085
X3.729 Y-18.693
X3.99 Y-18.263
X4.247 Y-17.752
X4.486 Y-17.163
X4.687 Y-16.526
X4.838 Y-15.867
X4.933 Y-15.212
X4.973 Y-14.587
X4.964 Y-14.025
X4.919 Y-13.557
X4.854 Y-13.192
X4.772 Y-12.882
X4.695 Y-12.662
X4.635 Y-12.528
X4.522 Y-12.348
X4.362 Y-12.207
X4.169 Y-12.118
X3.958 Y-12.087
X2.792
G3 X2.492 Y-12.343 Z-2.329 I0.011 J-0.317
G1 X2.477 Y-12.415 Z-2.3
X2.429 Y-12.658
X0.994 Y-19.84
X0.956 Y-20.033
X0.95 Y-20.084
G3 X1.256 Y-20.413 Z-2.5 I0.317 J-0.011
G1 X2.596
X2.746 Y-20.405
X2.894 Y-20.383
X3.045 Y-20.345
X3.207 Y-20.291
X3.381 Y-20.217
X3.582 Y-20.111
X3.78 Y-19.986
X4.011 Y-19.812
X4.233 Y-19.616
X4.489 Y-19.35
X4.733 Y-19.051
X4.995 Y-18.672
X5.264 Y-18.207
X5.5 Y-17.712
X5.723 Y-17.129
X5.911 Y-16.483
X6.05 Y-15.806
X6.134 Y-15.133
X6.161 Y-14.496
X6.14 Y-13.945
X6.085 Y-13.479
X6.014 Y-13.126
X5.929 Y-12.83
X5.848 Y-12.614
X5.801 Y-12.513
X5.686 Y-12.339
X5.528 Y-12.203
X5.337 Y-12.117
X5.131 Y-12.087
X3.958
G3 X3.657 Y-12.349 Z-2.327 I0.011 J-0.317
G1 X3.645 Y-12.415 Z-2.3
X3.602 Y-12.659
X2.33 Y-19.839
X2.295 Y-20.04
X2.29 Y-20.084
G3 X2.596 Y-20.413 Z-2.5 I0.317 J-0.011
G1 X3.861
X4.011 Y-20.405
X4.159 Y-20.383
X4.305 Y-20.347
X4.469 Y-20.292
X4.633 Y-20.222
X4.828 Y-20.12
X5.02 Y-19.999
X5.24 Y-19.834
X5.463 Y-19.637
X5.71 Y-19.38
X5.944 Y-19.095
X6.203 Y-18.721
X6.449 Y-18.297
X6.684 Y-17.803
X6.908 Y-17.218
X7.097 Y-16.57
X7.238 Y-15.889
X7.322 Y-15.216
X7.35 Y-14.576
X7.329 Y-13.998
X7.271 Y-13.509
X7.199 Y-13.147
X7.111 Y-12.841
X7.029 Y-12.622
X6.955 Y-12.464
X6.845 Y-12.295
X6.694 Y-12.161
X6.513 Y-12.074
X6.315 Y-12.038
X6.114 Y-12.057
X6.103 Y-12.06
X5.611 Y-12.086
X5.444 Y-12.087
X5.131
G3 X4.828 Y-12.353 Z-2.325 I0.011 J-0.317
G1 X4.818 Y-12.415 Z-2.3
X4.778 Y-12.66
X3.592 Y-19.839
X3.559 Y-20.043
X3.555 Y-20.084
G3 X3.861 Y-20.413 Z-2.5 I0.317 J-0.011
G1 X5.109
X5.258 Y-20.405
X5.407 Y-20.383
X5.552 Y-20.347
X5.71 Y-20.295
X5.875 Y-20.224
X6.067 Y-20.123
X6.254 Y-20.004
X6.474 Y-19.84
X6.684 Y-19.653
X6.926 Y-19.401
X7.154 Y-19.123
X7.404 Y-18.76
X7.652 Y-18.333
X7.88 Y-17.852
X8.101 Y-17.273
X8.288 Y-16.629
X8.428 Y-15.951
X8.512 Y-15.269
X8.54 Y-14.617
X8.518 Y-14.028
X8.458 Y-13.527
X8.379 Y-13.135
X8.287 Y-12.814
X8.202 Y-12.586
X8.098 Y-12.366
X7.999 Y-12.194
X7.888 Y-12.031
X7.819 Y-11.946
X7.658 Y-11.798
X7.461 Y-11.704
X7.245 Y-11.671
X7.029 Y-11.703
X6.832 Y-11.796
X6.789 Y-11.833 Z-2.477
X6.753 Y-11.877 Z-2.454
X6.726 Y-11.927 Z-2.432
X6.708 Y-11.981 Z-2.409
X6.646 Y-12.245 Z-2.3
X6.589 Y-12.487
X4.853 Y-19.842
X4.811 Y-20.022
X4.802 Y-20.084
G3 X5.109 Y-20.413 Z-2.5 I0.317 J-0.011
G1 X6.373
X6.523 Y-20.405
X6.671 Y-20.38
X6.82 Y-20.34
X6.972 Y-20.286
X7.144 Y-20.208
X7.329 Y-20.106
X7.523 Y-19.978
X7.738 Y-19.81
X7.953 Y-19.612
X8.185 Y-19.361
X8.422 Y-19.059
X8.66 Y-18.701
X8.911 Y-18.247
X9.133 Y-17.756
X9.338 Y-17.182
X9.514 Y-16.534
X9.641 Y-15.846
X9.713 Y-15.155
X9.728 Y-14.495
X9.694 Y-13.902
X9.627 Y-13.418
X9.531 Y-12.985
X9.417 Y-12.613
X9.296 Y-12.311
X9.167 Y-12.049
X9.045 Y-11.845
X8.923 Y-11.674
X8.787 Y-11.512
X8.663 Y-11.388
X8.527 Y-11.27
X8.432 Y-11.201
X8.231 Y-11.096
X8.009 Y-11.053
X7.784 Y-11.076
X7.575 Y-11.163
X7.4 Y-11.306
X7.248 Y-11.473
X7.119 Y-11.593
X7.062 Y-11.641
X6.886 Y-11.76
X6.832 Y-11.796
G3 X6.701 Y-12.029 Z-2.389 I0.185 J-0.258
G1 X6.683 Y-12.251 Z-2.3
X6.664 Y-12.498
X6.086 Y-19.837
X6.068 Y-20.07
X6.067 Y-20.084
G3 X6.373 Y-20.413 Z-2.5 I0.317 J-0.011
G1 X7.621
X7.771 Y-20.405
X7.918 Y-20.377
X8.066 Y-20.335
X8.225 Y-20.276
X8.394 Y-20.196
X8.584 Y-20.088
X8.774 Y-19.958
X8.994 Y-19.78
X9.204 Y-19.58
X9.441 Y-19.315
X9.67 Y-19.014
X9.908 Y-18.643
X10.153 Y-18.182
X10.365 Y-17.692
X10.565 Y-17.105
X10.733 Y-16.445
X10.851 Y-15.748
X10.912 Y-15.049
X10.917 Y-14.39
X10.872 Y-13.776
X10.787 Y-13.226
X10.674 Y-12.755
X10.538 Y-12.335
X10.385 Y-11.967
X10.222 Y-11.65
X10.046 Y-11.366
X9.878 Y-11.139
X9.697 Y-10.931
X9.542 Y-10.78
X9.382 Y-10.647
X9.217 Y-10.53
X9.071 Y-10.444
X8.908 Y-10.364
X8.747 Y-10.302
X8.681 Y-10.282
X8.485 Y-10.25
X8.289 Y-10.272
X8.105 Y-10.345
X7.947 Y-10.464
X7.826 Y-10.621
X7.621 Y-10.975
X7.519 Y-11.138
X7.454 Y-11.232
X7.4 Y-11.306
X7.371 Y-11.361 Z-2.475
X7.353 Y-11.42 Z-2.45
X7.346 Y-11.482 Z-2.425
X7.345 Y-11.794 Z-2.3
X7.344 Y-12.042
X7.316 Y-19.836
X7.315 Y-20.084
Y-20.094 Z-2.304
G3 X7.621 Y-20.413 Z-2.5 I0.317 J-0.001
G1 X8.794
X8.943 Y-20.405
X9.092 Y-20.382
X9.237 Y-20.345
X9.396 Y-20.29
X9.556 Y-20.22
X9.737 Y-20.123
X9.926 Y-20.
X10.13 Y-19.844
X10.346 Y-19.648
X10.571 Y-19.41
X10.797 Y-19.128
X11.042 Y-18.765
X11.262 Y-18.376
X11.491 Y-17.883
X11.706 Y-17.3
X11.881 Y-16.676
X12.013 Y-16.003
X12.094 Y-15.292
X12.117 Y-14.578
X12.084 Y-13.9
X12.006 Y-13.29
X11.887 Y-12.728
X11.734 Y-12.214
X11.552 Y-11.745
X11.354 Y-11.334
X11.148 Y-10.982
X10.93 Y-10.671
X10.703 Y-10.396
X10.475 Y-10.161
X10.243 Y-9.958
X10.03 Y-9.8
X9.813 Y-9.664
X9.627 Y-9.568
X9.439 Y-9.488
X9.259 Y-9.429
X9.097 Y-9.39
X9.086 Y-9.388
X8.864 Y-9.387
X8.651 Y-9.451
X8.467 Y-9.576
X8.329 Y-9.749
X7.826 Y-10.621
X7.803 Y-10.676 Z-2.476
X7.791 Y-10.734 Z-2.452
X7.789 Y-10.793 Z-2.428
X7.813 Y-11.112 Z-2.3
X7.832 Y-11.36
X8.467 Y-19.837
X8.485 Y-20.084
X8.488 Y-20.119 Z-2.314
G3 X8.794 Y-20.413 Z-2.5 I0.317 J0.024
G1 X9.966
X10.125 Y-20.405
X10.274 Y-20.385
X10.42 Y-20.351
X10.571 Y-20.301
X10.729 Y-20.235
X10.913 Y-20.14
X11.092 Y-20.028
X11.3 Y-19.875
X11.499 Y-19.701
X11.729 Y-19.464
X11.945 Y-19.204
X12.187 Y-18.859
X12.418 Y-18.466
X12.64 Y-18.007
X12.855 Y-17.454
X13.044 Y-16.82
X13.187 Y-16.154
X13.28 Y-15.439
X13.316 Y-14.702
X13.294 Y-13.973
X13.218 Y-13.283
X13.093 Y-12.639
X12.928 Y-12.043
X12.727 Y-11.497
X12.498 Y-10.999
X12.244 Y-10.549
X11.974 Y-10.147
X11.699 Y-9.802
X11.417 Y-9.502
X11.132 Y-9.243
X10.847 Y-9.023
X10.57 Y-8.843
X10.342 Y-8.719
X10.107 Y-8.616
X9.907 Y-8.546
X9.724 Y-8.498
X9.624 Y-8.48
X9.399 Y-8.476
X9.182 Y-8.539
X8.995 Y-8.664
X8.854 Y-8.84
X8.329 Y-9.749
X8.304 Y-9.81 Z-2.474
X8.292 Y-9.875 Z-2.447
X8.294 Y-9.941 Z-2.421
X8.334 Y-10.239 Z-2.3
X8.367 Y-10.485
X9.622 Y-19.839
X9.655 Y-20.085
X9.662 Y-20.137 Z-2.321
G3 X9.966 Y-20.413 Z-2.5 I0.315 J0.042
G1 X11.231
X11.272
X11.306
X11.456 Y-20.405
X11.491 Y-20.397
X11.622 Y-20.354
X11.743 Y-20.287
X11.849 Y-20.199
G3 X11.834 Y-19.75 Z-2.3 I-0.232 J0.217
X11.505 Y-19.685 I-0.217 J-0.232
G1 X11.205 Y-19.798
G3 X11. Y-20.084 I0.112 J-0.297
X11.306 Y-20.413 Z-2.5 I0.317 J-0.011
G1 X11.473
X11.557 Y-20.406
X11.599 Y-20.396
X11.641 Y-20.38 F450.
X11.666 Y-20.367 F500.
X11.691 Y-20.351
X11.808 Y-20.239
X12.981 Y-19.067
X13.221 Y-18.802
X13.409 Y-18.557
X13.604 Y-18.256
X13.799 Y-17.895
X13.984 Y-17.472
X14.168 Y-16.941
X14.316 Y-16.372
X14.429 Y-15.722
X14.496 Y-14.999
X14.506 Y-14.261
X14.457 Y-13.525
X14.351 Y-12.797
X14.191 Y-12.102
X13.985 Y-11.448
X13.738 Y-10.839
X13.457 Y-10.281
X13.157 Y-9.788
X12.84 Y-9.351
X12.506 Y-8.959
X12.159 Y-8.614
X11.816 Y-8.324
X11.487 Y-8.087
X11.173 Y-7.898
X10.906 Y-7.765
X10.642 Y-7.66
X10.431 Y-7.594
X10.228 Y-7.548
X10.142 Y-7.536
X9.923 Y-7.538
X9.714 Y-7.604
X9.533 Y-7.728
X9.397 Y-7.899
X8.854 Y-8.84
G3 X8.836 Y-9.099 Z-2.393 I0.28 J-0.149
G1 X8.916 Y-9.315 Z-2.3
X9.002 Y-9.548
X12.424 Y-18.83
X12.467 Y-18.945
X12.494 Y-19.001
X12.532 Y-19.051
G3 X12.981 Y-19.067 Z-2.5 I0.232 J0.217
G1 X14.656 Y-17.392
X14.757 Y-17.281
X14.891 Y-17.104
X15.015 Y-16.911
X15.146 Y-16.664
X15.281 Y-16.354
X15.399 Y-16.01
X15.511 Y-15.566
X15.596 Y-15.067
X15.647 Y-14.495
X15.652 Y-13.831
X15.6 Y-13.119
X15.488 Y-12.39
X15.317 Y-11.673
X15.091 Y-10.973
X14.817 Y-10.314
X14.504 Y-9.703
X14.157 Y-9.141
X13.781 Y-8.631
X13.386 Y-8.175
X12.982 Y-7.778
X12.59 Y-7.452
X12.215 Y-7.186
X11.853 Y-6.972
X11.53 Y-6.814
X11.256 Y-6.706
X11.012 Y-6.633
X10.808 Y-6.588
X10.693 Y-6.573
X10.475 Y-6.576
X10.267 Y-6.642
X10.088 Y-6.766
X9.953 Y-6.937
X9.397 Y-7.899
G3 X9.396 Y-8.195 Z-2.376 I0.28 J-0.149
G1 X9.484 Y-8.364 Z-2.3
X9.599 Y-8.584
X14.083 Y-17.163
X14.158 Y-17.307
X14.18 Y-17.343
X14.207 Y-17.376
G3 X14.656 Y-17.392 Z-2.5 I0.232 J0.217
G1 X15.884 Y-16.163
X15.996 Y-16.04
X16.104 Y-15.899
X16.217 Y-15.726
X16.32 Y-15.534
X16.429 Y-15.285
X16.528 Y-15.001
X16.616 Y-14.661
X16.687 Y-14.254
X16.731 Y-13.774
X16.738 Y-13.247
X16.695 Y-12.62
X16.592 Y-11.932
X16.427 Y-11.222
X16.203 Y-10.519
X15.923 Y-9.836
X15.591 Y-9.177
X15.208 Y-8.547
X14.791 Y-7.97
X14.355 Y-7.459
X13.908 Y-7.012
X13.455 Y-6.627
X13.009 Y-6.307
X12.601 Y-6.061
X12.23 Y-5.875
X11.928 Y-5.754
X11.644 Y-5.665
X11.428 Y-5.616
X11.265 Y-5.593
X11.046 Y-5.595
X10.836 Y-5.66
X10.655 Y-5.784
X10.519 Y-5.956
X9.953 Y-6.937
G3 X9.962 Y-7.252 Z-2.368 I0.28 J-0.149
G1 X10.051 Y-7.395 Z-2.3
X10.181 Y-7.607
X15.301 Y-15.94
X15.397 Y-16.097
X15.436 Y-16.148
G3 X15.884 Y-16.163 Z-2.5 I0.232 J0.217
G1 X17.001 Y-15.047
X17.116 Y-14.92
X17.208 Y-14.799
X17.306 Y-14.649
X17.407 Y-14.461
X17.496 Y-14.26
X17.586 Y-13.999
X17.661 Y-13.707
X17.723 Y-13.355
X17.761 Y-12.947
X17.767 Y-12.456
X17.732 Y-11.937
X17.639 Y-11.319
X17.481 Y-10.641
X17.257 Y-9.938
X16.978 Y-9.255
X16.647 Y-8.595
X16.268 Y-7.963
X15.843 Y-7.359
X15.373 Y-6.79
X14.87 Y-6.269
X14.371 Y-5.829
X13.887 Y-5.467
X13.424 Y-5.175
X12.992 Y-4.95
X12.634 Y-4.798
X12.323 Y-4.694
X12.079 Y-4.634
X11.852 Y-4.597
X11.794 Y-4.593
X11.586 Y-4.606
X11.39 Y-4.675
X11.222 Y-4.797
X11.093 Y-4.961
X10.519 Y-5.956
G3 X10.537 Y-6.285 Z-2.361 I0.28 J-0.149
G1 X10.624 Y-6.41 Z-2.3
X10.764 Y-6.615
X16.409 Y-14.829
X16.523 Y-14.995
X16.552 Y-15.031
G3 X17.001 Y-15.047 Z-2.5 I0.232 J0.217
G1 X18.062 Y-13.986
X18.163 Y-13.875
X18.254 Y-13.753
X18.349 Y-13.603
X18.434 Y-13.439
X18.523 Y-13.231
X18.6 Y-13.
X18.669 Y-12.723
X18.722 Y-12.396
X18.752 Y-12.025
X18.753 Y-11.585
X18.712 Y-11.068
X18.624 Y-10.523
X18.468 Y-9.886
X18.239 Y-9.194
X17.951 Y-8.515
X17.613 Y-7.859
X17.231 Y-7.228
X16.805 Y-6.625
X16.338 Y-6.055
X15.83 Y-5.519
X15.285 Y-5.022
X14.75 Y-4.608
X14.245 Y-4.278
X13.765 Y-4.018
X13.342 Y-3.83
X13.021 Y-3.717
X12.727 Y-3.64
X12.504 Y-3.6
X12.387 Y-3.589
X12.176 Y-3.598
X11.976 Y-3.667
X11.804 Y-3.79
X11.674 Y-3.955
X11.093 Y-4.961
G3 X11.119 Y-5.3 Z-2.356 I0.28 J-0.149
G1 X11.203 Y-5.412 Z-2.3
X11.352 Y-5.61
X17.463 Y-13.773
X17.591 Y-13.944
X17.613 Y-13.97
G3 X18.062 Y-13.986 Z-2.5 I0.232 J0.217
G1 X19.011 Y-13.037
X19.141 Y-12.893
X19.232 Y-12.775
X19.319 Y-12.64
X19.402 Y-12.485
X19.487 Y-12.288
X19.56 Y-12.077
X19.626 Y-11.816
X19.676 Y-11.524
X19.707 Y-11.178
X19.711 Y-10.784
X19.677 Y-10.311
X19.6 Y-9.811
X19.459 Y-9.212
X19.244 Y-8.546
X18.961 Y-7.865
X18.628 Y-7.206
X18.249 Y-6.573
X17.828 Y-5.968
X17.367 Y-5.392
X16.869 Y-4.847
X16.336 Y-4.337
X15.768 Y-3.865
X15.189 Y-3.456
X14.662 Y-3.144
X14.193 Y-2.915
X13.786 Y-2.755
X13.467 Y-2.659
X13.207 Y-2.602
X12.977 Y-2.572
X12.941 Y-2.57
X12.739 Y-2.587
X12.549 Y-2.658
X12.385 Y-2.779
X12.261 Y-2.939
X11.674 Y-3.955
G3 X11.704 Y-4.301 Z-2.353 I0.28 J-0.149
G1 X11.786 Y-4.404 Z-2.3
X11.939 Y-4.6
X18.408 Y-12.827
X18.545 Y-13.001
X18.562 Y-13.022
G3 X19.011 Y-13.037 Z-2.5 I0.232 J0.217
G1 X20.016 Y-12.032
X20.047 Y-12.001
X20.072 Y-11.976
X20.172 Y-11.865
X20.255 Y-11.74
X20.339 Y-11.588
X20.347 Y-11.57
X20.383 Y-11.472
X20.405 Y-11.37
X20.413 Y-11.266
G3 X20.084 Y-10.96 Z-2.3 I-0.317 J-0.011
X19.813 Y-11.132 I0.011 J-0.317
G1 X19.573 Y-11.599
G3 X19.623 Y-11.96 I0.282 J-0.145
X20.072 Y-11.976 Z-2.5 I0.232 J0.217
G1 X20.239 Y-11.808
X20.351 Y-11.691
X20.367 Y-11.666
X20.38 Y-11.641 F450.
X20.396 Y-11.599 F500.
X20.406 Y-11.557
X20.413 Y-11.473
Y-9.464
X20.39 Y-9.021
X20.339 Y-8.629
X20.243 Y-8.182
X20.092 Y-7.676
X19.861 Y-7.082
X19.543 Y-6.428
X19.169 Y-5.793
X18.751 Y-5.185
X18.293 Y-4.607
X17.798 Y-4.059
X17.27 Y-3.544
X16.709 Y-3.065
X16.116 Y-2.625
X15.527 Y-2.254
X15.017 Y-1.987
X14.55 Y-1.789
X14.196 Y-1.671
X13.892 Y-1.597
X13.66 Y-1.559
X13.551 Y-1.55
X13.343 Y-1.563
X13.147 Y-1.633
X12.978 Y-1.754
X12.85 Y-1.918
X12.261 Y-2.939
G3 X12.336 Y-3.331 Z-2.327 I0.28 J-0.149
G1 X12.387 Y-3.374 Z-2.3
X12.577 Y-3.534
X19.862 Y-9.672
X19.891 Y-9.695
X19.949 Y-9.734
X20.015 Y-9.76
X20.084 Y-9.77
G3 X20.413 Y-9.464 Z-2.5 I0.011 J0.317
G1 Y-6.784
X20.4 Y-6.53
X20.37 Y-6.304
X20.311 Y-6.026
X20.213 Y-5.7
X20.072 Y-5.338
X19.863 Y-4.908
X19.566 Y-4.403
X19.192 Y-3.87
X18.721 Y-3.303
X18.207 Y-2.773
X17.658 Y-2.281
X17.077 Y-1.826
X16.465 Y-1.413
X15.879 Y-1.081
X15.383 Y-0.85
X14.953 Y-0.69
X14.625 Y-0.598
X14.361 Y-0.546
X14.172 Y-0.524
X13.947 Y-0.532
X13.733 Y-0.606
X13.551 Y-0.74
X13.417 Y-0.921
X13.327 Y-1.089
X13.039 Y-1.591
X12.85 Y-1.918
G3 X12.953 Y-2.33 Z-2.313 I0.28 J-0.149
G1 X12.98 Y-2.349 Z-2.3
X13.186 Y-2.488
X19.859 Y-6.996
X19.917 Y-7.036
X19.969 Y-7.064
X20.026 Y-7.082
X20.084 Y-7.09
G3 X20.413 Y-6.784 Z-2.5 I0.011 J0.317
G1 Y-4.774
X20.403 Y-4.576
X20.377 Y-4.382
X20.331 Y-4.167
X20.252 Y-3.903
X20.142 Y-3.62
X19.984 Y-3.295
X19.767 Y-2.926
X19.466 Y-2.497
X19.098 Y-2.055
X18.617 Y-1.561
X18.061 Y-1.076
X17.469 Y-0.636
X16.865 Y-0.254
X16.293 Y0.046
X15.818 Y0.249
X15.434 Y0.377
X15.106 Y0.458
X14.87 Y0.496
X14.625 Y0.516
X14.422 Y0.517
X14.303 Y0.507
X14.098 Y0.461
X13.914 Y0.359
X13.766 Y0.208
X13.666 Y0.023
X13.623 Y-0.183
G3 X13.751 Y-0.448 Z-2.377 I0.317 J-0.009
G1 X13.906 Y-0.563 Z-2.3
X14.105 Y-0.711
X19.861 Y-4.984
X19.906 Y-5.017
X19.961 Y-5.05
X20.021 Y-5.071
X20.084 Y-5.08
G3 X20.413 Y-4.774 Z-2.5 I0.011 J0.317
G1 Y-3.007
X20.405 Y-2.857
X20.381 Y-2.678
X20.338 Y-2.482
X20.274 Y-2.27
X20.172 Y-2.011
X20.041 Y-1.743
X19.857 Y-1.432
X19.615 Y-1.09
X19.291 Y-0.702
X18.913 Y-0.317
X18.434 Y0.098
X17.893 Y0.495
X17.34 Y0.837
X16.808 Y1.109
X16.343 Y1.302
X15.923 Y1.437
X15.546 Y1.527
X15.241 Y1.573
X14.976 Y1.592
X14.759 Y1.59
X14.537 Y1.57
X14.358 Y1.54
X14.177 Y1.493
X14.009 Y1.436
X13.975 Y1.421
X13.798 Y1.312
X13.658 Y1.158
X13.566 Y0.971
X13.53 Y0.766
X13.553 Y0.559
X13.589 Y0.419
X13.618 Y0.251
X13.629 Y0.084
Y-0.084
X13.623 Y-0.183
G3 X13.808 Y-0.482 Z-2.351 I0.317 J-0.009
G1 X13.923 Y-0.534 Z-2.3
X14.149 Y-0.637
X19.851 Y-3.233
X19.964 Y-3.284
X20.023 Y-3.305
X20.084 Y-3.313
G3 X20.413 Y-3.007 Z-2.5 I0.011 J0.317
G1 Y-1.424
X20.405 Y-1.274
X20.384 Y-1.118
X20.346 Y-0.944
X20.283 Y-0.735
X20.202 Y-0.527
X20.081 Y-0.279
X19.922 Y-0.011
X19.716 Y0.28
X19.451 Y0.598
X19.11 Y0.946
X18.732 Y1.275
X18.279 Y1.608
X17.791 Y1.91
X17.292 Y2.166
X16.803 Y2.369
X16.364 Y2.511
X15.957 Y2.608
X15.573 Y2.667
X15.226 Y2.692
X14.9 Y2.689
X14.64 Y2.666
X14.387 Y2.623
X14.189 Y2.573
X13.995 Y2.506
X13.821 Y2.431
X13.676 Y2.353
X13.525 Y2.257
X13.392 Y2.155
X13.262 Y2.001
X13.178 Y1.819
X13.146 Y1.621
X13.168 Y1.421
X13.243 Y1.235
X13.327 Y1.089
X13.417 Y0.921
X13.491 Y0.754
X13.546 Y0.586
X13.553 Y0.559
G3 X13.758 Y0.347 Z-2.377 I0.305 J0.089
G1 X13.94 Y0.287 Z-2.3
X14.175 Y0.209
X19.846 Y-1.665
X19.996 Y-1.714
X20.039 Y-1.725
X20.084 Y-1.73
G3 X20.413 Y-1.424 Z-2.5 I0.011 J0.317
G1 Y0.084
X20.405 Y0.234
X20.381 Y0.388
X20.338 Y0.564
X20.279 Y0.744
X20.189 Y0.96
X20.078 Y1.175
X19.921 Y1.426
X19.732 Y1.681
X19.478 Y1.972
X19.194 Y2.248
X18.838 Y2.543
X18.424 Y2.833
X17.977 Y3.096
X17.513 Y3.321
X17.04 Y3.504
X16.572 Y3.644
X16.113 Y3.742
X15.68 Y3.798
X15.276 Y3.818
X14.912 Y3.807
X14.571 Y3.768
X14.254 Y3.707
X13.957 Y3.624
X13.718 Y3.536
X13.497 Y3.434
X13.315 Y3.331
X13.158 Y3.225
X13.007 Y3.104
X12.887 Y2.992
X12.848 Y2.949
X12.721 Y2.755
X12.661 Y2.53
X12.673 Y2.298
X12.756 Y2.081
X13.148 Y1.401
X13.243 Y1.235
G3 X13.451 Y1.091 Z-2.396 I0.27 J0.167
G1 X13.685 Y1.044 Z-2.3
X13.929 Y0.996
X19.84 Y-0.178
X20.033 Y-0.217
X20.084 Y-0.222
G3 X20.413 Y0.084 Z-2.5 I0.011 J0.317
G1 Y1.424
X20.404 Y1.593
X20.395 Y1.742
X20.373 Y1.891
X20.338 Y2.037
X20.293 Y2.18
X20.238 Y2.319
X20.175 Y2.455
X20.104 Y2.588
X20.027 Y2.716
X19.944 Y2.841
X19.855 Y2.962
X19.762 Y3.079
X19.664 Y3.193
X19.562 Y3.303
X19.456 Y3.409
X19.346 Y3.512
X19.234 Y3.611
X19.118 Y3.707
X19. Y3.799
X18.879 Y3.887
X18.756 Y3.973
X18.63 Y4.055
X18.503 Y4.134
X18.373 Y4.209
X18.241 Y4.282
X18.108 Y4.351
X17.973 Y4.416
X17.837 Y4.479
X17.699 Y4.538
X17.56 Y4.594
X17.42 Y4.647
X17.278 Y4.696
X17.136 Y4.743
X16.992 Y4.786
X16.847 Y4.825
X16.701 Y4.861
X16.555 Y4.894
X16.408 Y4.923
X16.26 Y4.949
X16.112 Y4.971
X15.963 Y4.99
X15.814 Y5.005
X15.664 Y5.016
X15.514 Y5.023
X15.364 Y5.027
X15.214 Y5.026
X15.064 Y5.022
X14.915 Y5.014
X14.765 Y5.001
X14.616 Y4.984
X14.468 Y4.964
X14.32 Y4.938
X14.173 Y4.909
X14.027 Y4.874
X13.882 Y4.836
X13.738 Y4.792
X13.596 Y4.744
X13.456 Y4.69
X13.318 Y4.632
X13.182 Y4.569
X13.048 Y4.501
X12.918 Y4.427
X12.791 Y4.346
X12.668 Y4.261
X12.549 Y4.169
X12.436 Y4.07
X12.329 Y3.965
X12.287 Y3.918
X12.16 Y3.723
X12.1 Y3.5
X12.113 Y3.268
X12.196 Y3.052
X12.756 Y2.081
G3 X12.989 Y1.934 Z-2.386 I0.269 J0.168
G1 X13.201 Y1.91 Z-2.3
X13.447 Y1.881
X19.838 Y1.145
X20.059 Y1.119
X20.084 Y1.117
G3 X20.413 Y1.424 Z-2.5 I0.011 J0.317
G1 Y2.856
X20.405 Y3.006
X20.385 Y3.155
X20.352 Y3.301
X20.302 Y3.461
X20.232 Y3.634
X20.139 Y3.82
X20.017 Y4.021
X19.864 Y4.233
X19.673 Y4.458
X19.441 Y4.689
X19.162 Y4.927
X18.833 Y5.163
X18.675 Y5.259
X18.545 Y5.39
X18.453 Y5.55
X18.402 Y5.727
X18.397 Y5.911
X18.558 Y6.631
X18.953 Y7.255
X19.403 Y7.839
X19.86 Y8.418
X20.268 Y8.971
X20.347 Y9.106
X20.396 Y9.255
X20.413 Y9.411
Y11.952
G3 X20.084 Y12.258 Z-2.3 I-0.317 J-0.011
G1 X20.051 Y12.255
X19.838 Y12.225
X8.479 Y10.616
X8.343 Y10.597
X8.289 Y10.584
X8.238 Y10.563
G3 X8.107 Y10.134 Z-2.5 I0.149 J-0.28
G1 X9.515 Y7.694
X9.621 Y7.531
X9.753 Y7.359
X9.902 Y7.194
X10.102 Y7.004
X10.328 Y6.824
X10.633 Y6.617
X10.742 Y6.468
X10.884 Y6.127
X10.993 Y5.398
X10.996 Y5.246
X11.029 Y5.102
X11.09 Y4.967
G3 X11.527 Y4.866 Z-2.3 I0.269 J0.168
X11.634 Y5.294 I-0.168 J0.269
G1 X10.07 Y8.002
G3 X9.646 Y8.124 I-0.275 J-0.159
X9.515 Y7.694 Z-2.5 I0.149 J-0.28
G1 X12.196 Y3.052
G3 X12.45 Y2.903 Z-2.377 I0.269 J0.168
G1 X12.642 Y2.894 Z-2.3
X12.89 Y2.882
X19.836 Y2.561
X20.081 Y2.55
X20.084
G3 X20.413 Y2.856 Z-2.5 I0.011 J0.317
G1 Y4.104
X20.404 Y4.273
X20.385 Y4.422
X20.35 Y4.568
X20.238 Y4.919
X20.196 Y5.286
X20.246 Y6.022
X20.37 Y6.371
X20.393 Y6.452
X20.408 Y6.535
X20.413 Y6.619
G3 X20.084 Y6.925 Z-2.3 I-0.317 J-0.011
X19.778 Y6.608 I0.011 J-0.317
G1 Y4.115
G3 X20.084 Y3.797 I0.318 J0.
X20.413 Y4.104 Z-2.5 I0.011 J0.317
G1 Y9.411
G3 X19.839 Y9.587 I-0.317 J-0.011
G1 X19.797 Y9.53 Z-2.492
X19.758 Y9.476 Z-2.469
X19.722 Y9.428 Z-2.431
X19.692 Y9.387 Z-2.38
X19.67 Y9.357 Z-2.32
X19.656 Y9.338 Z-2.253
X19.651 Y9.331 Z-2.182
Z8.
X-1.463 Y-0.633
Z3.06
Z2.55
G3 X1.154 Y-1.101 Z2.44 I1.463 J0.633 F333.
X0.564 Y1.488 Z2.33 I-1.153 J1.099
X-1.587 Y-0.064 Z2.221 I-0.561 J-1.488
X0.679 Y-1.437 Z2.111 I1.587 J0.064
X1.058 Y1.182 Z2.001 I-0.677 J1.435
X-1.498 Y0.51 Z1.891 I-1.055 J-1.182
X0.116 Y-1.578 Z1.782 I1.499 J-0.51
X1.408 Y0.72 Z1.672 I-0.115 J1.577
X-1.209 Y1.012 Z1.562 I-1.405 J-0.721
X-0.458 Y-1.508 Z1.452 I1.21 J-1.011
X1.567 Y0.165 Z1.342 I0.458 J1.507
X-0.761 Y1.375 Z1.233 I-1.565 J-0.166
X-0.966 Y-1.238 Z1.123 I0.763 J-1.374
X1.516 Y-0.408 Z1.013 I0.966 J1.237
X-0.214 Y1.551 Z0.903 I-1.514 J0.407
X-1.341 Y-0.804 Z0.793 I0.216 J-1.551
X1.263 Y-0.922 Z0.684 I1.342 J0.803
X0.357 Y1.519 Z0.574 I-1.262 J0.921
X-1.535 Y-0.266 Z0.464 I-0.355 J-1.519
X0.844 Y-1.31 Z0.354 I1.535 J0.266
X0.877 Y1.285 Z0.245 I-0.843 J1.308
X-1.522 Y0.304 Z0.135 I-0.875 J-1.285
X0.315 Y-1.52 Z0.025 I1.522 J-0.303
X1.276 Y0.88 Z-0.085 I-0.314 J1.518
X-1.305 Y0.828 Z-0.195 I-1.274 J-0.881
X-0.251 Y-1.525 Z-0.304 I1.306 J-0.828
X1.502 Y0.361 Z-0.414 I0.252 J1.524
X-0.916 Y1.238 Z-0.524 I-1.5 J-0.362
X-0.78 Y-1.327 Z-0.634 I0.918 J-1.238
X1.526 Y-0.202 Z-0.743 I0.781 J1.326
X-0.407 Y1.48 Z-0.853 I-1.524 J0.201
X-1.201 Y-0.953 Z-0.963 I0.409 J-1.48
X1.346 Y-0.735 Z-1.073 I1.201 J0.953
X0.152 Y1.522 Z-1.183 I-1.344 J0.733
X-1.458 Y-0.455 Z-1.292 I-0.15 J-1.522
X0.988 Y-1.165 Z-1.402 I1.458 J0.455
X0.688 Y1.361 Z-1.512 I-0.987 J1.163
X-1.518 Y0.1 Z-1.622 I-0.685 J-1.361
X0.501 Y-1.437 Z-1.732 I1.518 J-0.1
X1.127 Y1.019 Z-1.841 I-0.5 J1.435
X-1.375 Y0.637 Z-1.951 I-1.125 J-1.019
X-0.049 Y-1.515 Z-2.061 I1.376 J-0.637
X1.413 Y0.543 Z-2.171 I0.05 J1.513
X-1.049 Y1.086 Z-2.28 I-1.411 J-0.544
X-0.588 Y-1.39 Z-2.39 I1.05 J-1.085
X1.509 Y-0.001 Z-2.5 I0.589 J1.389
X-1.508 I-1.508 J0.
X1.509 I1.508 J0.
G1 X1.528 Y0.736 F500.
X1.55 Y0.826
X1.565 Y0.975
X1.553 Y1.125
X1.517 Y1.27
X1.462 Y1.41
X1.391 Y1.542
X1.305 Y1.665
X1.207 Y1.778
X1.098 Y1.882
X0.98 Y1.975
X0.855 Y2.057
X0.723 Y2.128
X0.584 Y2.188
X0.437 Y2.238
X0.284 Y2.278
X0.123 Y2.305
X-0.042 Y2.32
X-0.21 Y2.322
X-0.381 Y2.31
X-0.553 Y2.283
X-0.724 Y2.243
X-0.894 Y2.188
X-1.06 Y2.12
X-1.222 Y2.037
X-1.378 Y1.941
X-1.526 Y1.832
X-1.667 Y1.71
X-1.797 Y1.577
X-1.918 Y1.433
X-2.026 Y1.28
X-2.123 Y1.117
X-2.206 Y0.947
X-2.276 Y0.77
X-2.331 Y0.588
X-2.372 Y0.401
X-2.397 Y0.211
X-2.408 Y0.02
X-2.403 Y-0.172
X-2.382 Y-0.363
X-2.346 Y-0.552
X-2.295 Y-0.738
X-2.23 Y-0.919
X-2.149 Y-1.095
X-2.055 Y-1.264
X-1.948 Y-1.424
X-1.828 Y-1.576
X-1.696 Y-1.717
X-1.554 Y-1.848
X-1.401 Y-1.967
X-1.239 Y-2.073
X-1.069 Y-2.166
X-0.892 Y-2.244
X-0.709 Y-2.309
X-0.522 Y-2.358
X-0.331 Y-2.393
X-0.138 Y-2.412
X0.056 Y-2.415
X0.249 Y-2.403
X0.441 Y-2.375
X0.63 Y-2.333
X0.815 Y-2.275
X0.995 Y-2.202
X1.168 Y-2.115
X1.334 Y-2.015
X1.491 Y-1.901
X1.639 Y-1.775
X1.776 Y-1.638
X1.902 Y-1.49
X2.015 Y-1.333
X2.119 Y-1.16
X2.231 Y-0.938
X2.378 Y-0.574
X2.485 Y-0.23
X2.549 Y0.052
X2.586 Y0.308
X2.6 Y0.545
X2.596 Y0.768
X2.575 Y0.981
X2.538 Y1.188
X2.484 Y1.391
X2.466 Y1.44
X2.437 Y1.512
X2.4 Y1.58
X2.356 Y1.644
X2.094 Y1.985
X2.048 Y2.04
X1.985 Y2.094
X1.486 Y2.477
X1.455 Y2.499
X1.424 Y2.516
X0.827 Y2.764
X0.754 Y2.791
X0.586 Y2.817
X0.084 Y2.883
X0. Y2.892
X-0.084 Y2.883
X-0.586 Y2.817
X-0.754 Y2.791
X-0.827 Y2.764
X-1.424 Y2.516
X-1.455 Y2.499
X-1.486 Y2.477
X-1.985 Y2.094
X-2.04 Y2.048
X-2.094 Y1.985
X-2.477 Y1.486
X-2.499 Y1.455
X-2.516 Y1.424
X-2.764 Y0.827
X-2.791 Y0.754
X-2.817 Y0.586
X-2.883 Y0.084
X-2.892 Y0.
X-2.883 Y-0.084
X-2.817 Y-0.586
X-2.791 Y-0.754
X-2.764 Y-0.827
X-2.516 Y-1.424
X-2.499 Y-1.455
X-2.477 Y-1.486
X-2.094 Y-1.985
X-2.04 Y-2.049
X-1.985 Y-2.094
X-1.486 Y-2.477
X-1.455 Y-2.499
X-1.424 Y-2.516
X-0.827 Y-2.764
X-0.754 Y-2.791
X-0.586 Y-2.817
X-0.084 Y-2.883
X0. Y-2.892
X0.084 Y-2.883
X0.586 Y-2.817
X0.754 Y-2.791
X0.827 Y-2.764
X1.424 Y-2.516
X1.455 Y-2.499
X1.486 Y-2.477
X1.985 Y-2.094
X2.048 Y-2.04
X2.094 Y-1.985
X2.477 Y-1.486
X2.499 Y-1.455
X2.516 Y-1.424
X2.764 Y-0.827
X2.791 Y-0.754
X2.817 Y-0.586
X2.883 Y-0.084
X2.892 Y0.
X2.883 Y0.084
X2.817 Y0.586
X2.791 Y0.754
X2.764 Y0.827
X2.516 Y1.424
X2.499 Y1.455
X2.477 Y1.486
X2.356 Y1.644
G3 X1.793 Y1.435 I-0.245 J-0.202
G1 X1.795 Y1.365 Z-2.492
X1.796 Y1.298 Z-2.469
X1.798 Y1.237 Z-2.431
X1.799 Y1.187 Z-2.38
Y1.149 Z-2.32
X1.8 Y1.126 Z-2.253
Y1.118 Z-2.182
Z8.

M5
G28 G91 Z0.
G90
G28 G91 X0. Y0.
G90
M30
