(1001)
(T6 D=2. CR=0. - ZMIN=-3. - FRESA CON PUNTA PLANA)
G90 G94 G91.1 G40 G49 G17
G21
(WHEN USING FUSION FOR PERSONAL USE, THE FEEDRATE OF RAPID)
(MOVES IS REDUCED TO MATCH THE FEEDRATE OF CUTTING MOVES,)
(WHICH CAN INCREASE MACHINING TIME. UNRESTRICTED RAPID MOVES)
(ARE AVAILABLE WITH A FUSION SUBSCRIPTION.)
G28 G91 Z0.
G90

(2D CONTORNEADO4)
T6 M6
S10000 M3
G17 G90 G94
G54
M8
G0 X32.656 Y-13.815
G43 Z15. H6
G1 Z5. F120.
Z0.4 F40.
Z-0.3
G18 G2 X32.856 Z-0.5 I0.2 K0. F120.
G1 X33.056
G17 G3 X33.256 Y-13.615 I0. J0.2
X22.756 I-5.25 J0.
X33.256 I5.25 J0.
X33.056 Y-13.415 I-0.2 J0.
G1 X32.856
G18 G3 X32.656 Z-0.3 I0. K0.2
G1 Z5.
Y-13.815
Z-0.1 F40.
Z-0.8
G2 X32.856 Z-1. I0.2 K0. F120.
G1 X33.056
G17 G3 X33.256 Y-13.615 I0. J0.2
X22.756 I-5.25 J0.
X33.256 I5.25 J0.
X33.056 Y-13.415 I-0.2 J0.
G1 X32.856
G18 G3 X32.656 Z-0.8 I0. K0.2
G1 Z5.
Y-13.815
Z-0.6 F40.
Z-1.3
G2 X32.856 Z-1.5 I0.2 K0. F120.
G1 X33.056
G17 G3 X33.256 Y-13.615 I0. J0.2
X22.756 I-5.25 J0.
X33.256 I5.25 J0.
X33.056 Y-13.415 I-0.2 J0.
G1 X32.856
G18 G3 X32.656 Z-1.3 I0. K0.2
G1 Z5.
Y-13.815
Z-1.1 F40.
Z-1.8
G2 X32.856 Z-2. I0.2 K0. F120.
G1 X33.056
G17 G3 X33.256 Y-13.615 I0. J0.2
X22.756 I-5.25 J0.
X33.256 I5.25 J0.
X33.056 Y-13.415 I-0.2 J0.
G1 X32.856
G18 G3 X32.656 Z-1.8 I0. K0.2
G1 Z5.
Y-13.815
Z-1.6 F40.
Z-2.3
G2 X32.856 Z-2.5 I0.2 K0. F120.
G1 X33.056
G17 G3 X33.256 Y-13.615 I0. J0.2
X22.756 I-5.25 J0.
X33.256 I5.25 J0.
X33.056 Y-13.415 I-0.2 J0.
G1 X32.856
G18 G3 X32.656 Z-2.3 I0. K0.2
G1 Z5.
Y-13.815
Z-2.1 F40.
Z-2.8
G2 X32.856 Z-3. I0.2 K0. F120.
G1 X33.056
G17 G3 X33.256 Y-13.615 I0. J0.2
X22.756 I-5.25 J0.
X33.256 I5.25 J0.
X33.056 Y-13.415 I-0.2 J0.
G1 X32.856
G18 G3 X32.656 Z-2.8 I0. K0.2
G1 Z5.
X46.644 Y-13.815
Z0.4 F40.
Z-0.3
G2 X46.844 Z-0.5 I0.2 K0. F120.
G1 X47.044
G17 G3 X47.244 Y-13.615 I0. J0.2
X36.744 I-5.25 J0.
X47.244 I5.25 J0.
X47.044 Y-13.415 I-0.2 J0.
G1 X46.844
G18 G3 X46.644 Z-0.3 I0. K0.2
G1 Z5.
Y-13.815
Z-0.1 F40.
Z-0.8
G2 X46.844 Z-1. I0.2 K0. F120.
G1 X47.044
G17 G3 X47.244 Y-13.615 I0. J0.2
X36.744 I-5.25 J0.
X47.244 I5.25 J0.
X47.044 Y-13.415 I-0.2 J0.
G1 X46.844
G18 G3 X46.644 Z-0.8 I0. K0.2
G1 Z5.
Y-13.815
Z-0.6 F40.
Z-1.3
G2 X46.844 Z-1.5 I0.2 K0. F120.
G1 X47.044
G17 G3 X47.244 Y-13.615 I0. J0.2
X36.744 I-5.25 J0.
X47.244 I5.25 J0.
X47.044 Y-13.415 I-0.2 J0.
G1 X46.844
G18 G3 X46.644 Z-1.3 I0. K0.2
G1 Z5.
Y-13.815
Z-1.1 F40.
Z-1.8
G2 X46.844 Z-2. I0.2 K0. F120.
G1 X47.044
G17 G3 X47.244 Y-13.615 I0. J0.2
X36.744 I-5.25 J0.
X47.244 I5.25 J0.
X47.044 Y-13.415 I-0.2 J0.
G1 X46.844
G18 G3 X46.644 Z-1.8 I0. K0.2
G1 Z5.
Y-13.815
Z-1.6 F40.
Z-2.3
G2 X46.844 Z-2.5 I0.2 K0. F120.
G1 X47.044
G17 G3 X47.244 Y-13.615 I0. J0.2
X36.744 I-5.25 J0.
X47.244 I5.25 J0.
X47.044 Y-13.415 I-0.2 J0.
G1 X46.844
G18 G3 X46.644 Z-2.3 I0. K0.2
G1 Z5.
Y-13.815
Z-2.1 F40.
Z-2.8
G2 X46.844 Z-3. I0.2 K0. F120.
G1 X47.044
G17 G3 X47.244 Y-13.615 I0. J0.2
X36.744 I-5.25 J0.
X47.244 I5.25 J0.
X47.044 Y-13.415 I-0.2 J0.
G1 X46.844
G18 G3 X46.644 Z-2.8 I0. K0.2
G1 Z5.
X60.637 Y-13.565
Z0.4 F40.
Z-0.3
X60.644 Z-0.352 F120.
X60.664 Y-13.564 Z-0.4
X60.695 Y-13.562 Z-0.441
X60.737 Y-13.56 Z-0.473
X60.785 Y-13.557 Z-0.493
X60.837 Y-13.554 Z-0.5
X61.036 Y-13.544
G17 G3 X61.225 Y-13.333 I-0.011 J0.2
X50.74 Y-13.897 I-5.242 J-0.282
X61.225 Y-13.333 I5.242 J0.282
X61.015 Y-13.144 I-0.2 J-0.011
G1 X60.815 Y-13.155
X60.763 Y-13.158 Z-0.493
X60.715 Y-13.16 Z-0.473
X60.674 Y-13.163 Z-0.441
X60.642 Y-13.164 Z-0.4
X60.622 Y-13.165 Z-0.352
X60.615 Y-13.166 Z-0.3
Z5.
X60.637 Y-13.565
Z-0.1 F40.
Z-0.8
X60.644 Z-0.852 F120.
X60.664 Y-13.564 Z-0.9
X60.695 Y-13.562 Z-0.941
X60.737 Y-13.56 Z-0.973
X60.785 Y-13.557 Z-0.993
X60.837 Y-13.554 Z-1.
X61.036 Y-13.544
G3 X61.225 Y-13.333 I-0.011 J0.2
X50.74 Y-13.897 I-5.242 J-0.282
X61.225 Y-13.333 I5.242 J0.282
X61.015 Y-13.144 I-0.2 J-0.011
G1 X60.815 Y-13.155
X60.763 Y-13.158 Z-0.993
X60.715 Y-13.16 Z-0.973
X60.674 Y-13.163 Z-0.941
X60.642 Y-13.164 Z-0.9
X60.622 Y-13.165 Z-0.852
X60.615 Y-13.166 Z-0.8
Z5.
X60.637 Y-13.565
Z-0.6 F40.
Z-1.3
X60.644 Z-1.352 F120.
X60.664 Y-13.564 Z-1.4
X60.695 Y-13.562 Z-1.441
X60.737 Y-13.56 Z-1.473
X60.785 Y-13.557 Z-1.493
X60.837 Y-13.554 Z-1.5
X61.036 Y-13.544
G3 X61.225 Y-13.333 I-0.011 J0.2
X50.74 Y-13.897 I-5.242 J-0.282
X61.225 Y-13.333 I5.242 J0.282
X61.015 Y-13.144 I-0.2 J-0.011
G1 X60.815 Y-13.155
X60.763 Y-13.158 Z-1.493
X60.715 Y-13.16 Z-1.473
X60.674 Y-13.163 Z-1.441
X60.642 Y-13.164 Z-1.4
X60.622 Y-13.165 Z-1.352
X60.615 Y-13.166 Z-1.3
Z5.
X60.637 Y-13.565
Z-1.1 F40.
Z-1.8
X60.644 Z-1.852 F120.
X60.664 Y-13.564 Z-1.9
X60.695 Y-13.562 Z-1.941
X60.737 Y-13.56 Z-1.973
X60.785 Y-13.557 Z-1.993
X60.837 Y-13.554 Z-2.
X61.036 Y-13.544
G3 X61.225 Y-13.333 I-0.011 J0.2
X50.74 Y-13.897 I-5.242 J-0.282
X61.225 Y-13.333 I5.242 J0.282
X61.015 Y-13.144 I-0.2 J-0.011
G1 X60.815 Y-13.155
X60.763 Y-13.158 Z-1.993
X60.715 Y-13.16 Z-1.973
X60.674 Y-13.163 Z-1.941
X60.642 Y-13.164 Z-1.9
X60.622 Y-13.165 Z-1.852
X60.615 Y-13.166 Z-1.8
Z5.
X60.637 Y-13.565
Z-1.6 F40.
Z-2.3
X60.644 Z-2.352 F120.
X60.664 Y-13.564 Z-2.4
X60.695 Y-13.562 Z-2.441
X60.737 Y-13.56 Z-2.473
X60.785 Y-13.557 Z-2.493
X60.837 Y-13.554 Z-2.5
X61.036 Y-13.544
G3 X61.225 Y-13.333 I-0.011 J0.2
X50.74 Y-13.897 I-5.242 J-0.282
X61.225 Y-13.333 I5.242 J0.282
X61.015 Y-13.144 I-0.2 J-0.011
G1 X60.815 Y-13.155
X60.763 Y-13.158 Z-2.493
X60.715 Y-13.16 Z-2.473
X60.674 Y-13.163 Z-2.441
X60.642 Y-13.164 Z-2.4
X60.622 Y-13.165 Z-2.352
X60.615 Y-13.166 Z-2.3
Z5.
X60.637 Y-13.565
Z-2.1 F40.
Z-2.8
X60.644 Z-2.852 F120.
X60.664 Y-13.564 Z-2.9
X60.695 Y-13.562 Z-2.941
X60.737 Y-13.56 Z-2.973
X60.785 Y-13.557 Z-2.993
X60.837 Y-13.554 Z-3.
X61.036 Y-13.544
G3 X61.225 Y-13.333 I-0.011 J0.2
X50.74 Y-13.897 I-5.242 J-0.282
X61.225 Y-13.333 I5.242 J0.282
X61.015 Y-13.144 I-0.2 J-0.011
G1 X60.815 Y-13.155
X60.763 Y-13.158 Z-2.993
X60.715 Y-13.16 Z-2.973
X60.674 Y-13.163 Z-2.941
X60.642 Y-13.164 Z-2.9
X60.622 Y-13.165 Z-2.852
X60.615 Y-13.166 Z-2.8
Z5.
X61.791 Y-7.47
Z0.4 F40.
Z-0.3
X61.797 Y-7.467 Z-0.352 F120.
X61.815 Y-7.458 Z-0.4
X61.844 Y-7.445 Z-0.441
X61.881 Y-7.427 Z-0.473
X61.924 Y-7.406 Z-0.493
X61.971 Y-7.383 Z-0.5
X62.151 Y-7.296
G3 X62.245 Y-7.029 I-0.087 J0.18
X61.118 Y-7.572 I-0.563 J-0.271
X62.245 Y-7.029 I0.563 J0.271
X61.978 Y-6.936 I-0.18 J-0.087
G1 X61.797 Y-7.023
X61.751 Y-7.045 Z-0.493
X61.707 Y-7.066 Z-0.473
X61.67 Y-7.084 Z-0.441
X61.641 Y-7.098 Z-0.4
X61.623 Y-7.107 Z-0.352
X61.617 Y-7.11 Z-0.3
Z5.
X61.791 Y-7.47
Z-0.1 F40.
Z-0.8
X61.797 Y-7.467 Z-0.852 F120.
X61.815 Y-7.458 Z-0.9
X61.844 Y-7.445 Z-0.941
X61.881 Y-7.427 Z-0.973
X61.924 Y-7.406 Z-0.993
X61.971 Y-7.383 Z-1.
X62.151 Y-7.296
G3 X62.245 Y-7.029 I-0.087 J0.18
X61.118 Y-7.572 I-0.563 J-0.271
X62.245 Y-7.029 I0.563 J0.271
X61.978 Y-6.936 I-0.18 J-0.087
G1 X61.797 Y-7.023
X61.751 Y-7.045 Z-0.993
X61.707 Y-7.066 Z-0.973
X61.67 Y-7.084 Z-0.941
X61.641 Y-7.098 Z-0.9
X61.623 Y-7.107 Z-0.852
X61.617 Y-7.11 Z-0.8
Z5.
X61.791 Y-7.47
Z-0.6 F40.
Z-1.3
X61.797 Y-7.467 Z-1.352 F120.
X61.815 Y-7.458 Z-1.4
X61.844 Y-7.445 Z-1.441
X61.881 Y-7.427 Z-1.473
X61.924 Y-7.406 Z-1.493
X61.971 Y-7.383 Z-1.5
X62.151 Y-7.296
G3 X62.245 Y-7.029 I-0.087 J0.18
X61.118 Y-7.572 I-0.563 J-0.271
X62.245 Y-7.029 I0.563 J0.271
X61.978 Y-6.936 I-0.18 J-0.087
G1 X61.797 Y-7.023
X61.751 Y-7.045 Z-1.493
X61.707 Y-7.066 Z-1.473
X61.67 Y-7.084 Z-1.441
X61.641 Y-7.098 Z-1.4
X61.623 Y-7.107 Z-1.352
X61.617 Y-7.11 Z-1.3
Z5.
X61.791 Y-7.47
Z-1.1 F40.
Z-1.8
X61.797 Y-7.467 Z-1.852 F120.
X61.815 Y-7.458 Z-1.9
X61.844 Y-7.445 Z-1.941
X61.881 Y-7.427 Z-1.973
X61.924 Y-7.406 Z-1.993
X61.971 Y-7.383 Z-2.
X62.151 Y-7.296
G3 X62.245 Y-7.029 I-0.087 J0.18
X61.118 Y-7.572 I-0.563 J-0.271
X62.245 Y-7.029 I0.563 J0.271
X61.978 Y-6.936 I-0.18 J-0.087
G1 X61.797 Y-7.023
X61.751 Y-7.045 Z-1.993
X61.707 Y-7.066 Z-1.973
X61.67 Y-7.084 Z-1.941
X61.641 Y-7.098 Z-1.9
X61.623 Y-7.107 Z-1.852
X61.617 Y-7.11 Z-1.8
Z5.
X61.791 Y-7.47
Z-1.6 F40.
Z-2.3
X61.797 Y-7.467 Z-2.352 F120.
X61.815 Y-7.458 Z-2.4
X61.844 Y-7.445 Z-2.441
X61.881 Y-7.427 Z-2.473
X61.924 Y-7.406 Z-2.493
X61.971 Y-7.383 Z-2.5
X62.151 Y-7.296
G3 X62.245 Y-7.029 I-0.087 J0.18
X61.118 Y-7.572 I-0.563 J-0.271
X62.245 Y-7.029 I0.563 J0.271
X61.978 Y-6.936 I-0.18 J-0.087
G1 X61.797 Y-7.023
X61.751 Y-7.045 Z-2.493
X61.707 Y-7.066 Z-2.473
X61.67 Y-7.084 Z-2.441
X61.641 Y-7.098 Z-2.4
X61.623 Y-7.107 Z-2.352
X61.617 Y-7.11 Z-2.3
Z5.
X61.791 Y-7.47
Z-2.1 F40.
Z-2.8
X61.797 Y-7.467 Z-2.852 F120.
X61.815 Y-7.458 Z-2.9
X61.844 Y-7.445 Z-2.941
X61.881 Y-7.427 Z-2.973
X61.924 Y-7.406 Z-2.993
X61.971 Y-7.383 Z-3.
X62.151 Y-7.296
G3 X62.245 Y-7.029 I-0.087 J0.18
X61.118 Y-7.572 I-0.563 J-0.271
X62.245 Y-7.029 I0.563 J0.271
X61.978 Y-6.936 I-0.18 J-0.087
G1 X61.797 Y-7.023
X61.751 Y-7.045 Z-2.993
X61.707 Y-7.066 Z-2.973
X61.67 Y-7.084 Z-2.941
X61.641 Y-7.098 Z-2.9
X61.623 Y-7.107 Z-2.852
X61.617 Y-7.11 Z-2.8
Z5.
X63.281 Y-26.112
Z0.4 F40.
Z-0.3
G19 G3 Y-25.912 Z-0.5 J0.2 K0. F120.
G1 Y-25.712
G17 G3 X63.081 Y-25.512 I-0.2 J0.
G1 X39.264
G2 X31.743 Y-26.958 I-4.264 J1.897
G1 X25.521
G2 X23.923 Y-26.291 I0. J2.25
G1 X23.859 Y-26.227
X23.821 Y-26.195
X23.778 Y-26.172
X23.731 Y-26.157
X23.681 Y-26.153
X22.148
G2 X21.033 Y-25.857 I0. J2.25
G1 X20.486 Y-25.545
X20.447 Y-25.527
X20.405 Y-25.516
X20.362 Y-25.512
X6.919
G2 X3.419 Y-22.012 I0. J3.5
G1 Y-5.218
G2 X6.919 Y-1.718 I3.5 J0.
G1 X14.185
G2 X15.776 Y-3.011 I0. J-1.625
G1 X53.198
G2 X54.789 Y-1.718 I1.591 J-0.332
G1 X63.081
G2 X66.581 Y-5.218 I0. J-3.5
G1 Y-22.012
G2 X63.081 Y-25.512 I-3.5 J0.
G3 X62.881 Y-25.712 I0. J-0.2
G1 Y-25.912
G19 G2 Y-26.112 Z-0.3 J0. K0.2
G1 Z5.
X63.281
Z-0.1 F40.
Z-0.8
G3 Y-25.912 Z-1. J0.2 K0. F120.
G1 Y-25.712
G17 G3 X63.081 Y-25.512 I-0.2 J0.
G1 X39.264
G2 X31.743 Y-26.958 I-4.264 J1.897
G1 X25.521
G2 X23.923 Y-26.291 I0. J2.25
G1 X23.859 Y-26.227
X23.821 Y-26.195
X23.778 Y-26.172
X23.731 Y-26.157
X23.681 Y-26.153
X22.148
G2 X21.033 Y-25.857 I0. J2.25
G1 X20.486 Y-25.545
X20.447 Y-25.527
X20.405 Y-25.516
X20.362 Y-25.512
X6.919
G2 X3.419 Y-22.012 I0. J3.5
G1 Y-5.218
G2 X6.919 Y-1.718 I3.5 J0.
G1 X14.185
G2 X15.776 Y-3.011 I0. J-1.625
G1 X53.198
G2 X54.789 Y-1.718 I1.591 J-0.332
G1 X63.081
G2 X66.581 Y-5.218 I0. J-3.5
G1 Y-22.012
G2 X63.081 Y-25.512 I-3.5 J0.
G3 X62.881 Y-25.712 I0. J-0.2
G1 Y-25.912
G19 G2 Y-26.112 Z-0.8 J0. K0.2
G1 Z5.
X63.281
Z-0.6 F40.
Z-1.3
G3 Y-25.912 Z-1.5 J0.2 K0. F120.
G1 Y-25.712
G17 G3 X63.081 Y-25.512 I-0.2 J0.
G1 X39.264
G2 X31.743 Y-26.958 I-4.264 J1.897
G1 X25.521
G2 X23.923 Y-26.291 I0. J2.25
G1 X23.859 Y-26.227
X23.821 Y-26.195
X23.778 Y-26.172
X23.731 Y-26.157
X23.681 Y-26.153
X22.148
G2 X21.033 Y-25.857 I0. J2.25
G1 X20.486 Y-25.545
X20.447 Y-25.527
X20.405 Y-25.516
X20.362 Y-25.512
X6.919
G2 X3.419 Y-22.012 I0. J3.5
G1 Y-5.218
G2 X6.919 Y-1.718 I3.5 J0.
G1 X14.185
G2 X15.776 Y-3.011 I0. J-1.625
G1 X53.198
G2 X54.789 Y-1.718 I1.591 J-0.332
G1 X63.081
G2 X66.581 Y-5.218 I0. J-3.5
G1 Y-22.012
G2 X63.081 Y-25.512 I-3.5 J0.
G3 X62.881 Y-25.712 I0. J-0.2
G1 Y-25.912
G19 G2 Y-26.112 Z-1.3 J0. K0.2
G1 Z5.
X63.281
Z-1.1 F40.
Z-1.8
G3 Y-25.912 Z-2. J0.2 K0. F120.
G1 Y-25.712
G17 G3 X63.081 Y-25.512 I-0.2 J0.
G1 X39.264
G2 X31.743 Y-26.958 I-4.264 J1.897
G1 X25.521
G2 X23.923 Y-26.291 I0. J2.25
G1 X23.859 Y-26.227
X23.821 Y-26.195
X23.778 Y-26.172
X23.731 Y-26.157
X23.681 Y-26.153
X22.148
G2 X21.033 Y-25.857 I0. J2.25
G1 X20.486 Y-25.545
X20.447 Y-25.527
X20.405 Y-25.516
X20.362 Y-25.512
X6.919
G2 X3.419 Y-22.012 I0. J3.5
G1 Y-5.218
G2 X6.919 Y-1.718 I3.5 J0.
G1 X14.185
G2 X15.776 Y-3.011 I0. J-1.625
G1 X53.198
G2 X54.789 Y-1.718 I1.591 J-0.332
G1 X63.081
G2 X66.581 Y-5.218 I0. J-3.5
G1 Y-22.012
G2 X63.081 Y-25.512 I-3.5 J0.
G3 X62.881 Y-25.712 I0. J-0.2
G1 Y-25.912
G19 G2 Y-26.112 Z-1.8 J0. K0.2
G1 Z5.
X63.281
Z-1.6 F40.
Z-2.3
G3 Y-25.912 Z-2.5 J0.2 K0. F120.
G1 Y-25.712
G17 G3 X63.081 Y-25.512 I-0.2 J0.
G1 X39.264
G2 X31.743 Y-26.958 I-4.264 J1.897
G1 X25.521
G2 X23.923 Y-26.291 I0. J2.25
G1 X23.859 Y-26.227
X23.821 Y-26.195
X23.778 Y-26.172
X23.731 Y-26.157
X23.681 Y-26.153
X22.148
G2 X21.033 Y-25.857 I0. J2.25
G1 X20.486 Y-25.545
X20.447 Y-25.527
X20.405 Y-25.516
X20.362 Y-25.512
X6.919
G2 X3.419 Y-22.012 I0. J3.5
G1 Y-5.218
G2 X6.919 Y-1.718 I3.5 J0.
G1 X14.185
G2 X15.776 Y-3.011 I0. J-1.625
G1 X53.198
G2 X54.789 Y-1.718 I1.591 J-0.332
G1 X63.081
G2 X66.581 Y-5.218 I0. J-3.5
G1 Y-22.012
G2 X63.081 Y-25.512 I-3.5 J0.
G3 X62.881 Y-25.712 I0. J-0.2
G1 Y-25.912
G19 G2 Y-26.112 Z-2.3 J0. K0.2
G1 Z5.
X63.281
Z-2.1 F40.
Z-2.8
G3 Y-25.912 Z-3. J0.2 K0. F120.
G1 Y-25.712
G17 G3 X63.081 Y-25.512 I-0.2 J0.
G1 X39.264
G2 X31.743 Y-26.958 I-4.264 J1.897
G1 X25.521
G2 X23.923 Y-26.291 I0. J2.25
G1 X23.859 Y-26.227
X23.821 Y-26.195
X23.778 Y-26.172
X23.731 Y-26.157
X23.681 Y-26.153
X22.148
G2 X21.033 Y-25.857 I0. J2.25
G1 X20.486 Y-25.545
X20.447 Y-25.527
X20.405 Y-25.516
X20.362 Y-25.512
X6.919
G2 X3.419 Y-22.012 I0. J3.5
G1 Y-5.218
G2 X6.919 Y-1.718 I3.5 J0.
G1 X14.185
G2 X15.776 Y-3.011 I0. J-1.625
G1 X53.198
G2 X54.789 Y-1.718 I1.591 J-0.332
G1 X63.081
G2 X66.581 Y-5.218 I0. J-3.5
G1 Y-22.012
G2 X63.081 Y-25.512 I-3.5 J0.
G3 X62.881 Y-25.712 I0. J-0.2
G1 Y-25.912
G19 G2 Y-26.112 Z-2.8 J0. K0.2
G1 Z5.
X62.439 Y-20.285
Z0.4 F40.
Z-0.3
G18 G2 X62.639 Z-0.5 I0.2 K0. F120.
G1 X62.839
G17 G3 X63.039 Y-20.085 I0. J0.2
X61.789 I-0.625 J0.
X63.039 I0.625 J0.
X62.839 Y-19.885 I-0.2 J0.
G1 X62.639
G18 G3 X62.439 Z-0.3 I0. K0.2
G1 Z5.
Y-20.285
Z-0.1 F40.
Z-0.8
G2 X62.639 Z-1. I0.2 K0. F120.
G1 X62.839
G17 G3 X63.039 Y-20.085 I0. J0.2
X61.789 I-0.625 J0.
X63.039 I0.625 J0.
X62.839 Y-19.885 I-0.2 J0.
G1 X62.639
G18 G3 X62.439 Z-0.8 I0. K0.2
G1 Z5.
Y-20.285
Z-0.6 F40.
Z-1.3
G2 X62.639 Z-1.5 I0.2 K0. F120.
G1 X62.839
G17 G3 X63.039 Y-20.085 I0. J0.2
X61.789 I-0.625 J0.
X63.039 I0.625 J0.
X62.839 Y-19.885 I-0.2 J0.
G1 X62.639
G18 G3 X62.439 Z-1.3 I0. K0.2
G1 Z5.
Y-20.285
Z-1.1 F40.
Z-1.8
G2 X62.639 Z-2. I0.2 K0. F120.
G1 X62.839
G17 G3 X63.039 Y-20.085 I0. J0.2
X61.789 I-0.625 J0.
X63.039 I0.625 J0.
X62.839 Y-19.885 I-0.2 J0.
G1 X62.639
G18 G3 X62.439 Z-1.8 I0. K0.2
G1 Z5.
Y-20.285
Z-1.6 F40.
Z-2.3
G2 X62.639 Z-2.5 I0.2 K0. F120.
G1 X62.839
G17 G3 X63.039 Y-20.085 I0. J0.2
X61.789 I-0.625 J0.
X63.039 I0.625 J0.
X62.839 Y-19.885 I-0.2 J0.
G1 X62.639
G18 G3 X62.439 Z-2.3 I0. K0.2
G1 Z5.
Y-20.285
Z-2.1 F40.
Z-2.8
G2 X62.639 Z-3. I0.2 K0. F120.
G1 X62.839
G17 G3 X63.039 Y-20.085 I0. J0.2
X61.789 I-0.625 J0.
X63.039 I0.625 J0.
X62.839 Y-19.885 I-0.2 J0.
G1 X62.639
G18 G3 X62.439 Z-2.8 I0. K0.2
G1 Z5.
X49.45 Y-20.526
Z0.4 F40.
Z-0.3
X49.452 Y-20.52 Z-0.352 F120.
X49.46 Y-20.501 Z-0.4
X49.472 Y-20.472 Z-0.441
X49.489 Y-20.434 Z-0.473
X49.507 Y-20.389 Z-0.493
X49.528 Y-20.342 Z-0.5
X49.606 Y-20.158
G17 G3 X49.5 Y-19.895 I-0.184 J0.078
G1 X49.367 Y-19.839
X49.241 Y-19.793
X49.112 Y-19.749
X49. Y-19.714
X48.983 Y-19.741
X48.949 Y-19.804
X48.917 Y-19.875
X48.889 Y-19.949
X48.869 Y-20.021
X48.855 Y-20.087
X48.849 Y-20.145
Y-20.194
X48.854 Y-20.232
X48.86 Y-20.254
X48.865 Y-20.264
X48.866 Y-20.266
X48.874 Y-20.277
X48.896 Y-20.3
X48.93 Y-20.331
X48.99 Y-20.377
X49.03 Y-20.403
X49.094 Y-20.444
X49.271 Y-20.551
X49.475 Y-20.668
X49.926 Y-20.915
X50.134 Y-21.025
X50.228 Y-21.074
X50.314 Y-21.119
X50.389 Y-21.158
X50.452 Y-21.19
X50.499 Y-21.214
X50.524 Y-21.226
X50.569 Y-21.248
X50.814 Y-21.347
X50.887 Y-21.368
X50.963 Y-21.382
X51.023 Y-21.387
X51.074 Y-21.386
X51.114 Y-21.381
X51.147 Y-21.373
X51.18 Y-21.362
X51.208 Y-21.35
X51.229 Y-21.337
X51.231 Y-21.336
X51.213 Y-21.302
X51.203 Y-21.286
X51.189 Y-21.265
X51.164 Y-21.231
X51.125 Y-21.181
X51.068 Y-21.113
X50.989 Y-21.025
X50.887 Y-20.918
X50.759 Y-20.791
X50.617 Y-20.657
X50.482 Y-20.537
X50.353 Y-20.429
X50.232 Y-20.333
X50.119 Y-20.249
X50.013 Y-20.175
X49.916 Y-20.112
X49.828 Y-20.057
X49.749 Y-20.012
X49.68 Y-19.975
X49.635 Y-19.953
X49.5 Y-19.895
G3 X49.238 Y-20.001 I-0.078 J-0.184
G1 X49.159 Y-20.185
X49.139 Y-20.233 Z-0.493
X49.12 Y-20.277 Z-0.473
X49.104 Y-20.316 Z-0.441
X49.092 Y-20.345 Z-0.4
X49.084 Y-20.363 Z-0.352
X49.081 Y-20.37 Z-0.3
Z5.
X49.45 Y-20.526
Z-0.1 F40.
Z-0.8
X49.452 Y-20.52 Z-0.852 F120.
X49.46 Y-20.501 Z-0.9
X49.472 Y-20.472 Z-0.941
X49.489 Y-20.434 Z-0.973
X49.507 Y-20.389 Z-0.993
X49.528 Y-20.342 Z-1.
X49.606 Y-20.158
G3 X49.5 Y-19.895 I-0.184 J0.078
G1 X49.367 Y-19.839
X49.241 Y-19.793
X49.112 Y-19.749
X49. Y-19.714
X48.983 Y-19.741
X48.949 Y-19.804
X48.917 Y-19.875
X48.889 Y-19.949
X48.869 Y-20.021
X48.855 Y-20.087
X48.849 Y-20.145
Y-20.194
X48.854 Y-20.232
X48.86 Y-20.254
X48.865 Y-20.264
X48.866 Y-20.266
X48.874 Y-20.277
X48.896 Y-20.3
X48.93 Y-20.331
X48.99 Y-20.377
X49.03 Y-20.403
X49.094 Y-20.444
X49.271 Y-20.551
X49.475 Y-20.668
X49.926 Y-20.915
X50.134 Y-21.025
X50.228 Y-21.074
X50.314 Y-21.119
X50.389 Y-21.158
X50.452 Y-21.19
X50.499 Y-21.214
X50.524 Y-21.226
X50.569 Y-21.248
X50.814 Y-21.347
X50.887 Y-21.368
X50.963 Y-21.382
X51.023 Y-21.387
X51.074 Y-21.386
X51.114 Y-21.381
X51.147 Y-21.373
X51.18 Y-21.362
X51.208 Y-21.35
X51.229 Y-21.337
X51.231 Y-21.336
X51.213 Y-21.302
X51.203 Y-21.286
X51.189 Y-21.265
X51.164 Y-21.231
X51.125 Y-21.181
X51.068 Y-21.113
X50.989 Y-21.025
X50.887 Y-20.918
X50.759 Y-20.791
X50.617 Y-20.657
X50.482 Y-20.537
X50.353 Y-20.429
X50.232 Y-20.333
X50.119 Y-20.249
X50.013 Y-20.175
X49.916 Y-20.112
X49.828 Y-20.057
X49.749 Y-20.012
X49.68 Y-19.975
X49.635 Y-19.953
X49.5 Y-19.895
G3 X49.238 Y-20.001 I-0.078 J-0.184
G1 X49.159 Y-20.185
X49.139 Y-20.233 Z-0.993
X49.12 Y-20.277 Z-0.973
X49.104 Y-20.316 Z-0.941
X49.092 Y-20.345 Z-0.9
X49.084 Y-20.363 Z-0.852
X49.081 Y-20.37 Z-0.8
Z5.
X49.45 Y-20.526
Z-0.6 F40.
Z-1.3
X49.452 Y-20.52 Z-1.352 F120.
X49.46 Y-20.501 Z-1.4
X49.472 Y-20.472 Z-1.441
X49.489 Y-20.434 Z-1.473
X49.507 Y-20.389 Z-1.493
X49.528 Y-20.342 Z-1.5
X49.606 Y-20.158
G3 X49.5 Y-19.895 I-0.184 J0.078
G1 X49.367 Y-19.839
X49.241 Y-19.793
X49.112 Y-19.749
X49. Y-19.714
X48.983 Y-19.741
X48.949 Y-19.804
X48.917 Y-19.875
X48.889 Y-19.949
X48.869 Y-20.021
X48.855 Y-20.087
X48.849 Y-20.145
Y-20.194
X48.854 Y-20.232
X48.86 Y-20.254
X48.865 Y-20.264
X48.866 Y-20.266
X48.874 Y-20.277
X48.896 Y-20.3
X48.93 Y-20.331
X48.99 Y-20.377
X49.03 Y-20.403
X49.094 Y-20.444
X49.271 Y-20.551
X49.475 Y-20.668
X49.926 Y-20.915
X50.134 Y-21.025
X50.228 Y-21.074
X50.314 Y-21.119
X50.389 Y-21.158
X50.452 Y-21.19
X50.499 Y-21.214
X50.524 Y-21.226
X50.569 Y-21.248
X50.814 Y-21.347
X50.887 Y-21.368
X50.963 Y-21.382
X51.023 Y-21.387
X51.074 Y-21.386
X51.114 Y-21.381
X51.147 Y-21.373
X51.18 Y-21.362
X51.208 Y-21.35
X51.229 Y-21.337
X51.231 Y-21.336
X51.213 Y-21.302
X51.203 Y-21.286
X51.189 Y-21.265
X51.164 Y-21.231
X51.125 Y-21.181
X51.068 Y-21.113
X50.989 Y-21.025
X50.887 Y-20.918
X50.759 Y-20.791
X50.617 Y-20.657
X50.482 Y-20.537
X50.353 Y-20.429
X50.232 Y-20.333
X50.119 Y-20.249
X50.013 Y-20.175
X49.916 Y-20.112
X49.828 Y-20.057
X49.749 Y-20.012
X49.68 Y-19.975
X49.635 Y-19.953
X49.5 Y-19.895
G3 X49.238 Y-20.001 I-0.078 J-0.184
G1 X49.159 Y-20.185
X49.139 Y-20.233 Z-1.493
X49.12 Y-20.277 Z-1.473
X49.104 Y-20.316 Z-1.441
X49.092 Y-20.345 Z-1.4
X49.084 Y-20.363 Z-1.352
X49.081 Y-20.37 Z-1.3
Z5.
X49.45 Y-20.526
Z-1.1 F40.
Z-1.8
X49.452 Y-20.52 Z-1.852 F120.
X49.46 Y-20.501 Z-1.9
X49.472 Y-20.472 Z-1.941
X49.489 Y-20.434 Z-1.973
X49.507 Y-20.389 Z-1.993
X49.528 Y-20.342 Z-2.
X49.606 Y-20.158
G3 X49.5 Y-19.895 I-0.184 J0.078
G1 X49.367 Y-19.839
X49.241 Y-19.793
X49.112 Y-19.749
X49. Y-19.714
X48.983 Y-19.741
X48.949 Y-19.804
X48.917 Y-19.875
X48.889 Y-19.949
X48.869 Y-20.021
X48.855 Y-20.087
X48.849 Y-20.145
Y-20.194
X48.854 Y-20.232
X48.86 Y-20.254
X48.865 Y-20.264
X48.866 Y-20.266
X48.874 Y-20.277
X48.896 Y-20.3
X48.93 Y-20.331
X48.99 Y-20.377
X49.03 Y-20.403
X49.094 Y-20.444
X49.271 Y-20.551
X49.475 Y-20.668
X49.926 Y-20.915
X50.134 Y-21.025
X50.228 Y-21.074
X50.314 Y-21.119
X50.389 Y-21.158
X50.452 Y-21.19
X50.499 Y-21.214
X50.524 Y-21.226
X50.569 Y-21.248
X50.814 Y-21.347
X50.887 Y-21.368
X50.963 Y-21.382
X51.023 Y-21.387
X51.074 Y-21.386
X51.114 Y-21.381
X51.147 Y-21.373
X51.18 Y-21.362
X51.208 Y-21.35
X51.229 Y-21.337
X51.231 Y-21.336
X51.213 Y-21.302
X51.203 Y-21.286
X51.189 Y-21.265
X51.164 Y-21.231
X51.125 Y-21.181
X51.068 Y-21.113
X50.989 Y-21.025
X50.887 Y-20.918
X50.759 Y-20.791
X50.617 Y-20.657
X50.482 Y-20.537
X50.353 Y-20.429
X50.232 Y-20.333
X50.119 Y-20.249
X50.013 Y-20.175
X49.916 Y-20.112
X49.828 Y-20.057
X49.749 Y-20.012
X49.68 Y-19.975
X49.635 Y-19.953
X49.5 Y-19.895
G3 X49.238 Y-20.001 I-0.078 J-0.184
G1 X49.159 Y-20.185
X49.139 Y-20.233 Z-1.993
X49.12 Y-20.277 Z-1.973
X49.104 Y-20.316 Z-1.941
X49.092 Y-20.345 Z-1.9
X49.084 Y-20.363 Z-1.852
X49.081 Y-20.37 Z-1.8
Z5.
X49.45 Y-20.526
Z-1.6 F40.
Z-2.3
X49.452 Y-20.52 Z-2.352 F120.
X49.46 Y-20.501 Z-2.4
X49.472 Y-20.472 Z-2.441
X49.489 Y-20.434 Z-2.473
X49.507 Y-20.389 Z-2.493
X49.528 Y-20.342 Z-2.5
X49.606 Y-20.158
G3 X49.5 Y-19.895 I-0.184 J0.078
G1 X49.367 Y-19.839
X49.241 Y-19.793
X49.112 Y-19.749
X49. Y-19.714
X48.983 Y-19.741
X48.949 Y-19.804
X48.917 Y-19.875
X48.889 Y-19.949
X48.869 Y-20.021
X48.855 Y-20.087
X48.849 Y-20.145
Y-20.194
X48.854 Y-20.232
X48.86 Y-20.254
X48.865 Y-20.264
X48.866 Y-20.266
X48.874 Y-20.277
X48.896 Y-20.3
X48.93 Y-20.331
X48.99 Y-20.377
X49.03 Y-20.403
X49.094 Y-20.444
X49.271 Y-20.551
X49.475 Y-20.668
X49.926 Y-20.915
X50.134 Y-21.025
X50.228 Y-21.074
X50.314 Y-21.119
X50.389 Y-21.158
X50.452 Y-21.19
X50.499 Y-21.214
X50.524 Y-21.226
X50.569 Y-21.248
X50.814 Y-21.347
X50.887 Y-21.368
X50.963 Y-21.382
X51.023 Y-21.387
X51.074 Y-21.386
X51.114 Y-21.381
X51.147 Y-21.373
X51.18 Y-21.362
X51.208 Y-21.35
X51.229 Y-21.337
X51.231 Y-21.336
X51.213 Y-21.302
X51.203 Y-21.286
X51.189 Y-21.265
X51.164 Y-21.231
X51.125 Y-21.181
X51.068 Y-21.113
X50.989 Y-21.025
X50.887 Y-20.918
X50.759 Y-20.791
X50.617 Y-20.657
X50.482 Y-20.537
X50.353 Y-20.429
X50.232 Y-20.333
X50.119 Y-20.249
X50.013 Y-20.175
X49.916 Y-20.112
X49.828 Y-20.057
X49.749 Y-20.012
X49.68 Y-19.975
X49.635 Y-19.953
X49.5 Y-19.895
G3 X49.238 Y-20.001 I-0.078 J-0.184
G1 X49.159 Y-20.185
X49.139 Y-20.233 Z-2.493
X49.12 Y-20.277 Z-2.473
X49.104 Y-20.316 Z-2.441
X49.092 Y-20.345 Z-2.4
X49.084 Y-20.363 Z-2.352
X49.081 Y-20.37 Z-2.3
Z5.
X49.45 Y-20.526
Z-2.1 F40.
Z-2.8
X49.452 Y-20.52 Z-2.852 F120.
X49.46 Y-20.501 Z-2.9
X49.472 Y-20.472 Z-2.941
X49.489 Y-20.434 Z-2.973
X49.507 Y-20.389 Z-2.993
X49.528 Y-20.342 Z-3.
X49.606 Y-20.158
G3 X49.5 Y-19.895 I-0.184 J0.078
G1 X49.367 Y-19.839
X49.241 Y-19.793
X49.112 Y-19.749
X49. Y-19.714
X48.983 Y-19.741
X48.949 Y-19.804
X48.917 Y-19.875
X48.889 Y-19.949
X48.869 Y-20.021
X48.855 Y-20.087
X48.849 Y-20.145
Y-20.194
X48.854 Y-20.232
X48.86 Y-20.254
X48.865 Y-20.264
X48.866 Y-20.266
X48.874 Y-20.277
X48.896 Y-20.3
X48.93 Y-20.331
X48.99 Y-20.377
X49.03 Y-20.403
X49.094 Y-20.444
X49.271 Y-20.551
X49.475 Y-20.668
X49.926 Y-20.915
X50.134 Y-21.025
X50.228 Y-21.074
X50.314 Y-21.119
X50.389 Y-21.158
X50.452 Y-21.19
X50.499 Y-21.214
X50.524 Y-21.226
X50.569 Y-21.248
X50.814 Y-21.347
X50.887 Y-21.368
X50.963 Y-21.382
X51.023 Y-21.387
X51.074 Y-21.386
X51.114 Y-21.381
X51.147 Y-21.373
X51.18 Y-21.362
X51.208 Y-21.35
X51.229 Y-21.337
X51.231 Y-21.336
X51.213 Y-21.302
X51.203 Y-21.286
X51.189 Y-21.265
X51.164 Y-21.231
X51.125 Y-21.181
X51.068 Y-21.113
X50.989 Y-21.025
X50.887 Y-20.918
X50.759 Y-20.791
X50.617 Y-20.657
X50.482 Y-20.537
X50.353 Y-20.429
X50.232 Y-20.333
X50.119 Y-20.249
X50.013 Y-20.175
X49.916 Y-20.112
X49.828 Y-20.057
X49.749 Y-20.012
X49.68 Y-19.975
X49.635 Y-19.953
X49.5 Y-19.895
G3 X49.238 Y-20.001 I-0.078 J-0.184
G1 X49.159 Y-20.185
X49.139 Y-20.233 Z-2.993
X49.12 Y-20.277 Z-2.973
X49.104 Y-20.316 Z-2.941
X49.092 Y-20.345 Z-2.9
X49.084 Y-20.363 Z-2.852
X49.081 Y-20.37 Z-2.8
Z5.
X48.6 Y-7.301
Z0.4 F40.
Z-0.3
G18 G2 X48.8 Z-0.5 I0.2 K0. F120.
G1 X49.
G17 G3 X49.2 Y-7.101 I0. J0.2
X47.95 I-0.625 J0.
X49.2 I0.625 J0.
X49. Y-6.901 I-0.2 J0.
G1 X48.8
G18 G3 X48.6 Z-0.3 I0. K0.2
G1 Z5.
Y-7.301
Z-0.1 F40.
Z-0.8
G2 X48.8 Z-1. I0.2 K0. F120.
G1 X49.
G17 G3 X49.2 Y-7.101 I0. J0.2
X47.95 I-0.625 J0.
X49.2 I0.625 J0.
X49. Y-6.901 I-0.2 J0.
G1 X48.8
G18 G3 X48.6 Z-0.8 I0. K0.2
G1 Z5.
Y-7.301
Z-0.6 F40.
Z-1.3
G2 X48.8 Z-1.5 I0.2 K0. F120.
G1 X49.
G17 G3 X49.2 Y-7.101 I0. J0.2
X47.95 I-0.625 J0.
X49.2 I0.625 J0.
X49. Y-6.901 I-0.2 J0.
G1 X48.8
G18 G3 X48.6 Z-1.3 I0. K0.2
G1 Z5.
Y-7.301
Z-1.1 F40.
Z-1.8
G2 X48.8 Z-2. I0.2 K0. F120.
G1 X49.
G17 G3 X49.2 Y-7.101 I0. J0.2
X47.95 I-0.625 J0.
X49.2 I0.625 J0.
X49. Y-6.901 I-0.2 J0.
G1 X48.8
G18 G3 X48.6 Z-1.8 I0. K0.2
G1 Z5.
Y-7.301
Z-1.6 F40.
Z-2.3
G2 X48.8 Z-2.5 I0.2 K0. F120.
G1 X49.
G17 G3 X49.2 Y-7.101 I0. J0.2
X47.95 I-0.625 J0.
X49.2 I0.625 J0.
X49. Y-6.901 I-0.2 J0.
G1 X48.8
G18 G3 X48.6 Z-2.3 I0. K0.2
G1 Z5.
Y-7.301
Z-2.1 F40.
Z-2.8
G2 X48.8 Z-3. I0.2 K0. F120.
G1 X49.
G17 G3 X49.2 Y-7.101 I0. J0.2
X47.95 I-0.625 J0.
X49.2 I0.625 J0.
X49. Y-6.901 I-0.2 J0.
G1 X48.8
G18 G3 X48.6 Z-2.8 I0. K0.2
G1 Z5.
X56.275 Y-5.076
Z0.4 F40.
Z-0.3
X56.28 Y-5.073 Z-0.352 F120.
X56.298 Y-5.063 Z-0.4
X56.325 Y-5.047 Z-0.441
X56.361 Y-5.026 Z-0.473
X56.403 Y-5.002 Z-0.493
X56.448 Y-4.976 Z-0.5
X56.621 Y-4.876
G17 G3 X56.694 Y-4.603 I-0.1 J0.173
X55.828 Y-5.103 I-0.433 J-0.25
X56.694 Y-4.603 I0.433 J0.25
X56.421 Y-4.53 I-0.173 J-0.1
G1 X56.248 Y-4.63
X56.203 Y-4.655 Z-0.493
X56.161 Y-4.68 Z-0.473
X56.125 Y-4.7 Z-0.441
X56.098 Y-4.716 Z-0.4
X56.08 Y-4.726 Z-0.352
X56.075 Y-4.73 Z-0.3
Z5.
X56.275 Y-5.076
Z-0.1 F40.
Z-0.8
X56.28 Y-5.073 Z-0.852 F120.
X56.298 Y-5.063 Z-0.9
X56.325 Y-5.047 Z-0.941
X56.361 Y-5.026 Z-0.973
X56.403 Y-5.002 Z-0.993
X56.448 Y-4.976 Z-1.
X56.621 Y-4.876
G3 X56.694 Y-4.603 I-0.1 J0.173
X55.828 Y-5.103 I-0.433 J-0.25
X56.694 Y-4.603 I0.433 J0.25
X56.421 Y-4.53 I-0.173 J-0.1
G1 X56.248 Y-4.63
X56.203 Y-4.655 Z-0.993
X56.161 Y-4.68 Z-0.973
X56.125 Y-4.7 Z-0.941
X56.098 Y-4.716 Z-0.9
X56.08 Y-4.726 Z-0.852
X56.075 Y-4.73 Z-0.8
Z5.
X56.275 Y-5.076
Z-0.6 F40.
Z-1.3
X56.28 Y-5.073 Z-1.352 F120.
X56.298 Y-5.063 Z-1.4
X56.325 Y-5.047 Z-1.441
X56.361 Y-5.026 Z-1.473
X56.403 Y-5.002 Z-1.493
X56.448 Y-4.976 Z-1.5
X56.621 Y-4.876
G3 X56.694 Y-4.603 I-0.1 J0.173
X55.828 Y-5.103 I-0.433 J-0.25
X56.694 Y-4.603 I0.433 J0.25
X56.421 Y-4.53 I-0.173 J-0.1
G1 X56.248 Y-4.63
X56.203 Y-4.655 Z-1.493
X56.161 Y-4.68 Z-1.473
X56.125 Y-4.7 Z-1.441
X56.098 Y-4.716 Z-1.4
X56.08 Y-4.726 Z-1.352
X56.075 Y-4.73 Z-1.3
Z5.
X56.275 Y-5.076
Z-1.1 F40.
Z-1.8
X56.28 Y-5.073 Z-1.852 F120.
X56.298 Y-5.063 Z-1.9
X56.325 Y-5.047 Z-1.941
X56.361 Y-5.026 Z-1.973
X56.403 Y-5.002 Z-1.993
X56.448 Y-4.976 Z-2.
X56.621 Y-4.876
G3 X56.694 Y-4.603 I-0.1 J0.173
X55.828 Y-5.103 I-0.433 J-0.25
X56.694 Y-4.603 I0.433 J0.25
X56.421 Y-4.53 I-0.173 J-0.1
G1 X56.248 Y-4.63
X56.203 Y-4.655 Z-1.993
X56.161 Y-4.68 Z-1.973
X56.125 Y-4.7 Z-1.941
X56.098 Y-4.716 Z-1.9
X56.08 Y-4.726 Z-1.852
X56.075 Y-4.73 Z-1.8
Z5.
X56.275 Y-5.076
Z-1.6 F40.
Z-2.3
X56.28 Y-5.073 Z-2.352 F120.
X56.298 Y-5.063 Z-2.4
X56.325 Y-5.047 Z-2.441
X56.361 Y-5.026 Z-2.473
X56.403 Y-5.002 Z-2.493
X56.448 Y-4.976 Z-2.5
X56.621 Y-4.876
G3 X56.694 Y-4.603 I-0.1 J0.173
X55.828 Y-5.103 I-0.433 J-0.25
X56.694 Y-4.603 I0.433 J0.25
X56.421 Y-4.53 I-0.173 J-0.1
G1 X56.248 Y-4.63
X56.203 Y-4.655 Z-2.493
X56.161 Y-4.68 Z-2.473
X56.125 Y-4.7 Z-2.441
X56.098 Y-4.716 Z-2.4
X56.08 Y-4.726 Z-2.352
X56.075 Y-4.73 Z-2.3
Z5.
X56.275 Y-5.076
Z-2.1 F40.
Z-2.8
X56.28 Y-5.073 Z-2.852 F120.
X56.298 Y-5.063 Z-2.9
X56.325 Y-5.047 Z-2.941
X56.361 Y-5.026 Z-2.973
X56.403 Y-5.002 Z-2.993
X56.448 Y-4.976 Z-3.
X56.621 Y-4.876
G3 X56.694 Y-4.603 I-0.1 J0.173
X55.828 Y-5.103 I-0.433 J-0.25
X56.694 Y-4.603 I0.433 J0.25
X56.421 Y-4.53 I-0.173 J-0.1
G1 X56.248 Y-4.63
X56.203 Y-4.655 Z-2.993
X56.161 Y-4.68 Z-2.973
X56.125 Y-4.7 Z-2.941
X56.098 Y-4.716 Z-2.9
X56.08 Y-4.726 Z-2.852
X56.075 Y-4.73 Z-2.8
Z5.
X35.025 Y-7.383
Z0.4 F40.
Z-0.3
G18 G2 X35.225 Z-0.5 I0.2 K0. F120.
G1 X35.425
G17 G3 X35.625 Y-7.183 I0. J0.2
X34.375 I-0.625 J0.
X35.625 I0.625 J0.
X35.425 Y-6.983 I-0.2 J0.
G1 X35.225
G18 G3 X35.025 Z-0.3 I0. K0.2
G1 Z5.
Y-7.383
Z-0.1 F40.
Z-0.8
G2 X35.225 Z-1. I0.2 K0. F120.
G1 X35.425
G17 G3 X35.625 Y-7.183 I0. J0.2
X34.375 I-0.625 J0.
X35.625 I0.625 J0.
X35.425 Y-6.983 I-0.2 J0.
G1 X35.225
G18 G3 X35.025 Z-0.8 I0. K0.2
G1 Z5.
Y-7.383
Z-0.6 F40.
Z-1.3
G2 X35.225 Z-1.5 I0.2 K0. F120.
G1 X35.425
G17 G3 X35.625 Y-7.183 I0. J0.2
X34.375 I-0.625 J0.
X35.625 I0.625 J0.
X35.425 Y-6.983 I-0.2 J0.
G1 X35.225
G18 G3 X35.025 Z-1.3 I0. K0.2
G1 Z5.
Y-7.383
Z-1.1 F40.
Z-1.8
G2 X35.225 Z-2. I0.2 K0. F120.
G1 X35.425
G17 G3 X35.625 Y-7.183 I0. J0.2
X34.375 I-0.625 J0.
X35.625 I0.625 J0.
X35.425 Y-6.983 I-0.2 J0.
G1 X35.225
G18 G3 X35.025 Z-1.8 I0. K0.2
G1 Z5.
Y-7.383
Z-1.6 F40.
Z-2.3
G2 X35.225 Z-2.5 I0.2 K0. F120.
G1 X35.425
G17 G3 X35.625 Y-7.183 I0. J0.2
X34.375 I-0.625 J0.
X35.625 I0.625 J0.
X35.425 Y-6.983 I-0.2 J0.
G1 X35.225
G18 G3 X35.025 Z-2.3 I0. K0.2
G1 Z5.
Y-7.383
Z-2.1 F40.
Z-2.8
G2 X35.225 Z-3. I0.2 K0. F120.
G1 X35.425
G17 G3 X35.625 Y-7.183 I0. J0.2
X34.375 I-0.625 J0.
X35.625 I0.625 J0.
X35.425 Y-6.983 I-0.2 J0.
G1 X35.225
G18 G3 X35.025 Z-2.8 I0. K0.2
G1 Z5.
X34.827 Y-18.498
Z0.4 F40.
Z-0.3
G2 X35.027 Z-0.5 I0.2 K0. F120.
G1 X35.227
G17 G3 X35.427 Y-18.298 I0. J0.2
X34.427 I-0.5 J0.
X35.427 I0.5 J0.
X35.227 Y-18.098 I-0.2 J0.
G1 X35.027
G18 G3 X34.827 Z-0.3 I0. K0.2
G1 Z5.
Y-18.498
Z-0.1 F40.
Z-0.8
G2 X35.027 Z-1. I0.2 K0. F120.
G1 X35.227
G17 G3 X35.427 Y-18.298 I0. J0.2
X34.427 I-0.5 J0.
X35.427 I0.5 J0.
X35.227 Y-18.098 I-0.2 J0.
G1 X35.027
G18 G3 X34.827 Z-0.8 I0. K0.2
G1 Z5.
Y-18.498
Z-0.6 F40.
Z-1.3
G2 X35.027 Z-1.5 I0.2 K0. F120.
G1 X35.227
G17 G3 X35.427 Y-18.298 I0. J0.2
X34.427 I-0.5 J0.
X35.427 I0.5 J0.
X35.227 Y-18.098 I-0.2 J0.
G1 X35.027
G18 G3 X34.827 Z-1.3 I0. K0.2
G1 Z5.
Y-18.498
Z-1.1 F40.
Z-1.8
G2 X35.027 Z-2. I0.2 K0. F120.
G1 X35.227
G17 G3 X35.427 Y-18.298 I0. J0.2
X34.427 I-0.5 J0.
X35.427 I0.5 J0.
X35.227 Y-18.098 I-0.2 J0.
G1 X35.027
G18 G3 X34.827 Z-1.8 I0. K0.2
G1 Z5.
Y-18.498
Z-1.6 F40.
Z-2.3
G2 X35.027 Z-2.5 I0.2 K0. F120.
G1 X35.227
G17 G3 X35.427 Y-18.298 I0. J0.2
X34.427 I-0.5 J0.
X35.427 I0.5 J0.
X35.227 Y-18.098 I-0.2 J0.
G1 X35.027
G18 G3 X34.827 Z-2.3 I0. K0.2
G1 Z5.
Y-18.498
Z-2.1 F40.
Z-2.8
G2 X35.027 Z-3. I0.2 K0. F120.
G1 X35.227
G17 G3 X35.427 Y-18.298 I0. J0.2
X34.427 I-0.5 J0.
X35.427 I0.5 J0.
X35.227 Y-18.098 I-0.2 J0.
G1 X35.027
G18 G3 X34.827 Z-2.8 I0. K0.2
G1 Z5.
X35.921 Y-23.646
Z0.4 F40.
Z-0.3
X35.928 Y-23.645 Z-0.352 F120.
X35.948 Y-23.641 Z-0.4
X35.979 Y-23.636 Z-0.441
X36.02 Y-23.628 Z-0.473
X36.067 Y-23.619 Z-0.493
X36.118 Y-23.61 Z-0.5
X36.315 Y-23.573
G17 G3 X36.474 Y-23.339 I-0.037 J0.197
X33.526 Y-23.891 I-1.474 J-0.276
X36.474 Y-23.339 I1.474 J0.276
X36.241 Y-23.18 I-0.197 J-0.037
G1 X36.045 Y-23.216
X35.994 Y-23.226 Z-0.493
X35.946 Y-23.235 Z-0.473
X35.906 Y-23.242 Z-0.441
X35.874 Y-23.248 Z-0.4
X35.855 Y-23.252 Z-0.352
X35.848 Y-23.253 Z-0.3
Z5.
X35.921 Y-23.646
Z-0.1 F40.
Z-0.8
X35.928 Y-23.645 Z-0.852 F120.
X35.948 Y-23.641 Z-0.9
X35.979 Y-23.636 Z-0.941
X36.02 Y-23.628 Z-0.973
X36.067 Y-23.619 Z-0.993
X36.118 Y-23.61 Z-1.
X36.315 Y-23.573
G3 X36.474 Y-23.339 I-0.037 J0.197
X33.526 Y-23.891 I-1.474 J-0.276
X36.474 Y-23.339 I1.474 J0.276
X36.241 Y-23.18 I-0.197 J-0.037
G1 X36.045 Y-23.216
X35.994 Y-23.226 Z-0.993
X35.946 Y-23.235 Z-0.973
X35.906 Y-23.242 Z-0.941
X35.874 Y-23.248 Z-0.9
X35.855 Y-23.252 Z-0.852
X35.848 Y-23.253 Z-0.8
Z5.
X35.921 Y-23.646
Z-0.6 F40.
Z-1.3
X35.928 Y-23.645 Z-1.352 F120.
X35.948 Y-23.641 Z-1.4
X35.979 Y-23.636 Z-1.441
X36.02 Y-23.628 Z-1.473
X36.067 Y-23.619 Z-1.493
X36.118 Y-23.61 Z-1.5
X36.315 Y-23.573
G3 X36.474 Y-23.339 I-0.037 J0.197
X33.526 Y-23.891 I-1.474 J-0.276
X36.474 Y-23.339 I1.474 J0.276
X36.241 Y-23.18 I-0.197 J-0.037
G1 X36.045 Y-23.216
X35.994 Y-23.226 Z-1.493
X35.946 Y-23.235 Z-1.473
X35.906 Y-23.242 Z-1.441
X35.874 Y-23.248 Z-1.4
X35.855 Y-23.252 Z-1.352
X35.848 Y-23.253 Z-1.3
Z5.
X35.921 Y-23.646
Z-1.1 F40.
Z-1.8
X35.928 Y-23.645 Z-1.852 F120.
X35.948 Y-23.641 Z-1.9
X35.979 Y-23.636 Z-1.941
X36.02 Y-23.628 Z-1.973
X36.067 Y-23.619 Z-1.993
X36.118 Y-23.61 Z-2.
X36.315 Y-23.573
G3 X36.474 Y-23.339 I-0.037 J0.197
X33.526 Y-23.891 I-1.474 J-0.276
X36.474 Y-23.339 I1.474 J0.276
X36.241 Y-23.18 I-0.197 J-0.037
G1 X36.045 Y-23.216
X35.994 Y-23.226 Z-1.993
X35.946 Y-23.235 Z-1.973
X35.906 Y-23.242 Z-1.941
X35.874 Y-23.248 Z-1.9
X35.855 Y-23.252 Z-1.852
X35.848 Y-23.253 Z-1.8
Z5.
X35.921 Y-23.646
Z-1.6 F40.
Z-2.3
X35.928 Y-23.645 Z-2.352 F120.
X35.948 Y-23.641 Z-2.4
X35.979 Y-23.636 Z-2.441
X36.02 Y-23.628 Z-2.473
X36.067 Y-23.619 Z-2.493
X36.118 Y-23.61 Z-2.5
X36.315 Y-23.573
G3 X36.474 Y-23.339 I-0.037 J0.197
X33.526 Y-23.891 I-1.474 J-0.276
X36.474 Y-23.339 I1.474 J0.276
X36.241 Y-23.18 I-0.197 J-0.037
G1 X36.045 Y-23.216
X35.994 Y-23.226 Z-2.493
X35.946 Y-23.235 Z-2.473
X35.906 Y-23.242 Z-2.441
X35.874 Y-23.248 Z-2.4
X35.855 Y-23.252 Z-2.352
X35.848 Y-23.253 Z-2.3
Z5.
X35.921 Y-23.646
Z-2.1 F40.
Z-2.8
X35.928 Y-23.645 Z-2.852 F120.
X35.948 Y-23.641 Z-2.9
X35.979 Y-23.636 Z-2.941
X36.02 Y-23.628 Z-2.973
X36.067 Y-23.619 Z-2.993
X36.118 Y-23.61 Z-3.
X36.315 Y-23.573
G3 X36.474 Y-23.339 I-0.037 J0.197
X33.526 Y-23.891 I-1.474 J-0.276
X36.474 Y-23.339 I1.474 J0.276
X36.241 Y-23.18 I-0.197 J-0.037
G1 X36.045 Y-23.216
X35.994 Y-23.226 Z-2.993
X35.946 Y-23.235 Z-2.973
X35.906 Y-23.242 Z-2.941
X35.874 Y-23.248 Z-2.9
X35.855 Y-23.252 Z-2.852
X35.848 Y-23.253 Z-2.8
Z5.
X23.232 Y-22.173
Z0.4 F40.
Z-0.3
G18 G2 X23.431 Z-0.5 I0.2 K0. F120.
G1 X23.632
G17 G3 X23.831 Y-21.972 I0. J0.2
X22.081 I-0.875 J0.
X23.831 I0.875 J0.
X23.632 Y-21.772 I-0.2 J0.
G1 X23.431
G18 G3 X23.232 Z-0.3 I0. K0.2
G1 Z5.
Y-22.173
Z-0.1 F40.
Z-0.8
G2 X23.431 Z-1. I0.2 K0. F120.
G1 X23.632
G17 G3 X23.831 Y-21.972 I0. J0.2
X22.081 I-0.875 J0.
X23.831 I0.875 J0.
X23.632 Y-21.772 I-0.2 J0.
G1 X23.431
G18 G3 X23.232 Z-0.8 I0. K0.2
G1 Z5.
Y-22.173
Z-0.6 F40.
Z-1.3
G2 X23.431 Z-1.5 I0.2 K0. F120.
G1 X23.632
G17 G3 X23.831 Y-21.972 I0. J0.2
X22.081 I-0.875 J0.
X23.831 I0.875 J0.
X23.632 Y-21.772 I-0.2 J0.
G1 X23.431
G18 G3 X23.232 Z-1.3 I0. K0.2
G1 Z5.
Y-22.173
Z-1.1 F40.
Z-1.8
G2 X23.431 Z-2. I0.2 K0. F120.
G1 X23.632
G17 G3 X23.831 Y-21.972 I0. J0.2
X22.081 I-0.875 J0.
X23.831 I0.875 J0.
X23.632 Y-21.772 I-0.2 J0.
G1 X23.431
G18 G3 X23.232 Z-1.8 I0. K0.2
G1 Z5.
Y-22.173
Z-1.6 F40.
Z-2.3
G2 X23.431 Z-2.5 I0.2 K0. F120.
G1 X23.632
G17 G3 X23.831 Y-21.972 I0. J0.2
X22.081 I-0.875 J0.
X23.831 I0.875 J0.
X23.632 Y-21.772 I-0.2 J0.
G1 X23.431
G18 G3 X23.232 Z-2.3 I0. K0.2
G1 Z5.
Y-22.173
Z-2.1 F40.
Z-2.8
G2 X23.431 Z-3. I0.2 K0. F120.
G1 X23.632
G17 G3 X23.831 Y-21.972 I0. J0.2
X22.081 I-0.875 J0.
X23.831 I0.875 J0.
X23.632 Y-21.772 I-0.2 J0.
G1 X23.431
G18 G3 X23.232 Z-2.8 I0. K0.2
G1 Z5.
X18.667 Y-13.815
Z0.4 F40.
Z-0.3
G2 X18.867 Z-0.5 I0.2 K0. F120.
G1 X19.067
G17 G3 X19.267 Y-13.615 I0. J0.2
X8.767 I-5.25 J0.
X19.267 I5.25 J0.
X19.067 Y-13.415 I-0.2 J0.
G1 X18.867
G18 G3 X18.667 Z-0.3 I0. K0.2
G1 Z5.
Y-13.815
Z-0.1 F40.
Z-0.8
G2 X18.867 Z-1. I0.2 K0. F120.
G1 X19.067
G17 G3 X19.267 Y-13.615 I0. J0.2
X8.767 I-5.25 J0.
X19.267 I5.25 J0.
X19.067 Y-13.415 I-0.2 J0.
G1 X18.867
G18 G3 X18.667 Z-0.8 I0. K0.2
G1 Z5.
Y-13.815
Z-0.6 F40.
Z-1.3
G2 X18.867 Z-1.5 I0.2 K0. F120.
G1 X19.067
G17 G3 X19.267 Y-13.615 I0. J0.2
X8.767 I-5.25 J0.
X19.267 I5.25 J0.
X19.067 Y-13.415 I-0.2 J0.
G1 X18.867
G18 G3 X18.667 Z-1.3 I0. K0.2
G1 Z5.
Y-13.815
Z-1.1 F40.
Z-1.8
G2 X18.867 Z-2. I0.2 K0. F120.
G1 X19.067
G17 G3 X19.267 Y-13.615 I0. J0.2
X8.767 I-5.25 J0.
X19.267 I5.25 J0.
X19.067 Y-13.415 I-0.2 J0.
G1 X18.867
G18 G3 X18.667 Z-1.8 I0. K0.2
G1 Z5.
Y-13.815
Z-1.6 F40.
Z-2.3
G2 X18.867 Z-2.5 I0.2 K0. F120.
G1 X19.067
G17 G3 X19.267 Y-13.615 I0. J0.2
X8.767 I-5.25 J0.
X19.267 I5.25 J0.
X19.067 Y-13.415 I-0.2 J0.
G1 X18.867
G18 G3 X18.667 Z-2.3 I0. K0.2
G1 Z5.
Y-13.815
Z-2.1 F40.
Z-2.8
G2 X18.867 Z-3. I0.2 K0. F120.
G1 X19.067
G17 G3 X19.267 Y-13.615 I0. J0.2
X8.767 I-5.25 J0.
X19.267 I5.25 J0.
X19.067 Y-13.415 I-0.2 J0.
G1 X18.867
G18 G3 X18.667 Z-2.8 I0. K0.2
G1 Z5.
X20.996 Y-7.464
Z0.4 F40.
Z-0.3
G2 X21.195 Z-0.5 I0.2 K0. F120.
G1 X21.396
G17 G3 X21.596 Y-7.264 I0. J0.2
X20.346 I-0.625 J0.
X21.596 I0.625 J0.
X21.396 Y-7.064 I-0.2 J0.
G1 X21.195
G18 G3 X20.996 Z-0.3 I0. K0.2
G1 Z5.
Y-7.464
Z-0.1 F40.
Z-0.8
G2 X21.195 Z-1. I0.2 K0. F120.
G1 X21.396
G17 G3 X21.596 Y-7.264 I0. J0.2
X20.346 I-0.625 J0.
X21.596 I0.625 J0.
X21.396 Y-7.064 I-0.2 J0.
G1 X21.195
G18 G3 X20.996 Z-0.8 I0. K0.2
G1 Z5.
Y-7.464
Z-0.6 F40.
Z-1.3
G2 X21.195 Z-1.5 I0.2 K0. F120.
G1 X21.396
G17 G3 X21.596 Y-7.264 I0. J0.2
X20.346 I-0.625 J0.
X21.596 I0.625 J0.
X21.396 Y-7.064 I-0.2 J0.
G1 X21.195
G18 G3 X20.996 Z-1.3 I0. K0.2
G1 Z5.
Y-7.464
Z-1.1 F40.
Z-1.8
G2 X21.195 Z-2. I0.2 K0. F120.
G1 X21.396
G17 G3 X21.596 Y-7.264 I0. J0.2
X20.346 I-0.625 J0.
X21.596 I0.625 J0.
X21.396 Y-7.064 I-0.2 J0.
G1 X21.195
G18 G3 X20.996 Z-1.8 I0. K0.2
G1 Z5.
Y-7.464
Z-1.6 F40.
Z-2.3
G2 X21.195 Z-2.5 I0.2 K0. F120.
G1 X21.396
G17 G3 X21.596 Y-7.264 I0. J0.2
X20.346 I-0.625 J0.
X21.596 I0.625 J0.
X21.396 Y-7.064 I-0.2 J0.
G1 X21.195
G18 G3 X20.996 Z-2.3 I0. K0.2
G1 Z5.
Y-7.464
Z-2.1 F40.
Z-2.8
G2 X21.195 Z-3. I0.2 K0. F120.
G1 X21.396
G17 G3 X21.596 Y-7.264 I0. J0.2
X20.346 I-0.625 J0.
X21.596 I0.625 J0.
X21.396 Y-7.064 I-0.2 J0.
G1 X21.195
G18 G3 X20.996 Z-2.8 I0. K0.2
G1 Z5.
X12.42 Y-4.922
Z0.4 F40.
Z-0.3
G2 X12.62 Z-0.5 I0.2 K0. F120.
G1 X12.82
G17 G3 X13.02 Y-4.722 I0. J0.2
X12.02 I-0.5 J0.
X13.02 I0.5 J0.
X12.82 Y-4.522 I-0.2 J0.
G1 X12.62
G18 G3 X12.42 Z-0.3 I0. K0.2
G1 Z5.
Y-4.922
Z-0.1 F40.
Z-0.8
G2 X12.62 Z-1. I0.2 K0. F120.
G1 X12.82
G17 G3 X13.02 Y-4.722 I0. J0.2
X12.02 I-0.5 J0.
X13.02 I0.5 J0.
X12.82 Y-4.522 I-0.2 J0.
G1 X12.62
G18 G3 X12.42 Z-0.8 I0. K0.2
G1 Z5.
Y-4.922
Z-0.6 F40.
Z-1.3
G2 X12.62 Z-1.5 I0.2 K0. F120.
G1 X12.82
G17 G3 X13.02 Y-4.722 I0. J0.2
X12.02 I-0.5 J0.
X13.02 I0.5 J0.
X12.82 Y-4.522 I-0.2 J0.
G1 X12.62
G18 G3 X12.42 Z-1.3 I0. K0.2
G1 Z5.
Y-4.922
Z-1.1 F40.
Z-1.8
G2 X12.62 Z-2. I0.2 K0. F120.
G1 X12.82
G17 G3 X13.02 Y-4.722 I0. J0.2
X12.02 I-0.5 J0.
X13.02 I0.5 J0.
X12.82 Y-4.522 I-0.2 J0.
G1 X12.62
G18 G3 X12.42 Z-1.8 I0. K0.2
G1 Z5.
Y-4.922
Z-1.6 F40.
Z-2.3
G2 X12.62 Z-2.5 I0.2 K0. F120.
G1 X12.82
G17 G3 X13.02 Y-4.722 I0. J0.2
X12.02 I-0.5 J0.
X13.02 I0.5 J0.
X12.82 Y-4.522 I-0.2 J0.
G1 X12.62
G18 G3 X12.42 Z-2.3 I0. K0.2
G1 Z5.
Y-4.922
Z-2.1 F40.
Z-2.8
G2 X12.62 Z-3. I0.2 K0. F120.
G1 X12.82
G17 G3 X13.02 Y-4.722 I0. J0.2
X12.02 I-0.5 J0.
X13.02 I0.5 J0.
X12.82 Y-4.522 I-0.2 J0.
G1 X12.62
G18 G3 X12.42 Z-2.8 I0. K0.2
G1 Z5.
X7.152 Y-7.546
Z0.4 F40.
Z-0.3
G2 X7.352 Z-0.5 I0.2 K0. F120.
G1 X7.552
G17 G3 X7.752 Y-7.346 I0. J0.2
X6.502 I-0.625 J0.
X7.752 I0.625 J0.
X7.552 Y-7.146 I-0.2 J0.
G1 X7.352
G18 G3 X7.152 Z-0.3 I0. K0.2
G1 Z5.
Y-7.546
Z-0.1 F40.
Z-0.8
G2 X7.352 Z-1. I0.2 K0. F120.
G1 X7.552
G17 G3 X7.752 Y-7.346 I0. J0.2
X6.502 I-0.625 J0.
X7.752 I0.625 J0.
X7.552 Y-7.146 I-0.2 J0.
G1 X7.352
G18 G3 X7.152 Z-0.8 I0. K0.2
G1 Z5.
Y-7.546
Z-0.6 F40.
Z-1.3
G2 X7.352 Z-1.5 I0.2 K0. F120.
G1 X7.552
G17 G3 X7.752 Y-7.346 I0. J0.2
X6.502 I-0.625 J0.
X7.752 I0.625 J0.
X7.552 Y-7.146 I-0.2 J0.
G1 X7.352
G18 G3 X7.152 Z-1.3 I0. K0.2
G1 Z5.
Y-7.546
Z-1.1 F40.
Z-1.8
G2 X7.352 Z-2. I0.2 K0. F120.
G1 X7.552
G17 G3 X7.752 Y-7.346 I0. J0.2
X6.502 I-0.625 J0.
X7.752 I0.625 J0.
X7.552 Y-7.146 I-0.2 J0.
G1 X7.352
G18 G3 X7.152 Z-1.8 I0. K0.2
G1 Z5.
Y-7.546
Z-1.6 F40.
Z-2.3
G2 X7.352 Z-2.5 I0.2 K0. F120.
G1 X7.552
G17 G3 X7.752 Y-7.346 I0. J0.2
X6.502 I-0.625 J0.
X7.752 I0.625 J0.
X7.552 Y-7.146 I-0.2 J0.
G1 X7.352
G18 G3 X7.152 Z-2.3 I0. K0.2
G1 Z5.
Y-7.546
Z-2.1 F40.
Z-2.8
G2 X7.352 Z-3. I0.2 K0. F120.
G1 X7.552
G17 G3 X7.752 Y-7.346 I0. J0.2
X6.502 I-0.625 J0.
X7.752 I0.625 J0.
X7.552 Y-7.146 I-0.2 J0.
G1 X7.352
G18 G3 X7.152 Z-2.8 I0. K0.2
G1 Z5.
X7.234 Y-20.9
Z0.4 F40.
Z-0.3
G2 X7.434 Z-0.5 I0.2 K0. F120.
G1 X7.634
G17 G3 X7.834 Y-20.7 I0. J0.2
X6.584 I-0.625 J0.
X7.834 I0.625 J0.
X7.634 Y-20.5 I-0.2 J0.
G1 X7.434
G18 G3 X7.234 Z-0.3 I0. K0.2
G1 Z5.
Y-20.9
Z-0.1 F40.
Z-0.8
G2 X7.434 Z-1. I0.2 K0. F120.
G1 X7.634
G17 G3 X7.834 Y-20.7 I0. J0.2
X6.584 I-0.625 J0.
X7.834 I0.625 J0.
X7.634 Y-20.5 I-0.2 J0.
G1 X7.434
G18 G3 X7.234 Z-0.8 I0. K0.2
G1 Z5.
Y-20.9
Z-0.6 F40.
Z-1.3
G2 X7.434 Z-1.5 I0.2 K0. F120.
G1 X7.634
G17 G3 X7.834 Y-20.7 I0. J0.2
X6.584 I-0.625 J0.
X7.834 I0.625 J0.
X7.634 Y-20.5 I-0.2 J0.
G1 X7.434
G18 G3 X7.234 Z-1.3 I0. K0.2
G1 Z5.
Y-20.9
Z-1.1 F40.
Z-1.8
G2 X7.434 Z-2. I0.2 K0. F120.
G1 X7.634
G17 G3 X7.834 Y-20.7 I0. J0.2
X6.584 I-0.625 J0.
X7.834 I0.625 J0.
X7.634 Y-20.5 I-0.2 J0.
G1 X7.434
G18 G3 X7.234 Z-1.8 I0. K0.2
G1 Z5.
Y-20.9
Z-1.6 F40.
Z-2.3
G2 X7.434 Z-2.5 I0.2 K0. F120.
G1 X7.634
G17 G3 X7.834 Y-20.7 I0. J0.2
X6.584 I-0.625 J0.
X7.834 I0.625 J0.
X7.634 Y-20.5 I-0.2 J0.
G1 X7.434
G18 G3 X7.234 Z-2.3 I0. K0.2
G1 Z5.
Y-20.9
Z-2.1 F40.
Z-2.8
G2 X7.434 Z-3. I0.2 K0. F120.
G1 X7.634
G17 G3 X7.834 Y-20.7 I0. J0.2
X6.584 I-0.625 J0.
X7.834 I0.625 J0.
X7.634 Y-20.5 I-0.2 J0.
G1 X7.434
G18 G3 X7.234 Z-2.8 I0. K0.2
G1 Z15.
G17

M9
M5
G28 G91 Z0.
G90
G28 G91 X0. Y0.
G90
M30
