(1001)
(T3 D=3.175 CR=0. - ZMIN=-0.988 - FRESA CON PUNTA PLANA)
G90 G94 G91.1 G40 G49 G17
G21
(WHEN USING FUSION FOR PERSONAL USE, THE FEEDRATE OF RAPID)
(MOVES IS REDUCED TO MATCH THE FEEDRATE OF CUTTING MOVES,)
(WHICH CAN INCREASE MACHINING TIME. UNRESTRICTED RAPID MOVES)
(ARE AVAILABLE WITH A FUSION SUBSCRIPTION.)
G28 G91 Z0.
G90

(CARA6)
T3 M6
S10000 M3
G17 G90 G94
G54
M8
G0 X39.42 Y-27.875
G43 Z15. H3
G1 Z5. F130.
Z0.03 F43.
G18 G3 X39.102 Z-0.287 I-0.318 K0. F130.
G1 X30.896
X22.674
G17 G2 Y-26.89 I0. J0.492
G1 X39.849
G18 G2 X40.167 Z0.03 I0. K0.317
G1 Z5.
X65.955 Y-25.905
Z0.03 F43.
G3 X65.637 Z-0.287 I-0.317 K0. F130.
G1 X4.363
X3.204
G17 G2 Y-24.92 I0. J0.492
G1 X66.796
X67.154
G3 Y-23.935 I0. J0.492
G1 X2.846
X2.822
G2 Y-22.95 I0. J0.492
G1 X67.178
G3 Y-21.965 I0. J0.492
G1 X2.822
G2 Y-20.98 I0. J0.492
G1 X67.178
G3 Y-19.995 I0. J0.492
G1 X2.822
G2 Y-19.01 I0. J0.492
G1 X67.178
G3 Y-18.025 I0. J0.492
G1 X2.822
G2 Y-17.04 I0. J0.492
G1 X67.178
G3 Y-16.055 I0. J0.492
G1 X2.822
G2 Y-15.07 I0. J0.492
G1 X67.178
G3 Y-14.085 I0. J0.492
G1 X2.822
G2 Y-13.101 I0. J0.492
G1 X67.178
G3 Y-12.116 I0. J0.492
G1 X2.822
G2 Y-11.131 I0. J0.492
G1 X67.178
G3 Y-10.146 I0. J0.492
G1 X2.822
G2 Y-9.161 I0. J0.492
G1 X67.178
G3 Y-8.176 I0. J0.492
G1 X2.822
G2 Y-7.191 I0. J0.492
G1 X67.178
G3 Y-6.206 I0. J0.492
G1 X2.822
G2 Y-5.221 I0. J0.492
G1 X67.178
G3 Y-4.236 I0. J0.492
G1 X2.822
G18 G3 X2.504 Z0.03 I0. K0.317
G1 Z5.
X3.013 Y-2.125
Z-0.47 F43.
G2 X3.331 Z-0.788 I0.317 K0. F130.
G1 X16.505
G2 X16.822 Z-0.47 I0. K0.318
G1 Z5.
X52.152
Z-0.47 F43.
G2 X52.469 Z-0.788 I0.318 K0. F130.
G1 X66.669
X67.12
G17 G2 Y-3.11 I0. J-0.492
G1 X2.88
X2.822
G3 Y-4.095 I0. J-0.492
G1 X67.178
G2 Y-5.08 I0. J-0.492
G1 X2.822
G3 Y-6.065 I0. J-0.492
G1 X67.178
G2 Y-7.05 I0. J-0.492
G1 X2.822
G3 Y-8.035 I0. J-0.492
G1 X67.178
G2 Y-9.02 I0. J-0.492
G1 X2.822
G3 Y-10.005 I0. J-0.492
G1 X67.178
G2 Y-10.99 I0. J-0.492
G1 X2.822
G3 Y-11.975 I0. J-0.492
G1 X67.178
G2 Y-12.96 I0. J-0.492
G1 X2.822
G3 Y-13.945 I0. J-0.492
G1 X67.178
G2 Y-14.93 I0. J-0.492
G1 X2.822
G3 Y-15.915 I0. J-0.492
G1 X67.178
G2 Y-16.899 I0. J-0.492
G1 X2.822
G3 Y-17.884 I0. J-0.492
G1 X67.178
G2 Y-18.869 I0. J-0.492
G1 X2.822
G3 Y-19.854 I0. J-0.492
G1 X67.178
G2 Y-20.839 I0. J-0.492
G1 X2.822
G3 Y-21.824 I0. J-0.492
G1 X67.178
G2 Y-22.809 I0. J-0.492
G1 X2.822
G3 Y-23.794 I0. J-0.492
G1 X2.833
X67.167
G2 Y-24.779 I0. J-0.492
G1 X66.881
X3.118
G3 Y-25.764 I0. J-0.492
G1 X4.078
X65.922
G18 G2 X66.239 Z-0.47 I0. K0.318
G1 Z5.
X39.42 Y-27.875
Z-0.67 F43.
G3 X39.102 Z-0.988 I-0.318 K0. F130.
G1 X30.896 F100.
X22.674 F130.
G17 G2 Y-26.89 I0. J0.492
G1 X39.849 F100.
G18 G2 X40.167 Z-0.67 I0. K0.317 F130.
G1 Z5.
X65.955 Y-25.905
Z-0.67 F43.
G3 X65.637 Z-0.988 I-0.317 K0. F130.
G1 X4.363 F100.
X3.204 F130.
G17 G2 Y-24.92 I0. J0.492
G1 X66.796 F100.
X67.154 F130.
G3 Y-23.935 I0. J0.492
G1 X2.846 F100.
X2.822 F130.
G2 Y-22.95 I0. J0.492
G1 X67.178 F100.
G3 Y-21.965 I0. J0.492 F130.
G1 X2.822 F100.
G2 Y-20.98 I0. J0.492 F130.
G1 X67.178 F100.
G3 Y-19.995 I0. J0.492 F130.
G1 X2.822 F100.
G2 Y-19.01 I0. J0.492 F130.
G1 X67.178 F100.
G3 Y-18.025 I0. J0.492 F130.
G1 X2.822 F100.
G2 Y-17.04 I0. J0.492 F130.
G1 X67.178 F100.
G3 Y-16.055 I0. J0.492 F130.
G1 X2.822 F100.
G2 Y-15.07 I0. J0.492 F130.
G1 X67.178 F100.
G3 Y-14.085 I0. J0.492 F130.
G1 X2.822 F100.
G2 Y-13.101 I0. J0.492 F130.
G1 X67.178 F100.
G3 Y-12.116 I0. J0.492 F130.
G1 X2.822 F100.
G2 Y-11.131 I0. J0.492 F130.
G1 X67.178 F100.
G3 Y-10.146 I0. J0.492 F130.
G1 X2.822 F100.
G2 Y-9.161 I0. J0.492 F130.
G1 X67.178 F100.
G3 Y-8.176 I0. J0.492 F130.
G1 X2.822 F100.
G2 Y-7.191 I0. J0.492 F130.
G1 X67.178 F100.
G3 Y-6.206 I0. J0.492 F130.
G1 X2.822 F100.
G2 Y-5.221 I0. J0.492 F130.
G1 X67.178 F100.
G3 Y-4.236 I0. J0.492 F130.
G1 X2.822 F100.
G18 G3 X2.504 Z-0.67 I0. K0.317 F130.
G1 Z15.
G17

M9
M5
G28 G91 Z0.
G90
G28 G91 X0. Y0.
G90
M30
