(1001)
(T3 D=3.175 CR=0. - ZMIN=-0.988 - FRESA CON PUNTA PLANA)
G90 G94 G91.1 G40 G49 G17
G21
(WHEN USING FUSION FOR PERSONAL USE, THE FEEDRATE OF RAPID)
(MOVES IS REDUCED TO MATCH THE FEEDRATE OF CUTTING MOVES,)
(WHICH CAN INCREASE MACHINING TIME. UNRESTRICTED RAPID MOVES)
(ARE AVAILABLE WITH A FUSION SUBSCRIPTION.)
G28 G91 Z0.
G90

(CARA6)
T3 M6
S10000 M3
G17 G90 G94
G54
M8
G0 X40.217 Y-26.797
G43 Z15. H3
G1 Z5. F130.
Z0.03 F43.
G18 G3 X39.899 Z-0.287 I-0.318 K0. F130.
G1 X22.454
G3 X22.136 Z0.03 I0. K0.317
G1 Z5.
X2.784 Y-24.747
Z0.03 F43.
G2 X3.102 Z-0.287 I0.318 K0. F130.
G1 X66.898
X67.178
G17 G3 Y-22.698 I0. J1.025
G1 X2.822
G2 Y-20.648 I0. J1.025
G1 X67.178
G3 Y-18.598 I0. J1.025
G1 X2.822
G2 Y-16.548 I0. J1.025
G1 X67.178
G3 Y-14.498 I0. J1.025
G1 X2.822
G2 Y-12.448 I0. J1.025
G1 X67.178
G3 Y-10.398 I0. J1.025
G1 X2.822
G2 Y-8.348 I0. J1.025
G1 X67.178
G3 Y-6.298 I0. J1.025
G1 X2.822
G2 Y-4.248 I0. J1.025
G1 X67.178
G18 G2 X67.496 Z0.03 I0. K0.317
G1 Z5.
X67.454 Y-3.203
Z-0.47 F43.
G3 X67.137 Z-0.788 I-0.317 K0. F130.
G1 X2.863
X2.822
G17 G3 Y-5.253 I0. J-1.025
G1 X67.178
G2 Y-7.302 I0. J-1.025
G1 X2.822
G3 Y-9.352 I0. J-1.025
G1 X67.178
G2 Y-11.402 I0. J-1.025
G1 X2.822
G3 Y-13.452 I0. J-1.025
G1 X67.178
G2 Y-15.502 I0. J-1.025
G1 X2.822
G3 Y-17.552 I0. J-1.025
G1 X67.178
G2 Y-19.602 I0. J-1.025
G1 X2.822
G3 Y-21.652 I0. J-1.025
G1 X67.178
G2 Y-23.702 I0. J-1.025
G1 X67.172
X2.828
G3 Y-25.752 I0. J-1.025
G1 X4.058
X65.942
G18 G2 X66.26 Z-0.47 I0. K0.318
G1 Z5.
X40.217 Y-26.797
Z-0.67 F43.
G3 X39.899 Z-0.988 I-0.318 K0. F130.
G1 X22.454 F100.
G3 X22.136 Z-0.67 I0. K0.317 F130.
G1 Z5.
X2.784 Y-24.747
Z-0.67 F43.
G2 X3.102 Z-0.988 I0.318 K0. F130.
G1 X66.898 F100.
X67.178 F130.
G17 G3 Y-22.698 I0. J1.025
G1 X2.822 F100.
G2 Y-20.648 I0. J1.025 F130.
G1 X67.178 F100.
G3 Y-18.598 I0. J1.025 F130.
G1 X2.822 F100.
G2 Y-16.548 I0. J1.025 F130.
G1 X67.178 F100.
G3 Y-14.498 I0. J1.025 F130.
G1 X2.822 F100.
G2 Y-12.448 I0. J1.025 F130.
G1 X67.178 F100.
G3 Y-10.398 I0. J1.025 F130.
G1 X2.822 F100.
G2 Y-8.348 I0. J1.025 F130.
G1 X67.178 F100.
G3 Y-6.298 I0. J1.025 F130.
G1 X2.822 F100.
G2 Y-4.248 I0. J1.025 F130.
G1 X67.178 F100.
G18 G2 X67.496 Z-0.67 I0. K0.317 F130.
G1 Z15.
G17

M9
M5
G28 G91 Z0.
G90
G28 G91 X0. Y0.
G90
M30
